/* XPM */
static const char *bitcoin32[] = {
/* columns rows colors chars-per-pixel */
"32 32 101 2 ",
"   c #4C0383",
".  c #4D0483",
"X  c #4D0483",
"o  c #4D0383",
"O  c #4C0283",
"+  c #4C0283",
"@  c #4C0283",
"#  c #4E0784",
"$  c #510C86",
"%  c #56178B",
"&  c #5B218F",
"*  c #5E2791",
"=  c #612E93",
"-  c #653696",
";  c #723B9E",
":  c #6C469C",
">  c #71459E",
",  c #774AA2",
"<  c #7955A5",
"1  c #885EAE",
"2  c #8464AC",
"3  c #8D68B1",
"4  c #916DB4",
"5  c #8F76B4",
"6  c #9478B7",
"7  c #9A87BC",
"8  c #A78CC3",
"9  c #AC97C7",
"0  c #B39ACB",
"q  c #BAA0CF",
"w  c #BEA9D3",
"e  c #BDA9D2",
"r  c #BBAAD1",
"t  c #BCA5D1",
"y  c #C5B0D7",
"u  c #C3B4D7",
"i  c #C3B6D7",
"p  c #C7B6D9",
"a  c #C8BBDA",
"s  c #C8B3D9",
"d  c #D3C7E1",
"f  c #D4C9E2",
"g  c #D9CFE6",
"h  c #DCD3E8",
"j  c #DED4E9",
"k  c #DFD6E9",
"l  c #E0D5EA",
"z  c #E3DBEC",
"x  c #E4DCED",
"c  c #E5DEEE",
"v  c #E9E1F0",
"b  c #E9E2F0",
"n  c #EBE5F2",
"m  c #EBE6F2",
"M  c #EEE8F3",
"N  c #EEE9F4",
"B  c #EFEAF4",
"V  c #F0EDF5",
"C  c #F1EDF5",
"Z  c #F1EDF6",
"A  c #F3F0F7",
"S  c #F3F1F7",
"D  c #F4F0F7",
"F  c #F4F1F8",
"G  c #F5F2F8",
"H  c #F6F4F9",
"J  c #F7F5FA",
"K  c #F7F6FA",
"L  c #FAF9FC",
"P  c #FAFAFC",
"I  c #FBFAFC",
"U  c #FBFAFD",
"Y  c #FBFBFD",
"T  c #FCFBFD",
"R  c #FDFCFD",
"E  c #FDFCFE",
"W  c #FDFDFE",
"Q  c #FEFEFE",
"!  c #FEFEFF",
"~  c #FFFFFF",
"^  c #FDFCFD",
"/  c #4C0283",
"(  c #4C0283",
")  c #4C0182",
"_  c #4C0182",
"`  c #4B0182",
"'  c #4B0182",
"]  c #4B0182",
"[  c #4B0182",
"{  c #4B0182",
"}  c #4B0182",
"|  c #4B0182",
" . c #4B0182",
".. c #4B0082",
"X. c #4B0182",
"o. c #4A0081",
"O. c #480080",
"+. c #490080",
"@. c #4A0081",
"#. c None",
"$. c #4A0081",
/* pixels */
"#.#.#.#.#.#.#.#.#.o.{ / O o . # # . o O / { o.#.#.#.#.#.#.#.#.#.",
"#.#.#.#.#.#.#.o.` @ X # # # # # $ $ # # # X @ ] #.#.#.#.#.#.#.#.",
"#.#.#.#.#.#. .@ X # $ $ $ % $ , ; $ $ $ $ $ # X @  .#.#.#.#.#.#.",
"#.#.#.#.#.]   # $ $ % % % % % y q % % % % % $ $ #   ] #.#.#.#.#.",
"#.#.#.#.) o # $ % % % % % % < F M , % % % % % % $ # o ) #.#.#.#.",
"#.#.#.] o # $ % % % % % & * t ~ ~ 9 & & & % % % % $ # o ] #.#.#.",
"#.#. .  # $ % % % % & * * < N ~ ~ b , * * & % % % % $ #    .#.#.",
"#.#.@ # $ % % % & * * = = 0 ~ Z F ~ 9 = = * * & % % % $ # @ #.#.",
"#.` X $ % % % & * = = = < b ~ 0 r ~ x , = = * * & % % % $ X ` #.",
"#.@ # $ % % & * = = - - 9 ~ m < 2 Z ~ 8 - - = * * % % % $ # @ #.",
"{ o $ % % % & * = - - < z ~ r : : i ~ j , - - = * & % % % $ o { ",
"/ # $ % % & * = = - - 8 ~ Z 3 > > 5 A ~ 8 - - = = * & % % $ # / ",
"O # $ % % & * = - - , h ~ i < < < < a ~ g , - - = * & % % $ # O ",
"o # % % % * = = - - 7 L L 9 5 6 6 5 9 L L 7 - - = = * % % % # o ",
". $ % % % * = - - > f ~ ~ J J J J J K ~ ~ d > - - = * % % % # . ",
"# $ % % & * = - - 5 F L L L T T ~ ~ ~ L T F 4 - - = * % % % $ # ",
"# $ % % % * = - - < 6 6 7 7 7 7 7 7 7 7 6 6 < - - = * & % % $ # ",
". $ % % % * = = , 4 5 6 6 7 7 7 7 7 7 6 6 4 4 , = = * % % % $ . ",
"o # $ % % * * - p T L L L L L L L L L L L L L w - = * % % % # o ",
"O # $ % % & * 1 F ~ A Z Z Z J ~ ~ J Z Z Z A ~ N < * & % % $ # O ",
"/ # $ % % & * w ~ x 3 1 2 2 9 ~ ~ 9 2 2 < 3 x ~ 0 * & % % $ # / ",
"{ o $ % % % , N ~ 8 - - : : 6 ~ ~ 6 : : - - 8 ~ m , % % % $ o { ",
"#.@ # $ % % 9 ~ j > = - - - 6 ~ ~ 6 - - - = > l ~ 8 % % $ # @ #.",
"#.` X $ % % < 3 < * = = - - 6 ~ ~ 6 - - = = * < 3 < % $ $ X ` #.",
"#.#.@ # $ % % % % * * = = = 4 ~ ~ 4 = = = * * % % % % $ # @ #.#.",
"#.#. .  # $ % % % % & * * * 4 ~ ~ 4 * * * & % % % % $ #    .#.#.",
"#.#.#.] o # $ % % % % & & & 3 ~ T 3 & & & % % % % $ # o ] #.#.#.",
"#.#.#.#.) o # $ % % % % % % 3 ~ T 3 % % % % % $ $ # o ) #.#.#.#.",
"#.#.#.#.#.]   # $ $ % % % % 1 T T 1 % % % % $ # #   ] #.#.#.#.#.",
"#.#.#.#.#.#. .@ X # $ $ $ $ , s s , $ $ $ $ # X @  .#.#.#.#.#.#.",
"#.#.#.#.#.#.#.o.] @ X # # # $ $ $ $ # # # X @ ` #.#.#.#.#.#.#.#.",
"#.#.#.#.#.#.#.#.#.o.{ / O o . # # . o O / { o.#.#.#.#.#.#.#.#.#."
};
