/* XPM */
static const char *bitcoin16[] = {
/* columns rows colors chars-per-pixel */
"16 16 109 2 ",
"   c #4F0985",
".  c #4F0985",
"X  c #4E0784",
"o  c #4E0784",
"O  c #4E0584",
"+  c #4D0584",
"@  c #4D0584",
"#  c #4F0885",
"$  c #4F0885",
"%  c #510C87",
"&  c #510C87",
"*  c #520E87",
"=  c #520F88",
"-  c #541289",
";  c #56128A",
":  c #55148A",
">  c #56178B",
",  c #56198B",
"<  c #57198B",
"1  c #58198C",
"2  c #581B8C",
"3  c #591E8D",
"4  c #591F8E",
"5  c #5A1F8E",
"6  c #5A208E",
"7  c #5B228F",
"8  c #5C228F",
"9  c #5D2490",
"0  c #5C2590",
"q  c #5E2791",
"w  c #5F2A92",
"e  c #602D93",
"r  c #612D93",
"t  c #612F93",
"y  c #613094",
"u  c #623094",
"i  c #623194",
"p  c #643496",
"a  c #653897",
"s  c #663998",
"d  c #663A98",
"f  c #70419D",
"g  c #73459F",
"h  c #7845A2",
"j  c #7B49A4",
"k  c #7851A4",
"l  c #8157A9",
"z  c #805EA9",
"x  c #815DAA",
"c  c #825EAA",
"v  c #845CAB",
"b  c #8360AB",
"n  c #8360AC",
"m  c #8E69B2",
"M  c #8F6AB2",
"N  c #8E72B3",
"B  c #8E76B4",
"V  c #8E77B4",
"C  c #9176B5",
"Z  c #A382C0",
"A  c #A483C1",
"S  c #A485C1",
"D  c #A789C3",
"F  c #A58EC2",
"G  c #A58FC3",
"H  c #A989C4",
"J  c #AA89C4",
"K  c #AA98C6",
"L  c #AA98C7",
"P  c #AD9FC9",
"I  c #BAA6D0",
"U  c #BBA8D1",
"Y  c #BEABD3",
"T  c #C2AFD5",
"R  c #C3ADD6",
"E  c #C3AED6",
"W  c #C4AFD7",
"Q  c #C6B3D8",
"!  c #C6B4D8",
"~  c #C8B4D9",
"^  c #C8B8DA",
"/  c #C8B9DA",
"(  c #CCBEDD",
")  c #D2C6E1",
"_  c #D2C7E1",
"`  c #DACFE6",
"'  c #DBD0E7",
"]  c #DCD5E8",
"[  c #DED4E9",
"{  c #DED7E9",
"}  c #DFD7EA",
"|  c #E0D8EA",
" . c #E3DDED",
".. c #E4DDED",
"X. c #E5DEEE",
"o. c #E6E0EE",
"O. c #E7E0EF",
"+. c #E8E4F0",
"@. c #EDE8F3",
"#. c #EFEAF4",
"$. c #EEEBF4",
"%. c #EFECF5",
"&. c #4C0383",
"*. c #4C0383",
"=. c #4C0182",
"-. c #4B0182",
";. c #4A0081",
":. c #4A0081",
">. c None",
/* pixels */
">.>.>.;.*.+ X # # X + *.;.>.>.>.",
">.>.=.@ . & = j h = & . @ =.>.>.",
">.=.O & > 2 9 ~ T 8 2 > & O =.>.",
";.@ & > 6 9 v #.@.l 9 6 > & @ ;.",
"*.. > 6 w p T / ( Y p w 6 > . *.",
"+ & 2 9 i b X.N C X.z i 9 2 & + ",
"o - 6 t s U ] B B ] I s t 6 - o ",
"$ > 6 t k | %.+.+.%.] k t 6 > $ ",
"$ > 6 i b G L P P L G z i 6 > $ ",
"o - 3 g ] o.X.#.#. .o.` f 3 - o ",
"+ & < D ' b z _ _ z n ' S < & + ",
"*.. 2 A m i a / / a i m Z 2 . *.",
";.@ & > 3 9 t ! Q t 9 3 > & @ ;.",
">.=.O & > 2 6 W T 6 2 > & O =.>.",
">.>.=.@ . & - J J - & . @ =.>.>.",
">.>.>.:.*.+ X - - X + *.;.>.>.>."
};
