/* XPM */
static const char *bitcoin128[] = {
/* columns rows colors chars-per-pixel */
"128 128 118 2 ",
"   c #4B0182",
".  c #4B0182",
"X  c #4C0182",
"o  c #4B0182",
"O  c #4B0182",
"+  c #4B0182",
"@  c #4B0082",
"#  c #4B0082",
"$  c #4B0182",
"%  c #4B0082",
"&  c #4B0082",
"*  c #4D0584",
"=  c #510C87",
"-  c #56178B",
";  c #5B228F",
":  c #5E2791",
">  c #612D93",
",  c #653797",
"<  c #713C9E",
"1  c #753FA0",
"2  c #6C459C",
"3  c #704B9F",
"4  c #754AA1",
"5  c #7657A3",
"6  c #7C64A8",
"7  c #835BAA",
"8  c #8468AD",
"9  c #8571AF",
"0  c #8C6BB1",
"q  c #8B73B2",
"w  c #9577B7",
"e  c #A17FBF",
"r  c #9D83BD",
"t  c #A08ABF",
"y  c #A58AC2",
"u  c #AC95C7",
"i  c #B39ACB",
"p  c #B6A2CE",
"a  c #BCABD2",
"s  c #BDB0D3",
"d  c #C2AED5",
"f  c #C7B7D9",
"g  c #CFC2DE",
"h  c #D0C2DF",
"j  c #D6CAE3",
"k  c #DCD4E8",
"l  c #E2DAEB",
"z  c #E7E1EF",
"x  c #EAE3F0",
"c  c #E9E1F0",
"v  c #EBE4F1",
"b  c #EDE7F2",
"n  c #EEE8F3",
"m  c #EAE6F1",
"M  c #F1EDF6",
"N  c #F2EDF6",
"B  c #F3EEF7",
"V  c #F2EEF6",
"C  c #F5F2F8",
"Z  c #F6F2F9",
"A  c #F6F3F9",
"S  c #F8F6FA",
"D  c #FAF8FB",
"F  c #FBF9FC",
"G  c #FDFCFD",
"H  c #FEFDFE",
"J  c #FEFEFF",
"K  c #FFFEFF",
"L  c #FFFFFF",
"P  c #FEFEFF",
"I  c #4B0082",
"U  c #4B0082",
"Y  c #4B0082",
"T  c #4B0082",
"R  c #4B0082",
"E  c #4B0082",
"W  c #4B0082",
"Q  c #4B0082",
"!  c #4B0082",
"~  c #4B0082",
"^  c #4B0082",
"/  c #4B0082",
"(  c #4B0082",
")  c #4B0082",
"_  c #4B0082",
"`  c #4B0082",
"'  c #4B0082",
"]  c #4B0082",
"[  c #4B0082",
"{  c #4B0082",
"}  c #4B0082",
"|  c #4B0082",
" . c #4B0082",
".. c #4B0082",
"X. c #4B0082",
"o. c #4B0082",
"O. c #4B0082",
"+. c #4B0082",
"@. c #4B0082",
"#. c #4B0082",
"$. c #4B0082",
"%. c #4B0082",
"&. c #4B0082",
"*. c #4B0082",
"=. c #4B0082",
"-. c #4B0082",
";. c #4B0082",
":. c #4B0082",
">. c #4B0082",
",. c #4B0082",
"<. c #4B0082",
"1. c #4B0082",
"2. c #4B0082",
"3. c #4B0082",
"4. c #4B0082",
"5. c #4A0082",
"6. c None",
"7. c #4B0082",
/* pixels */
"6.6.6.6.6.6.6.6.6.6.6.6.6.6.6.6.6.6.6.6.6.6.6.6.6.6.6.6.6.6.6.6.6.6.6.6.6.6.6.6.6.6.6.6.6.6.6.6.6.6.6.;.} ..Y & @ $ . o o X * * * * X o o . $ @ & Y ..} ;.6.6.6.6.6.6.6.6.6.6.6.6.6.6.6.6.6.6.6.6.6.6.6.6.6.6.6.6.6.6.6.6.6.6.6.6.6.6.6.6.6.6.6.6.6.6.6.6.6.6.6.",
"6.6.6.6.6.6.6.6.6.6.6.6.6.6.6.6.6.6.6.6.6.6.6.6.6.6.6.6.6.6.6.6.6.6.6.6.6.6.6.6.6.6.6.6.6.6.6.$._ Y & # O o * * * * * * * * * * * * * * * * * * * * o O # & Y _ $.6.6.6.6.6.6.6.6.6.6.6.6.6.6.6.6.6.6.6.6.6.6.6.6.6.6.6.6.6.6.6.6.6.6.6.6.6.6.6.6.6.6.6.6.6.6.6.",
"6.6.6.6.6.6.6.6.6.6.6.6.6.6.6.6.6.6.6.6.6.6.6.6.6.6.6.6.6.6.6.6.6.6.6.6.6.6.6.6.6.6.6.6.&.! & . o * * * * * * * * * * * * * * * * * * * * * * * * * * * * * * o . & E O.6.6.6.6.6.6.6.6.6.6.6.6.6.6.6.6.6.6.6.6.6.6.6.6.6.6.6.6.6.6.6.6.6.6.6.6.6.6.6.6.6.6.6.6.",
"6.6.6.6.6.6.6.6.6.6.6.6.6.6.6.6.6.6.6.6.6.6.6.6.6.6.6.6.6.6.6.6.6.6.6.6.6.6.6.6.6.#.W @ O * * * * * * * * * * * * * * * * * * * * * * * * * * * * * * * * * * * * * * O @ W +.6.6.6.6.6.6.6.6.6.6.6.6.6.6.6.6.6.6.6.6.6.6.6.6.6.6.6.6.6.6.6.6.6.6.6.6.6.6.6.6.6.",
"6.6.6.6.6.6.6.6.6.6.6.6.6.6.6.6.6.6.6.6.6.6.6.6.6.6.6.6.6.6.6.6.6.6.6.6.6.6.;.] & . * * * * * * * * * * * * * * * * * * * * * * * * * * * * * * * * * * * * * * * * * * * * . & ] ;.6.6.6.6.6.6.6.6.6.6.6.6.6.6.6.6.6.6.6.6.6.6.6.6.6.6.6.6.6.6.6.6.6.6.6.6.6.6.",
"6.6.6.6.6.6.6.6.6.6.6.6.6.6.6.6.6.6.6.6.6.6.6.6.6.6.6.6.6.6.6.6.6.6.6.6.:.! @ o * * * * * * * * * * * * * * * * * * * = * * * * = = = = = * * * * * * * * * * * * * * * * * * * o @ ! =.6.6.6.6.6.6.6.6.6.6.6.6.6.6.6.6.6.6.6.6.6.6.6.6.6.6.6.6.6.6.6.6.6.6.6.6.",
"6.6.6.6.6.6.6.6.6.6.6.6.6.6.6.6.6.6.6.6.6.6.6.6.6.6.6.6.6.6.6.6.6.6.$.R . X * * * * * * * * * * * * * * = = = = = = = = = = = = = = = = = = = = = = * * * * * * * * * * * * * * * * X $ R $.6.6.6.6.6.6.6.6.6.6.6.6.6.6.6.6.6.6.6.6.6.6.6.6.6.6.6.6.6.6.6.6.6.6.",
"6.6.6.6.6.6.6.6.6.6.6.6.6.6.6.6.6.6.6.6.6.6.6.6.6.6.6.6.6.6.6.6.;.E . X * * * * * * * * * * * * = = = = = = = = = = = = = = = = = = = = = = = = = = = = = = = = * * * * * * * * * * * * * . E ;.6.6.6.6.6.6.6.6.6.6.6.6.6.6.6.6.6.6.6.6.6.6.6.6.6.6.6.6.6.6.6.6.",
"6.6.6.6.6.6.6.6.6.6.6.6.6.6.6.6.6.6.6.6.6.6.6.6.6.6.6.6.6.6.6.' @ X * * * * * * * * * * * = = = = = = = = = = = = = = = = = = > - = = = = = = = = = = = = = = = = = * * * * * * * * * * * * X @ ' <.6.6.6.6.6.6.6.6.6.6.6.6.6.6.6.6.6.6.6.6.6.6.6.6.6.6.6.6.6.6.",
"6.6.6.6.6.6.6.6.6.6.6.6.6.6.6.6.6.6.6.6.6.6.6.6.6.6.6.6.6.O.& o * * * * * * * * * * = = = = = = = = = = = = = = = = = = = = - i 7 = = = = = = = = = = = = = = = = = = = = = * * * * * * * * * * o & O.6.6.6.6.6.6.6.6.6.6.6.6.6.6.6.6.6.6.6.6.6.6.6.6.6.6.6.6.6.",
"6.6.6.6.6.6.6.6.6.6.6.6.6.6.6.6.6.6.6.6.6.6.6.6.6.6.6.<.! . * * * * * * * * * * = = = = = = = = = = = = = = = = - - - - - = 4 B f - - - - - - - - = = = = = = = = = = = = = = = * * * * * * * * * * . ! <.6.6.6.6.6.6.6.6.6.6.6.6.6.6.6.6.6.6.6.6.6.6.6.6.6.6.6.",
"6.6.6.6.6.6.6.6.6.6.6.6.6.6.6.6.6.6.6.6.6.6.6.6.6.6.+.& o * * * * * * * * = = = = = = = = = = = = = = = - - - - - - - - - - i L A 7 = - - - - - - - - - = = = = = = = = = = = = = = = * * * * * * * * o & +.6.6.6.6.6.6.6.6.6.6.6.6.6.6.6.6.6.6.6.6.6.6.6.6.6.6.",
"6.6.6.6.6.6.6.6.6.6.6.6.6.6.6.6.6.6.6.6.6.6.6.6.6.... * * * * * * * * * = = = = = = = = = = = = - - - - - - - - - - - - - < v L L d - - - - - - - - - - - - - - = = = = = = = = = = = = * * * * * * * * * . ..6.6.6.6.6.6.6.6.6.6.6.6.6.6.6.6.6.6.6.6.6.6.6.6.6.",
"6.6.6.6.6.6.6.6.6.6.6.6.6.6.6.6.6.6.6.6.6.6.6.<.I o * * * * * * * * = = = = = = = = = = = - - - - - - - - - - - - - - - - y L L L B 4 - - - - - - - - - - - - - - - - = = = = = = = = = = = * * * * * * * * o I 1.6.6.6.6.6.6.6.6.6.6.6.6.6.6.6.6.6.6.6.6.6.6.6.",
"6.6.6.6.6.6.6.6.6.6.6.6.6.6.6.6.6.6.6.6.6.6.$.& X * * * * * * * * = = = = = = = = = = - - - - - - - - - - - - - - - - - , l L L L L p - - - - - - - - - - - - - - - - - - = = = = = = = = = = * * * * * * * * X & $.6.6.6.6.6.6.6.6.6.6.6.6.6.6.6.6.6.6.6.6.6.6.",
"6.6.6.6.6.6.6.6.6.6.6.6.6.6.6.6.6.6.6.6.6.O.@ * * * * * * * * = = = = = = = = = = - - - - - - - - - - - - - - - - - - - e L L L L L n 4 - - - - - - - - - - - - - - - - - - - = = = = = = = = = = * * * * * * * * @ O.6.6.6.6.6.6.6.6.6.6.6.6.6.6.6.6.6.6.6.6.6.",
"6.6.6.6.6.6.6.6.6.6.6.6.6.6.6.6.6.6.6.6.{ $ * * * * * * * = = = = = = = = = - - - - - - - - - - - - - - - - - - - - - , k L L L L L L i - - - - - - - - - - - - - - - - - - - - - - = = = = = = = = * * * * * * * * $ { 6.6.6.6.6.6.6.6.6.6.6.6.6.6.6.6.6.6.6.6.",
"6.6.6.6.6.6.6.6.6.6.6.6.6.6.6.6.6.6.6._ . * * * * * * * = = = = = = = = - - - - - - - - - - - - - - - - - - - - - - - w L L L L L L L c < - - - - - - - - - - - - - - - - - - - - - - - = = = = = = = = * * * * * * * . _ 6.6.6.6.6.6.6.6.6.6.6.6.6.6.6.6.6.6.6.",
"6.6.6.6.6.6.6.6.6.6.6.6.6.6.6.6.6.6.( . * * * * * * * = = = = = = = = = - - - - - - - - - - - - - - - - - - - - ; ; > j L L L L L L L L y - - - ; ; ; - - - - - - - - - - - - - - - - - = = = = = = = = = * * * * * * * . ( 6.6.6.6.6.6.6.6.6.6.6.6.6.6.6.6.6.6.",
"6.6.6.6.6.6.6.6.6.6.6.6.6.6.6.6.6._ . * * * * * * * = = = = = = = = - - - - - - - - - - - - - - - - - - ; ; ; ; ; ; 0 F L L L L L L L L l < ; ; ; ; ; ; ; - - - - - - - - - - - - - - - - - - = = = = = = = * * * * * * * . _ 6.6.6.6.6.6.6.6.6.6.6.6.6.6.6.6.6.",
"6.6.6.6.6.6.6.6.6.6.6.6.6.6.6.6.{ . * * * * * * = = = = = = = = - - - - - - - - - - - - - - - - ; ; ; ; ; ; ; ; ; > f L L L L L L L L L L t ; ; ; ; ; ; ; ; ; - - - - - - - - - - - - - - - - - = = = = = = = = * * * * * * . { 6.6.6.6.6.6.6.6.6.6.6.6.6.6.6.6.",
"6.6.6.6.6.6.6.6.6.6.6.6.6.6.6.O.$ * * * * * * * = = = = = = = - - - - - - - - - - - - - - - ; ; ; ; ; ; ; ; ; ; ; 7 A L L L L L L L L L L k , ; ; ; ; ; ; ; ; ; ; ; - - - - - - - - - - - - - - - = = = = = = = * * * * * * * $ &.6.6.6.6.6.6.6.6.6.6.6.6.6.6.6.",
"6.6.6.6.6.6.6.6.6.6.6.6.6.6.$.@ * * * * * * * = = = = = = = - - - - - - - - - - - - - - ; ; ; ; ; ; ; ; ; ; ; ; : d L L L L L L L L L L L G w ; ; ; ; ; ; ; ; ; ; ; ; ; - - - - - - - - - - - - - - = = = = = = = * * * * * * * @ $.6.6.6.6.6.6.6.6.6.6.6.6.6.6.",
"6.6.6.6.6.6.6.6.6.6.6.6.6.<.& * * * * * * * = = = = = = = - - - - - - - - - - - - - ; ; ; ; ; ; ; ; ; ; ; : : ; 7 B L L L L L L L L L L L L j , ; : ; ; ; ; ; ; ; ; ; ; ; ; - - - - - - - - - - - - - - = = = = = = * * * * * * * & <.6.6.6.6.6.6.6.6.6.6.6.6.6.",
"6.6.6.6.6.6.6.6.6.6.6.6.6.I X * * * * * * = = = = = = - - - - - - - - - - - - ; ; ; ; ; ; ; ; ; ; ; ; : : : : : p L L L L L L L L L L L L L F w ; : : : : ; ; ; ; ; ; ; ; ; ; ; - - - - - - - - - - - - = = = = = = = * * * * * * X I 6.6.6.6.6.6.6.6.6.6.6.6.6.",
"6.6.6.6.6.6.6.6.6.6.6.6...o * * * * * * = = = = = = - - - - - - - - - - - - ; ; ; ; ; ; ; ; ; ; ; : : : : : : 4 b L L L L L L L L L L L L L L j , : : : : : : : : ; ; ; ; ; ; ; ; ; - - - - - - - - - - - = = = = = = = * * * * * * o ..6.6.6.6.6.6.6.6.6.6.6.6.",
"6.6.6.6.6.6.6.6.6.6.6.+.. * * * * * * = = = = = = - - - - - - - - - - - ; ; ; ; ; ; ; ; ; ; : : : : : : > > : i L L L L L L L L L L L L L L L S 0 : > > : : : : : : ; ; ; ; ; ; ; ; ; - - - - - - - - - - - - = = = = = = * * * * * * . O.6.6.6.6.6.6.6.6.6.6.6.",
"6.6.6.6.6.6.6.6.6.6.<.& * * * * * * = = = = = = - - - - - - - - - - - - ; ; ; ; ; ; ; ; : : : : : > > > > > 4 l L L L L L L L L L L L L L L L L f , > > > > > > > : : : ; ; ; ; ; ; ; ; - - - - - - - - - - - - = = = = = = * * * * * * & <.6.6.6.6.6.6.6.6.6.6.",
"6.6.6.6.6.6.6.6.6.6.! o * * * * * = = = = = = - - - - - - - - - - - ; ; ; ; ; ; ; ; ; : : : > > > > > > > : y L L L L L L L L L L L L L L L L L A 8 > > > > > > > : : : : ; ; ; ; ; ; ; ; ; - - - - - - - - - - - = = = = = = * * * * * o ! 6.6.6.6.6.6.6.6.6.6.",
"6.6.6.6.6.6.6.6.6.O.. * * * * * = = = = = = = - - - - - - - - - - ; ; ; ; ; ; ; ; : : : > > > > > > > > > 2 l L L L L L L L L L L L L L L L L L L d , > > > > > > > > > : : : ; ; ; ; ; ; ; ; - - - - - - - - - - = = = = = = = * * * * * . O.6.6.6.6.6.6.6.6.6.",
"6.6.6.6.6.6.6.6.6.& * * * * * * = = = = = = - - - - - - - - - - ; ; ; ; ; ; ; ; : : : > > > > > > > > > > r L L L L L L L L L f c L L L L L L L L B 7 > > > > > > > > > > > : : : ; ; ; ; ; ; ; - - - - - - - - - - = = = = = = * * * * * * & 6.6.6.6.6.6.6.6.6.",
"6.6.6.6.6.6.6.6...o * * * * * = = = = = = - - - - - - - - - - - ; ; ; ; ; ; : : : : > > > > > > > > > > < j L L L L L L L L B 7 i L L L L L L L L L a , > > > > > > > > > > > : : : ; ; ; ; ; ; - - - - - - - - - - - = = = = = * * * * * * o ' 6.6.6.6.6.6.6.6.",
"6.6.6.6.6.6.6.;.@ * * * * * * = = = = = - - - - - - - - - - ; ; ; ; ; ; ; : : > > > > > > > > > > > , > w F L L L L L L L L d , 5 n L L L L L L L L n 5 > , > > > > > > > > > > : : : ; ; ; ; ; ; ; - - - - - - - - - - = = = = = * * * * * * @ ;.6.6.6.6.6.6.6.",
"6.6.6.6.6.6.6.W X * * * * * = = = = = = - - - - - - - - - ; ; ; ; ; ; ; : : > > > > > > > > > , , , , , h L L L L L L L L A 0 , , a L L L L L L L L L i , , , , > > > > > > > > > : : : ; ; ; ; ; ; ; - - - - - - - - - - = = = = = * * * * * X E 6.6.6.6.6.6.6.",
"6.6.6.6.6.6.$.$ * * * * * = = = = = = - - - - - - - - - ; ; ; ; ; ; : : : > > > > > > > > > , , , , , 0 S L L L L L L L L f 2 , , 7 n L L L L L L L L c 5 , , , , , > > > > > > > > > : : ; ; ; ; ; ; ; ; - - - - - - - - - = = = = = * * * * * $ $.6.6.6.6.6.6.",
"6.6.6.6.6.6.R * * * * * * = = = = = - - - - - - - - - - ; ; ; ; ; ; : : > > > > > > > > , , , , , , , f L L L L L L L L S w , , , , a L L L L L L L L L u , , , , , , , > > > > > > > > : : ; ; ; ; ; ; ; - - - - - - - - - = = = = = * * * * * X R 6.6.6.6.6.6.",
"6.6.6.6.6.$.$ * * * * * = = = = = = - - - - - - - - ; ; ; ; ; ; ; : : > > > > > > > > , , , , , , , 8 B L L L L L L L L j 2 , 2 , , 8 B L L L L L L L L l 4 , , , , , , , > > > > > > > : : : : ; ; ; ; ; ; - - - - - - - - = = = = = = * * * * * $ $.6.6.6.6.6.",
"6.6.6.6.6.! X * * * * * = = = = = - - - - - - - - ; ; ; ; ; ; ; : : > > > > > > > > , , , , , , , , a L L L L L L L L F w , 2 2 2 2 2 d L L L L L L L L L y , , , , , , , , , > > > > > > : : : ; ; ; ; ; ; - - - - - - - - = = = = = = * * * * * X ! 6.6.6.6.6.",
"6.6.6.6.;.@ * * * * * = = = = = - - - - - - - - - ; ; ; ; ; ; : : : > > > > > > , , , , , , , , , 7 n L L L L L L L L j 4 2 2 2 2 2 2 0 B L L L L L L L L k 4 , , , , , , , , , > > > > > > > : : ; ; ; ; ; - - - - - - - - - - = = = = = * * * * * @ ;.6.6.6.6.",
"6.6.6.6.] o * * * * * = = = = = - - - - - - - - - ; ; ; ; ; : : : > > > > > > > , , , , , , , , , p L L L L L L L L L y 2 2 2 2 2 2 2 2 f L L L L L L L L G r , , , , , , , , , , > > > > > > : : : ; ; ; ; ; - - - - - - - - - = = = = = * * * * * o ] 6.6.6.6.",
"6.6.6.6.& * * * * * = = = = = - - - - - - - - - ; ; ; ; ; : : : > > > > > > , , , , , , , , , , 5 c L L L L L L L L k 5 2 2 2 2 2 2 2 2 q S L L L L L L L L j 3 , , , , , , , , , , > > > > > > : : ; ; ; ; ; ; - - - - - - - - - = = = = * * * * * * & 6.6.6.6.",
"6.6.6.+.. * * * * * = = = = = - - - - - - - - - ; ; ; ; ; : : > > > > > > , , , , , , , , , , , u L L L L L L L L L u 2 2 2 2 2 2 2 2 2 3 f L L L L L L L L D w , , , , , , , , , , , > > > > > > : : ; ; ; ; ; ; - - - - - - - - = = = = = = * * * * . +.6.6.6.",
"6.6.6.W * * * * * * = = = = - - - - - - - - - ; ; ; ; ; : : : > > > > > > , , , , , , , , , , 4 l L L L L L L L L l 5 2 2 2 2 2 3 3 2 2 2 w S L L L L L L L L j 2 2 , , , , , , , , , > > > > > > > : : ; ; ; ; ; - - - - - - - - = = = = = = * * * * * W 6.6.6.",
"6.6.6.@ * * * * * = = = = = - - - - - - - - - ; ; ; ; ; : : > > > > > > , , , , , , , , , , , y L L L L L L L L L i 2 2 3 3 3 3 3 3 3 3 2 4 g L L L L L L L L S w , 2 , , , , , , , , , > > > > > > : : ; ; ; ; ; - - - - - - - - - = = = = = * * * * * @ 6.6.6.",
"6.6.&.O * * * * = = = = = = - - - - - - - ; ; ; ; ; ; : : : > > > > > , , , , , , , , , 2 2 4 k L L L L L L L L m 8 3 3 3 3 3 4 3 3 3 3 3 2 w S L L L L L L L L f 2 2 2 , , , , , , , , , > > > > > > : : ; ; ; ; ; - - - - - - - - = = = = = * * * * * O &.6.6.",
"6.6.! * * * * * = = = = = - - - - - - - - ; ; ; ; ; ; : : > > > > > > , , , , , , , , 2 2 2 r F L L L L L L L L a 3 3 3 4 4 4 4 4 4 3 3 3 3 4 j L L L L L L L L A 0 , 2 , , , , , , , , , , > > > > > : : ; ; ; ; ; ; - - - - - - - - = = = = = * * * * * ! 6.6.",
"6.6.& * * * * * = = = = = - - - - - - - - ; ; ; ; ; : : > > > > > > , , , , , , , , 2 2 2 3 j L L L L L L L L n 9 3 4 4 4 4 4 4 4 4 4 4 4 4 3 r D L L L L L L L L d 2 2 2 , , , , , , , , , > > > > > > : : ; ; ; ; ; - - - - - - - - = = = = = * * * * * & 6.6.",
"6.$.. * * * * * = = = = = - - - - - - - - ; ; ; ; ; : : > > > > > , , , , , , , , 2 2 2 2 w S L L L L L L L L f 4 4 4 4 4 4 4 4 5 5 4 4 4 4 4 5 j L L L L L L L L B 8 2 2 2 , , , , , , , , > > > > > > : : : ; ; ; ; - - - - - - - - = = = = = * * * * * . $.6.",
"6._ o * * * * = = = = = - - - - - - - - ; ; ; ; ; : : > > > > > > , , , , , , , , 2 2 2 2 f L L L L L L L L B q 3 4 4 5 5 5 5 5 5 5 5 5 5 4 4 3 r F L L L L L L L L a 2 2 2 , , , , , , , , , > > > > > > : : ; ; ; ; ; - - - - - - - = = = = = = * * * * o _ 6.",
"6.Y * * * * * = = = = = - - - - - - - - ; ; ; ; ; : : > > > > > , , , , , , , 2 , 2 2 2 0 B L L L L L L L L f 5 4 5 5 5 5 5 5 5 5 5 5 5 5 5 5 4 5 k L L L L L L L L x 8 2 2 2 , , , , , , , , , > > > > > : : ; ; ; ; ; - - - - - - - = = = = = = * * * * * Y 6.",
"6.& * * * * * = = = = = - - - - - - - ; ; ; ; ; ; : > > > > > > , , , , , , , 2 2 2 2 2 d L L L L L L L L S w 4 5 5 5 5 5 5 5 5 5 5 5 5 5 5 5 5 4 y F L L L L L L L L p 2 2 2 2 , , , , , , , , > > > > > : : ; ; ; ; ; - - - - - - - - = = = = = * * * * * & 6.",
";.# * * * * * = = = = = - - - - - - - ; ; ; ; ; : : > > > > > , , , , , , , , 2 2 2 2 8 n L L L L L L L L j 5 5 5 5 5 5 5 5 5 5 5 5 5 5 5 5 5 5 5 6 k L L L L L L L L z 5 2 2 2 2 , , , , , , , , > > > > : : ; ; ; ; ; ; - - - - - - - = = = = = * * * * * # ;.",
"} O * * * * * = = = = - - - - - - - - ; ; ; ; ; : : > > > > > , , , , , , , , 2 2 2 2 p L L L L L L L L D r 4 5 5 5 5 5 5 5 5 5 5 5 5 5 5 5 5 5 5 4 u L L L L L L L L L u 2 2 2 2 2 , , , , , , , > > > > > : : ; ; ; ; ; - - - - - - - - = = = = = * * * * O } ",
"..o * * * * = = = = = - - - - - - - - ; ; ; ; : : : > > > > > , , , , , , , , 2 2 2 5 c L L L L L L L L j 5 5 5 5 5 5 5 5 5 5 5 5 5 5 5 5 5 5 5 5 5 6 l L L L L L L L L l 5 2 2 2 2 , , , , , , , > > > > > : : ; ; ; ; ; - - - - - - - - = = = = = * * * * o ..",
"Y * * * * * = = = = = - - - - - - - - ; ; ; ; : : : > > > > > , , , , , , , 2 2 2 2 u L L L L L L L L F y 4 5 5 5 5 5 5 5 5 5 5 5 5 5 5 5 5 5 5 5 5 4 u L L L L L L L L L y 2 2 2 2 2 , , , , , , > > > > > > : ; ; ; ; ; ; - - - - - - - = = = = = * * * * * Y ",
"& * * * * * = = = = = - - - - - - - - ; ; ; ; : : : > > > > , , , , , , , , 2 2 2 5 l L L L L L L L L S f a a a s s s s s s s s s s s s s s a a a a a f D L L L L L L L L k 4 2 2 2 2 , , , , , , , > > > > > : : ; ; ; ; ; - - - - - - - = = = = = * * * * * & ",
"@ * * * * * = = = = - - - - - - - - - ; ; ; ; : : > > > > > , , , , , , , 2 2 2 2 y L L L L L L L L L L L L L L L L L L L L L L L L L L L L L L L L L L L L L L L L L L L F r 2 2 2 2 , , , , , , , > > > > > : : ; ; ; ; ; - - - - - - - = = = = = * * * * * @ ",
"$ * * * * * = = = = - - - - - - - - ; ; ; ; ; : : > > > > > , , , , , , , 2 2 2 4 k L L L L L L L L L L L L L L L L L L L L L L L L L L L L L L L L L L L L L L L L L L L L j 4 2 2 2 , , , , , , , > > > > > : : ; ; ; ; ; - - - - - - - - = = = = * * * * * $ ",
". * * * * * = = = = - - - - - - - - ; ; ; ; : : : > > > > > , , , , , , , 2 2 2 r F L L L L L L L L L L L L L L L L L L L L L L L L L L L L L L L L L L L L L L L L L L L L S w 2 2 2 , , , , , , , > > > > > : : : ; ; ; ; - - - - - - - - = = = = * * * * * . ",
"o * * * * = = = = = - - - - - - - ; ; ; ; ; : : : > > > > > , , , , , , , 2 2 4 j L L L L L L L L L L L L L L L L L L L L L L L L L L L L L L L L L L L L L L L L L L L L L L g 2 2 2 , , , , , , , > > > > > : : : ; ; ; ; - - - - - - - - = = = = * * * * * o ",
"o * * * * = = = = = - - - - - - - - ; ; ; ; ; : : > > > > , , , , , , , , 2 , w S L L L L L L L L L L L L L L L L L L L L L L L L L L L L L L L L L L L L L L L L L L L L L L A w 2 2 , , , , , , , , > > > > : : : ; ; ; ; ; - - - - - - - = = = = = * * * * o ",
"X * * * * = = = = = - - - - - - - - ; ; ; ; ; : : > > > > , , , , , , , , 2 2 f L L L L L L L L L L L L L L L L L L L L L L L L L L L L L L L L L L L L L L L L L L L L L L L L f 2 2 , , , , , , , > > > > > : : : ; ; ; ; ; - - - - - - - = = = = = * * * * X ",
"* * * * * = = = = = - - - - - - - ; ; ; ; ; ; : > > > > > , , , , , , , 2 2 0 B L L L L L L L L L L L L L L L L L L L L L L L L L L L L L L L L L L L L L L L L L L L L L L L L B 0 2 2 , , , , , , > > > > > > : : ; ; ; ; ; - - - - - - - = = = = * * * * * * ",
"* * * * * * = = = = - - - - - - - - ; ; ; ; : : > > > > > , , , , , , , 2 2 d L L L L L L L L L L L L L L L L L L L L L L L L L L L L L L L L L L L L L L L L L L L L L L L L L L d 2 2 , , , , , , > > > > > > : : ; ; ; ; - - - - - - - - = = = = = * * * * * ",
"* * * * * * = = = = - - - - - - - - ; ; ; ; : : > > > > > > , , , , , , 2 5 j z l l l l z z z z z z z z z z z z z z x x x x x x x x x x x x x x x x x z z z z z z z z z z z z z z j 5 , , , , , , , , > > > > > : : ; ; ; ; ; - - - - - - - = = = = = * * * * * ",
"* * * * * * = = = = - - - - - - - - ; ; ; ; : : > > > > > > , , , , , , 2 2 4 5 5 5 5 5 5 5 6 6 6 6 6 8 8 8 8 8 8 9 9 9 9 9 q q q q 9 9 9 9 9 9 9 8 8 8 8 6 6 6 6 5 5 5 5 5 5 5 5 4 2 , , , , , , , , > > > > : : ; ; ; ; ; ; - - - - - - - = = = = = * * * * * ",
"X * * * * = = = = = - - - - - - - - ; ; ; ; : : > > > > > , , , , , , , 2 2 2 2 2 2 2 2 3 3 4 4 5 5 5 5 5 5 5 5 6 6 6 6 6 6 6 6 6 6 6 6 6 6 6 6 6 5 5 5 5 5 5 5 4 4 3 3 2 2 2 2 2 2 2 , , , , , , , , > > > > : : ; ; ; ; ; - - - - - - - - = = = = = * * * * X ",
"o * * * * * = = = = - - - - - - - - ; ; ; ; : : > > > > > , , , , , , , 2 2 2 2 2 2 2 2 3 4 4 4 5 5 5 5 5 5 5 5 6 6 6 6 6 6 6 6 6 6 6 6 6 6 6 6 6 5 5 5 5 5 5 5 4 4 4 3 2 2 2 2 2 2 2 , , , , , , , > > > > > : : ; ; ; ; ; - - - - - - - - = = = = = * * * * o ",
"o * * * * = = = = = = - - - - - - - ; ; ; ; : : : > > > > > , , , , , , , 2 2 2 2 2 2 2 3 4 4 4 4 5 5 5 5 5 5 6 6 6 6 6 6 6 6 6 6 6 6 6 6 6 6 6 5 5 5 5 5 5 5 4 4 4 3 3 3 2 2 2 2 2 2 2 , , , , , , > > > > > : : : ; ; ; ; - - - - - - - - = = = = * * * * * o ",
". * * * * = = = = = = - - - - - - - ; ; ; ; ; : : > > > > > , , , , , , , , 2 2 2 2 2 2 3 3 4 4 4 5 5 5 5 5 5 5 5 6 6 6 6 6 6 6 6 6 6 6 6 6 6 5 5 5 5 5 5 5 5 4 4 4 3 3 2 2 2 2 2 2 2 , , , , , , , > > > > > : : : ; ; ; ; - - - - - - - - = = = = * * * * * . ",
"$ * * * * * = = = = - - - - - - - - ; ; ; ; ; : : > > > > > , , , , , 2 3 4 4 4 4 4 5 5 5 5 5 5 5 5 5 6 6 6 6 6 6 6 6 6 8 8 8 8 8 8 8 6 6 6 6 6 6 6 6 5 5 5 5 5 5 5 5 4 4 4 4 3 3 2 2 2 2 , , , , , > > > > > : : ; ; ; ; ; - - - - - - - = = = = = * * * * * $ ",
"@ * * * * * = = = = = - - - - - - - ; ; ; ; ; : : > > > > > , , , , w j l l l l l l l l l l l l l l l l l l l l l l l l l l l l l l k k k k k k k k k k k k k k k k k k k k k k j j j j j 0 , , , , > > > > > : : ; ; ; ; ; - - - - - - - = = = = = * * * * * @ ",
"& * * * * * = = = = = - - - - - - - ; ; ; ; ; : : : > > > > , , , 7 n L L L L L L L L L L L L L L L L L L L L L L L L L L L L L L L L L L L L L L L L L L L L L L L L L L L L L L L L L L f , , , , > > > > > : : ; ; ; ; ; - - - - - - - = = = = = * * * * * & ",
"Y * * * * * = = = = = - - - - - - - - ; ; ; ; : : : > > > > > , , p L L L L L L L L L L L L L L L L L L L L L L L L L L L L L L L L L L L L L L L L L L L L L L L L L L L L L L L L L L L A 0 > , , > > > > : : ; ; ; ; ; ; - - - - - - - = = = = = * * * * * Y ",
"' o * * * * = = = = = - - - - - - - - ; ; ; ; ; : : > > > > > > 5 c L L L L L L L L L L L L L L L L L L L L L L L L L L L L L L L L L L L L L L L L L L L L L L L L L L L L L L L L L L L L f , , , > > > > : : ; ; ; ; ; ; - - - - - - - = = = = = * * * * o ..",
"} O * * * * = = = = = - - - - - - - - ; ; ; ; ; : : > > > > > > u L L L L L L L L L L L L L L L L L L L L L L L L L L L L L L L L L L L L L L L L L L L L L L L L L L L L L L L L L L L L L B 7 > > > > > : : : ; ; ; ; ; - - - - - - - - = = = = = * * * * O } ",
";.# * * * * * = = = = - - - - - - - - ; ; ; ; ; : : : > > > > 4 l L L L L L L L L L L L L L L L L L L L L L L L L L L L L L L L L L L L L L L L L L L L L L L L L L L L L L L L L L L L L L L a , > > > > > : ; ; ; ; ; ; - - - - - - - = = = = = * * * * * # ;.",
"6.& * * * * * = = = = = - - - - - - - ; ; ; ; ; ; : : : > > > y L L L L L L L L L L L L L L L L L L L L L L L L L L L L L L L L L L L L L L L L L L L L L L L L L L L L L L L L L L L L L L L n 5 > > > > : : ; ; ; ; ; ; - - - - - - - = = = = = * * * * * & 6.",
"6.Y * * * * * = = = = = - - - - - - - ; ; ; ; ; ; : : : > > < k L L L L L L L L L L L L L L L L L L L L L L L L L L L L L L L L L L L L L L L L L L L L L L L L L L L L L L L L L L L L L L L L p > > > > : : ; ; ; ; ; - - - - - - - - = = = = = * * * * * ^ 6.",
"6._ o * * * * * = = = = - - - - - - - - - ; ; ; ; : : : > : w G L L L L L L L L L S S S S S S S S S S S S S S S S S L L L L L L L L L L L G S S S S S S S S S S S S S S S S S L L L L L L L L L b 5 > > > : : ; ; ; ; ; - - - - - - - = = = = = = * * * * o _ 6.",
"6.$.. * * * * * = = = = = - - - - - - - - ; ; ; ; ; : > > , j L L L L L L L L L a 0 0 0 0 0 0 q q q q q w w w w w w p G L L L L L L L L F p w w w w w w q q q q q 0 0 0 0 0 0 f L L L L L L L L L i > > > : ; ; ; ; ; - - - - - - - - = = = = = * * * * * . $.6.",
"6.6.& * * * * * = = = = = - - - - - - - - ; ; ; ; ; : : : 0 S L L L L L L L L c 5 , , , , 2 2 2 2 2 2 2 2 2 2 2 3 2 0 S L L L L L L L L A 0 2 3 3 2 2 2 2 2 2 2 2 2 2 , , , , 7 n L L L L L L L L c 4 : : ; ; ; ; ; ; - - - - - - - - = = = = = * * * * * & 6.6.",
"6.6.! * * * * * = = = = = = - - - - - - - ; ; ; ; ; ; : > f L L L L L L L L L i , , , , 2 2 2 2 2 2 2 2 2 2 2 3 3 2 q S L L L L L L L L A 0 2 3 3 3 2 2 2 2 2 2 2 2 2 2 2 , , , p L L L L L L L L L y ; : ; ; ; ; ; - - - - - - - - = = = = = = * * * * * ! 6.6.",
"6.6.&.O * * * * * = = = = = - - - - - - - - ; ; ; ; ; ; 7 A L L L L L L L L l 5 , , , , 2 2 2 2 2 2 2 2 2 2 2 2 2 2 0 A L L L L L L L L B 0 2 2 2 2 2 2 2 2 2 2 2 2 2 , , , , , 5 x L L L L L L L L l 2 ; ; ; ; ; ; - - - - - - - - = = = = = = * * * * O &.6.6.",
"6.6.6.@ * * * * * = = = = = - - - - - - - - ; ; ; ; ; : a L L L L L L L L L u , , , , , , 2 2 2 2 2 2 2 2 2 2 2 2 2 0 S L L L L L L L L B 8 2 2 2 2 2 2 2 2 2 2 2 2 2 , , , , , , i L L L L L L L L L y ; ; ; ; ; ; - - - - - - - - = = = = = * * * * * @ 6.6.6.",
"6.6.6.W * * * * * = = = = = - - - - - - - - - ; ; ; ; 4 n L L L L L L L L l 4 , , , , , , , 2 2 2 2 2 2 2 2 2 2 2 2 0 S L L L L L L L L B 8 2 2 2 2 2 2 2 2 2 2 2 , , , , , , , , 5 c L L L L L L L L k < ; ; ; ; - - - - - - - - - = = = = = * * * * * W 6.6.6.",
"6.6.6.+.. * * * * * = = = = = - - - - - - - - ; ; ; ; i L L L L L L L L L y > , , , , , , , , 2 2 2 2 2 2 2 2 2 2 2 0 S L L L L L L L L B 8 2 2 2 2 2 2 2 2 2 2 , , , , , , , , , > u L L L L L L L L L w ; ; ; ; - - - - - - - - = = = = = * * * * * . +.6.6.6.",
"6.6.6.6.& * * * * * = = = = = = - - - - - - - - - - 2 c L L L L L L L L l 3 > , , , , , , , , , , , 2 2 2 2 2 2 2 2 0 S L L L L L L L L B 8 2 2 2 2 2 2 2 2 2 , , , , , , , , , , > 4 l L L L L L L L L j , - - - - - - - - - - = = = = = * * * * * * & 6.6.6.6.",
"6.6.6.6.] o * * * * = = = = = = - - - - - - - - - - y L L L L L L L L L y > > > , , , , , , , , , , 2 2 2 2 2 2 2 2 8 A L L L L L L L L B 8 2 2 2 2 2 2 2 2 , , , , , , , , , , , > > y L L L L L L L L G w - - - - - - - - - - = = = = = = * * * * o ] 6.6.6.6.",
"6.6.6.6.;.@ * * * * * = = = = = = - - - - - - - - , l L L L L L L L L k 2 > > > > , , , , , , , , , , , 2 2 2 2 2 , 8 A L L L L L L L L B 8 , 2 2 2 2 2 , , , , , , , , , , , , > > > 3 l L L L L L L L L j > - - - - - - - - - = = = = = * * * * * @ ;.6.6.6.6.",
"6.6.6.6.6.! X * * * * * = = = = = - - - - - - - - w L L L L L L L L L w : > > > > > , , , , , , , , , , , , , 2 2 , 8 A L L L L L L L L B 8 , , 2 , , , , , , , , , , , , , > > > > > : y L L L L L L L L F 0 - - - - - - - - = = = = = * * * * * X ! 6.6.6.6.6.",
"6.6.6.6.6.$.$ * * * * * = = = = = = - - - - - - > j L L L L L L L L j , : > > > > > > , , , , , , , , , , , , , , , 8 A L L L L L L L L B 7 , , , , , , , , , , , , , , , > > > > > > : < k L L L L L L L L f ; - - - - - - - = = = = = * * * * * $ $.6.6.6.6.6.",
"6.6.6.6.6.6.R X * * * * = = = = = = - - - - - - 8 n B B B B B B B B w ; : > > > > > > > , , , , , , , , , , , , , , 8 A L L L L L L L L B 7 , , , , , , , , , , , , , , > > > > > > > > ; w B B A A A A B B b 7 - - - - - - = = = = = * * * * * X R 6.6.6.6.6.6.",
"6.6.6.6.6.6.$.$ * * * * * = = = = = = - - - - - > 4 4 4 4 4 4 4 4 4 > : : : > > > > > > > > , , , , , , , , , , , , 8 A L L L L L L L L B 7 , , , , , , , , , , , , , > > > > > > > > : ; > 4 4 4 4 4 4 4 4 4 > - - - - - = = = = = = * * * * * $ $.6.6.6.6.6.6.",
"6.6.6.6.6.6.6.E X * * * * * = = = = = = - - - - - - - - - - - - ; ; ; ; : : > > > > > > > > > > , , , , , , , , , , 7 A L L L L L L L L B 7 , , , , , , , , , , > > > > > > > > > > > : ; ; ; ; - - - - - - - - - - - - = = = = = = * * * * * X E 6.6.6.6.6.6.6.",
"6.6.6.6.6.6.6.;.@ * * * * * = = = = = = - - - - - - - - - - - ; ; ; ; ; ; : : : > > > > > > > > > > , , , , , , , , 7 A L L L L L L L L B 5 , , , , , , , , > > > > > > > > > > : : : : ; ; ; ; ; - - - - - - - - - - - = = = = = = * * * * * @ ;.6.6.6.6.6.6.6.",
"6.6.6.6.6.6.6.6.' o * * * * * = = = = = = - - - - - - - - - - ; ; ; ; ; ; ; : : : > > > > > > > > > > > , , , , , , 7 A L L L L L L L L B 5 , , , , , , > > > > > > > > > > : : : : ; ; ; ; ; ; ; - - - - - - - - - = = = = = = * * * * * * o ' 6.6.6.6.6.6.6.6.",
"6.6.6.6.6.6.6.6.6.& * * * * * * = = = = = = - - - - - - - - - - ; ; ; ; ; ; ; : : : > > > > > > > > > > > > , , , > 7 A L L L L L L L L B 5 > , , , > > > > > > > > > > > : : : : ; ; ; ; ; ; ; - - - - - - - - - - = = = = = = * * * * * * & 6.6.6.6.6.6.6.6.6.",
"6.6.6.6.6.6.6.6.6.O.. * * * * * = = = = = = = - - - - - - - - - - ; ; ; ; ; ; ; ; : : : : > > > > > > > > > > > > > 7 A L L L L L L L L B 5 > , , > > > > > > > > > > > : : : ; ; ; ; ; ; ; ; ; - - - - - - - - - = = = = = = = * * * * * . &.6.6.6.6.6.6.6.6.6.",
"6.6.6.6.6.6.6.6.6.6.! o * * * * * = = = = = = - - - - - - - - - - - ; ; ; ; ; ; ; ; : : : : : > > > > > > > > > > > 7 A L L L L L L L L B 5 > > > > > > > > > > > > : : : ; ; ; ; ; ; ; ; ; ; - - - - - - - - - - = = = = = = * * * * * o ! 6.6.6.6.6.6.6.6.6.6.",
"6.6.6.6.6.6.6.6.6.6.<.& * * * * * * = = = = = = - - - - - - - - - - - ; ; ; ; ; ; ; ; ; : : : : : > > > > > > > > : 7 A L L L L L L L L B 5 > > > > > > > > > > : : : : : ; ; ; ; ; ; ; - - - - - - - - - - - - = = = = = = * * * * * * & <.6.6.6.6.6.6.6.6.6.6.",
"6.6.6.6.6.6.6.6.6.6.6.+.. * * * * * * = = = = = = - - - - - - - - - - - - ; ; ; ; ; ; ; ; ; : : : : > > > > > > > : 7 A L L L L L L L L B 5 : > > > > > > > : : : : ; ; ; ; ; ; ; ; ; - - - - - - - - - - - - = = = = = = * * * * * * . +.6.6.6.6.6.6.6.6.6.6.6.",
"6.6.6.6.6.6.6.6.6.6.6.6...o * * * * * = = = = = = = = - - - - - - - - - - - ; ; ; ; ; ; ; ; ; ; ; : : : : : > > : : 5 A L L L L L L L L B 4 : > > : : : : : : ; : ; ; ; ; ; ; ; ; ; - - - - - - - - - - - = = = = = = = * * * * * * o ..6.6.6.6.6.6.6.6.6.6.6.6.",
"6.6.6.6.6.6.6.6.6.6.6.6.6.I X * * * * * = = = = = = = = - - - - - - - - - - - ; ; ; ; ; ; ; ; ; ; ; ; ; : : : : : ; 5 A L L L L L L L L B 4 ; : : : : : ; ; ; ; ; ; ; ; ; ; ; ; - - - - - - - - - - - - = = = = = = = * * * * * * X I 6.6.6.6.6.6.6.6.6.6.6.6.6.",
"6.6.6.6.6.6.6.6.6.6.6.6.6.<.& * * * * * * * = = = = = = - - - - - - - - - - - - - ; ; ; ; ; ; ; ; ; ; ; ; ; : : : ; 5 A L L L L L L L L B 4 ; ; : ; ; ; ; ; ; ; ; ; ; ; ; ; - - - - - - - - - - - - - - = = = = = = * * * * * * * & <.6.6.6.6.6.6.6.6.6.6.6.6.6.",
"6.6.6.6.6.6.6.6.6.6.6.6.6.6.$.@ * * * * * * = = = = = = = = - - - - - - - - - - - - - - ; ; ; ; ; ; ; ; ; ; ; ; ; ; 5 A L L L L L L L L B 4 ; ; ; ; ; ; ; ; ; ; ; ; ; ; ; - - - - - - - - - - - - - - = = = = = = = * * * * * * @ $.6.6.6.6.6.6.6.6.6.6.6.6.6.6.",
"6.6.6.6.6.6.6.6.6.6.6.6.6.6.6.&.$ * * * * * * * = = = = = = = - - - - - - - - - - - - - - - ; ; ; ; ; ; ; ; ; ; ; ; 4 A L L L L L L L L B 4 ; ; ; ; ; ; ; ; ; ; ; ; - - - - - - - - - - - - - - - = = = = = = = = * * * * * * $ O.6.6.6.6.6.6.6.6.6.6.6.6.6.6.6.",
"6.6.6.6.6.6.6.6.6.6.6.6.6.6.6.6.{ . * * * * * * = = = = = = = = = - - - - - - - - - - - - - - ; ; ; ; ; ; ; ; ; ; ; 4 A L L L L L L L L B 4 ; ; ; ; ; ; ; ; ; ; - - - - - - - - - - - - - - - - = = = = = = = * * * * * * * . { 6.6.6.6.6.6.6.6.6.6.6.6.6.6.6.6.",
"6.6.6.6.6.6.6.6.6.6.6.6.6.6.6.6.6._ . * * * * * * = = = = = = = = = - - - - - - - - - - - - - - - ; ; ; ; ; ; ; ; - 4 A L L L L L L L L B 4 ; ; ; ; ; ; ; - - - - - - - - - - - - - - - - - = = = = = = = = * * * * * * * . _ 6.6.6.6.6.6.6.6.6.6.6.6.6.6.6.6.6.",
"6.6.6.6.6.6.6.6.6.6.6.6.6.6.6.6.6.6.( . * * * * * * * = = = = = = = = - - - - - - - - - - - - - - - - - - - - - - - 4 A L L L L L L L L B 4 - ; ; ; - - - - - - - - - - - - - - - - - - - = = = = = = = = * * * * * * * . ( 6.6.6.6.6.6.6.6.6.6.6.6.6.6.6.6.6.6.",
"6.6.6.6.6.6.6.6.6.6.6.6.6.6.6.6.6.6.6._ . * * * * * * * = = = = = = = = = - - - - - - - - - - - - - - - - - - - - - 4 A L L L L L L L L B 4 - - - - - - - - - - - - - - - - - - - - - - = = = = = = = = * * * * * * * . _ 6.6.6.6.6.6.6.6.6.6.6.6.6.6.6.6.6.6.6.",
"6.6.6.6.6.6.6.6.6.6.6.6.6.6.6.6.6.6.6.6.{ $ * * * * * * * * = = = = = = = = - - - - - - - - - - - - - - - - - - - - 4 A L L L L L L L L B 4 - - - - - - - - - - - - - - - - - - - = = = = = = = = = = * * * * * * * $ { 6.6.6.6.6.6.6.6.6.6.6.6.6.6.6.6.6.6.6.6.",
"6.6.6.6.6.6.6.6.6.6.6.6.6.6.6.6.6.6.6.6.6.O.@ * * * * * * * * = = = = = = = = = - - - - - - - - - - - - - - - - - - 4 A L L L L L L L L B 2 - - - - - - - - - - - - - - - - - - = = = = = = = = = * * * * * * * * @ O.6.6.6.6.6.6.6.6.6.6.6.6.6.6.6.6.6.6.6.6.6.",
"6.6.6.6.6.6.6.6.6.6.6.6.6.6.6.6.6.6.6.6.6.6.$.& X * * * * * * * = = = = = = = = = = - - - - - - - - - - - - - - - - 4 A L L L L L L L L B < - - - - - - - - - - - - - - - = = = = = = = = = = = * * * * * * * X & $.6.6.6.6.6.6.6.6.6.6.6.6.6.6.6.6.6.6.6.6.6.6.",
"6.6.6.6.6.6.6.6.6.6.6.6.6.6.6.6.6.6.6.6.6.6.6.1.I o * * * * * * * = = = = = = = = = = = = - - - - - - - - - - - - - 4 B L L L L L L L L B < - - - - - - - - - - = = = = = = = = = = = = = = = * * * * * * * o I 1.6.6.6.6.6.6.6.6.6.6.6.6.6.6.6.6.6.6.6.6.6.6.6.",
"6.6.6.6.6.6.6.6.6.6.6.6.6.6.6.6.6.6.6.6.6.6.6.6.6.... * * * * * * * * * = = = = = = = = = = = = = - - - - - - - - = 4 B L L L L L L L L B < = - - - - - - - - - = = = = = = = = = = = = = * * * * * * * * . ..6.6.6.6.6.6.6.6.6.6.6.6.6.6.6.6.6.6.6.6.6.6.6.6.6.",
"6.6.6.6.6.6.6.6.6.6.6.6.6.6.6.6.6.6.6.6.6.6.6.6.6.6.+.& o * * * * * * * * = = = = = = = = = = = = = = - - - - - - = 4 B L L L L L L L L B < = - - - - - = = = = = = = = = = = = = = * * * * * * * * * o & +.6.6.6.6.6.6.6.6.6.6.6.6.6.6.6.6.6.6.6.6.6.6.6.6.6.6.",
"6.6.6.6.6.6.6.6.6.6.6.6.6.6.6.6.6.6.6.6.6.6.6.6.6.6.6.<.! . * * * * * * * * * * = = = = = = = = = = = = = = = = - = 1 B L L L L L L L L B < = = - - = = = = = = = = = = = = = = * * * * * * * * * * . ! <.6.6.6.6.6.6.6.6.6.6.6.6.6.6.6.6.6.6.6.6.6.6.6.6.6.6.6.",
"6.6.6.6.6.6.6.6.6.6.6.6.6.6.6.6.6.6.6.6.6.6.6.6.6.6.6.6.6.O.& o * * * * * * * * * * = = = = = = = = = = = = = = = = > f l l l l l l l l f > = = = = = = = = = = = = = = = = * * * * * * * * * * o & O.6.6.6.6.6.6.6.6.6.6.6.6.6.6.6.6.6.6.6.6.6.6.6.6.6.6.6.6.6.",
"6.6.6.6.6.6.6.6.6.6.6.6.6.6.6.6.6.6.6.6.6.6.6.6.6.6.6.6.6.6.6.' @ X * * * * * * * * * * * = = = = = = = = = = = = = = - > ; > > > > ; > - = = = = = = = = = = = = = = * * * * * * * * * * * X @ ' <.6.6.6.6.6.6.6.6.6.6.6.6.6.6.6.6.6.6.6.6.6.6.6.6.6.6.6.6.6.6.",
"6.6.6.6.6.6.6.6.6.6.6.6.6.6.6.6.6.6.6.6.6.6.6.6.6.6.6.6.6.6.6.6.;.E . X * * * * * * * * * * * * = = = = = = = = = = = = = = = = = = = = = = = = = = = = = = = = * * * * * * * * * * * * X $ E ;.6.6.6.6.6.6.6.6.6.6.6.6.6.6.6.6.6.6.6.6.6.6.6.6.6.6.6.6.6.6.6.6.",
"6.6.6.6.6.6.6.6.6.6.6.6.6.6.6.6.6.6.6.6.6.6.6.6.6.6.6.6.6.6.6.6.6.6.$.R . X * * * * * * * * * * * * = = * * = = = = = = = = = = = = = = = = = = = = = = * * * * * * * * * * * * * * X $ R $.6.6.6.6.6.6.6.6.6.6.6.6.6.6.6.6.6.6.6.6.6.6.6.6.6.6.6.6.6.6.6.6.6.6.",
"6.6.6.6.6.6.6.6.6.6.6.6.6.6.6.6.6.6.6.6.6.6.6.6.6.6.6.6.6.6.6.6.6.6.6.6.:.! @ o * * * * * * * * * * * * * * * * * * * * * * * * * * * * * * * * * * * * * * * * * * * * * * * * o @ ! :.6.6.6.6.6.6.6.6.6.6.6.6.6.6.6.6.6.6.6.6.6.6.6.6.6.6.6.6.6.6.6.6.6.6.6.6.",
"6.6.6.6.6.6.6.6.6.6.6.6.6.6.6.6.6.6.6.6.6.6.6.6.6.6.6.6.6.6.6.6.6.6.6.6.6.6.;.] & . * * * * * * * * * * * * * * * * * * * * * * * * * * * * * * * * * * * * * * * * * * * * . & ] ;.6.6.6.6.6.6.6.6.6.6.6.6.6.6.6.6.6.6.6.6.6.6.6.6.6.6.6.6.6.6.6.6.6.6.6.6.6.6.",
"6.6.6.6.6.6.6.6.6.6.6.6.6.6.6.6.6.6.6.6.6.6.6.6.6.6.6.6.6.6.6.6.6.6.6.6.6.6.6.6.6.#.W @ O * * * * * * * * * * * * * * * * * * * * * * * * * * * * * * * * * * * * * * O @ W #.6.6.6.6.6.6.6.6.6.6.6.6.6.6.6.6.6.6.6.6.6.6.6.6.6.6.6.6.6.6.6.6.6.6.6.6.6.6.6.6.6.",
"6.6.6.6.6.6.6.6.6.6.6.6.6.6.6.6.6.6.6.6.6.6.6.6.6.6.6.6.6.6.6.6.6.6.6.6.6.6.6.6.6.6.6.<.O.! & . o * * * * * * * * * * * * * * * * * * * * * * * * * * * * * * o . & ! O.6.6.6.6.6.6.6.6.6.6.6.6.6.6.6.6.6.6.6.6.6.6.6.6.6.6.6.6.6.6.6.6.6.6.6.6.6.6.6.6.6.6.6.6.",
"6.6.6.6.6.6.6.6.6.6.6.6.6.6.6.6.6.6.6.6.6.6.6.6.6.6.6.6.6.6.6.6.6.6.6.6.6.6.6.6.6.6.6.6.6.6.6.$._ ^ & # O o * * * * * * * * * * * * * * * * * * * * o O # & Y _ $.6.6.6.6.6.6.6.6.6.6.6.6.6.6.6.6.6.6.6.6.6.6.6.6.6.6.6.6.6.6.6.6.6.6.6.6.6.6.6.6.6.6.6.6.6.6.6.",
"6.6.6.6.6.6.6.6.6.6.6.6.6.6.6.6.6.6.6.6.6.6.6.6.6.6.6.6.6.6.6.6.6.6.6.6.6.6.6.6.6.6.6.6.6.6.6.6.6.6.6.;.} ..Y & @ $ . o o X * * * * X o o . $ @ & Y ..} ;.6.6.6.6.6.6.6.6.6.6.6.6.6.6.6.6.6.6.6.6.6.6.6.6.6.6.6.6.6.6.6.6.6.6.6.6.6.6.6.6.6.6.6.6.6.6.6.6.6.6.6."
};
