/* XPM */
static const char *bitcoin256[] = {
/* columns rows colors chars-per-pixel */
"256 256 123 2 ",
"   c #4B0082",
".  c #4B0082",
"X  c #4B0082",
"o  c #4B0082",
"O  c #4B0082",
"+  c #4B0082",
"@  c #4B0082",
"#  c #4B0082",
"$  c #4B0082",
"%  c #4B0082",
"&  c #4B0082",
"*  c #4B0082",
"=  c #4D0584",
"-  c #510C87",
";  c #56178B",
":  c #5B228F",
">  c #5E2791",
",  c #612D93",
"<  c #653797",
"1  c #713C9D",
"2  c #6C449C",
"3  c #704D9F",
"4  c #734DA1",
"5  c #7557A3",
"6  c #7B65A8",
"7  c #845AAB",
"8  c #8567AD",
"9  c #8472AE",
"0  c #8C6AB1",
"q  c #926CB4",
"w  c #8B73B2",
"e  c #9678B8",
"r  c #A07FBE",
"t  c #9E84BE",
"y  c #A086BF",
"u  c #A48BC2",
"i  c #AC95C7",
"p  c #B29ACB",
"a  c #B6A2CE",
"s  c #BDA9D2",
"d  c #C2AED5",
"f  c #C7B8D9",
"g  c #D0BFDF",
"h  c #CEC4DE",
"j  c #D0C3DF",
"k  c #CFC7E0",
"l  c #D5C8E2",
"z  c #DED5E9",
"x  c #E2DBEB",
"c  c #E7E1EF",
"v  c #ECE6F2",
"b  c #F1EDF5",
"n  c #FFFFFF",
"m  c #4B0082",
"M  c #4B0082",
"N  c #4B0082",
"B  c #4B0082",
"V  c #4B0082",
"C  c #4B0082",
"Z  c #4B0082",
"A  c #4B0082",
"S  c #4B0082",
"D  c #4B0082",
"F  c #4B0082",
"G  c #4B0082",
"H  c #4B0082",
"J  c #4B0082",
"K  c #4B0082",
"L  c #4B0082",
"P  c #4B0082",
"I  c #4B0082",
"U  c #4B0082",
"Y  c #4B0082",
"T  c #4B0082",
"R  c #4B0082",
"E  c #4B0082",
"W  c #4B0082",
"Q  c #4B0082",
"!  c #4B0082",
"~  c #4B0082",
"^  c #4B0082",
"/  c #4B0082",
"(  c #4B0082",
")  c #4B0082",
"_  c #4B0082",
"`  c #4B0082",
"'  c #4B0082",
"]  c #4B0082",
"[  c #4B0082",
"{  c #4B0082",
"}  c #4B0082",
"|  c #4B0082",
" . c #4B0082",
".. c #4B0082",
"X. c #4B0082",
"o. c #4B0082",
"O. c #4B0082",
"+. c #4B0082",
"@. c #4B0082",
"#. c #4B0082",
"$. c #4B0082",
"%. c #4B0082",
"&. c #4B0082",
"*. c #4B0082",
"=. c #4B0082",
"-. c #4B0082",
";. c #4B0082",
":. c #4B0082",
">. c #4B0082",
",. c #4B0082",
"<. c #4B0082",
"1. c #4B0082",
"2. c #4B0082",
"3. c #4B0082",
"4. c #4B0082",
"5. c #4B0082",
"6. c #4B0082",
"7. c #4B0082",
"8. c #4B0082",
"9. c #4B0082",
"0. c #4B0082",
"q. c None",
"w. c #4B0083",
/* pixels */
"q.q.q.q.q.q.q.q.q.q.q.q.q.q.q.q.q.q.q.q.q.q.q.q.q.q.q.q.q.q.q.q.q.q.q.q.q.q.q.q.q.q.q.q.q.q.q.q.q.q.q.q.q.q.q.q.q.q.q.q.q.q.q.q.q.q.q.q.q.q.q.q.q.q.q.q.q.q.q.q.q.q.q.q.q.q.q.q.q.q.q.q.q.q.q.q.q.q.q.q.q.q.q.q.q.q.q.q.q.q.:.O.^ L m C * # # .   o o X X = = = = = = X X o o   . # # * C m L ^ O.-.q.q.q.q.q.q.q.q.q.q.q.q.q.q.q.q.q.q.q.q.q.q.q.q.q.q.q.q.q.q.q.q.q.q.q.q.q.q.q.q.q.q.q.q.q.q.q.q.q.q.q.q.q.q.q.q.q.q.q.q.q.q.q.q.q.q.q.q.q.q.q.q.q.q.q.q.q.q.q.q.q.q.q.q.q.q.q.q.q.q.q.q.q.q.q.q.q.q.q.q.q.q.q.q.q.q.q.q.q.q.",
"q.q.q.q.q.q.q.q.q.q.q.q.q.q.q.q.q.q.q.q.q.q.q.q.q.q.q.q.q.q.q.q.q.q.q.q.q.q.q.q.q.q.q.q.q.q.q.q.q.q.q.q.q.q.q.q.q.q.q.q.q.q.q.q.q.q.q.q.q.q.q.q.q.q.q.q.q.q.q.q.q.q.q.q.q.q.q.q.q.q.q.q.q.q.q.q.q.q.q.q.q.q.q.q.:.[ T m * # . O o X X = = = = = = = = = = = = = = = = = = = = = = = = = = = X o   . # * m T [ :.q.q.q.q.q.q.q.q.q.q.q.q.q.q.q.q.q.q.q.q.q.q.q.q.q.q.q.q.q.q.q.q.q.q.q.q.q.q.q.q.q.q.q.q.q.q.q.q.q.q.q.q.q.q.q.q.q.q.q.q.q.q.q.q.q.q.q.q.q.q.q.q.q.q.q.q.q.q.q.q.q.q.q.q.q.q.q.q.q.q.q.q.q.q.q.q.q.q.q.q.q.q.q.q.",
"q.q.q.q.q.q.q.q.q.q.q.q.q.q.q.q.q.q.q.q.q.q.q.q.q.q.q.q.q.q.q.q.q.q.q.q.q.q.q.q.q.q.q.q.q.q.q.q.q.q.q.q.q.q.q.q.q.q.q.q.q.q.q.q.q.q.q.q.q.q.q.q.q.q.q.q.q.q.q.q.q.q.q.q.q.q.q.q.q.q.q.q.q.q.q.q.q.q.q.:.' I C # . o X = = = = = = = = = = = = = = = = = = = = = = = = = = = = = = = = = = = = = = = = = = X o . # C T } :.q.q.q.q.q.q.q.q.q.q.q.q.q.q.q.q.q.q.q.q.q.q.q.q.q.q.q.q.q.q.q.q.q.q.q.q.q.q.q.q.q.q.q.q.q.q.q.q.q.q.q.q.q.q.q.q.q.q.q.q.q.q.q.q.q.q.q.q.q.q.q.q.q.q.q.q.q.q.q.q.q.q.q.q.q.q.q.q.q.q.q.q.q.q.q.q.q.q.q.",
"q.q.q.q.q.q.q.q.q.q.q.q.q.q.q.q.q.q.q.q.q.q.q.q.q.q.q.q.q.q.q.q.q.q.q.q.q.q.q.q.q.q.q.q.q.q.q.q.q.q.q.q.q.q.q.q.q.q.q.q.q.q.q.q.q.q.q.q.q.q.q.q.q.q.q.q.q.q.q.q.q.q.q.q.q.q.q.q.q.q.q.q.q.q.q.:.^ m * . o X = = = = = = = = = = = = = = = = = = = = = = = = = = = = = = = = = = = = = = = = = = = = = = = = = = = = X o . * m ^ 1.q.q.q.q.q.q.q.q.q.q.q.q.q.q.q.q.q.q.q.q.q.q.q.q.q.q.q.q.q.q.q.q.q.q.q.q.q.q.q.q.q.q.q.q.q.q.q.q.q.q.q.q.q.q.q.q.q.q.q.q.q.q.q.q.q.q.q.q.q.q.q.q.q.q.q.q.q.q.q.q.q.q.q.q.q.q.q.q.q.q.q.q.q.q.q.",
"q.q.q.q.q.q.q.q.q.q.q.q.q.q.q.q.q.q.q.q.q.q.q.q.q.q.q.q.q.q.q.q.q.q.q.q.q.q.q.q.q.q.q.q.q.q.q.q.q.q.q.q.q.q.q.q.q.q.q.q.q.q.q.q.q.q.q.q.q.q.q.q.q.q.q.q.q.q.q.q.q.q.q.q.q.q.q.q.q.q.q.4.[ S * . o = = = = = = = = = = = = = = = = = = = = = = = = = = = = = = = = = = = = = = = = = = = = = = = = = = = = = = = = = = = = = = o . * S [ 6.q.q.q.q.q.q.q.q.q.q.q.q.q.q.q.q.q.q.q.q.q.q.q.q.q.q.q.q.q.q.q.q.q.q.q.q.q.q.q.q.q.q.q.q.q.q.q.q.q.q.q.q.q.q.q.q.q.q.q.q.q.q.q.q.q.q.q.q.q.q.q.q.q.q.q.q.q.q.q.q.q.q.q.q.q.q.q.q.q.q.q.",
"q.q.q.q.q.q.q.q.q.q.q.q.q.q.q.q.q.q.q.q.q.q.q.q.q.q.q.q.q.q.q.q.q.q.q.q.q.q.q.q.q.q.q.q.q.q.q.q.q.q.q.q.q.q.q.q.q.q.q.q.q.q.q.q.q.q.q.q.q.q.q.q.q.q.q.q.q.q.q.q.q.q.q.q.q.q.q.q.-.^ N # o = = = = = = = = = = = = = = = = = = = = = = = = = = = = = = = = = = = = = = = = = = = = = = = = = = = = = = = = = = = = = = = = = = = = = = o # N ^ <.q.q.q.q.q.q.q.q.q.q.q.q.q.q.q.q.q.q.q.q.q.q.q.q.q.q.q.q.q.q.q.q.q.q.q.q.q.q.q.q.q.q.q.q.q.q.q.q.q.q.q.q.q.q.q.q.q.q.q.q.q.q.q.q.q.q.q.q.q.q.q.q.q.q.q.q.q.q.q.q.q.q.q.q.q.q.q.q.",
"q.q.q.q.q.q.q.q.q.q.q.q.q.q.q.q.q.q.q.q.q.q.q.q.q.q.q.q.q.q.q.q.q.q.q.q.q.q.q.q.q.q.q.q.q.q.q.q.q.q.q.q.q.q.q.q.q.q.q.q.q.q.q.q.q.q.q.q.q.q.q.q.q.q.q.q.q.q.q.q.q.q.q.q.q.-.^ C $ o = = = = = = = = = = = = = = = = = = = = = = = = = = = = = = = = = = = = = = = = = = = = = = = = = = = = = = = = = = = = = = = = = = = = = = = = = = = = o $ C ) <.q.q.q.q.q.q.q.q.q.q.q.q.q.q.q.q.q.q.q.q.q.q.q.q.q.q.q.q.q.q.q.q.q.q.q.q.q.q.q.q.q.q.q.q.q.q.q.q.q.q.q.q.q.q.q.q.q.q.q.q.q.q.q.q.q.q.q.q.q.q.q.q.q.q.q.q.q.q.q.q.q.q.q.q.q.",
"q.q.q.q.q.q.q.q.q.q.q.q.q.q.q.q.q.q.q.q.q.q.q.q.q.q.q.q.q.q.q.q.q.q.q.q.q.q.q.q.q.q.q.q.q.q.q.q.q.q.q.q.q.q.q.q.q.q.q.q.q.q.q.q.q.q.q.q.q.q.q.q.q.q.q.q.q.q.q.q.q.q.4.[ N $ o = = = = = = = = = = = = = = = = = = = = = = = = = = = = = = = = = = = = = = = = = = = = = = = = = = = = = = = = = = = = = = = = = = = = = = = = = = = = = = = = = = o $ N ' 4.q.q.q.q.q.q.q.q.q.q.q.q.q.q.q.q.q.q.q.q.q.q.q.q.q.q.q.q.q.q.q.q.q.q.q.q.q.q.q.q.q.q.q.q.q.q.q.q.q.q.q.q.q.q.q.q.q.q.q.q.q.q.q.q.q.q.q.q.q.q.q.q.q.q.q.q.q.q.q.q.q.q.",
"q.q.q.q.q.q.q.q.q.q.q.q.q.q.q.q.q.q.q.q.q.q.q.q.q.q.q.q.q.q.q.q.q.q.q.q.q.q.q.q.q.q.q.q.q.q.q.q.q.q.q.q.q.q.q.q.q.q.q.q.q.q.q.q.q.q.q.q.q.q.q.q.q.q.q.q.q.q.q.q.#.F # o = = = = = = = = = = = = = = = = = = = = = = = = = = = = = = = = = = = = = = = = = = = = = = = = = = = = = = = = = = = = = = = = = = = = = = = = = = = = = = = = = = = = = = = = o # F #.q.q.q.q.q.q.q.q.q.q.q.q.q.q.q.q.q.q.q.q.q.q.q.q.q.q.q.q.q.q.q.q.q.q.q.q.q.q.q.q.q.q.q.q.q.q.q.q.q.q.q.q.q.q.q.q.q.q.q.q.q.q.q.q.q.q.q.q.q.q.q.q.q.q.q.q.q.q.q.q.",
"q.q.q.q.q.q.q.q.q.q.q.q.q.q.q.q.q.q.q.q.q.q.q.q.q.q.q.q.q.q.q.q.q.q.q.q.q.q.q.q.q.q.q.q.q.q.q.q.q.q.q.q.q.q.q.q.q.q.q.q.q.q.q.q.q.q.q.q.q.q.q.q.q.q.q.q.q.4.^ * . X = = = = = = = = = = = = = = = = = = = = = = = = = = = = = = = = = = = = = = = = = = = = = = = = = = = = = = = = = = = = = = = = = = = = = = = = = = = = = = = = = = = = = = = = = = = = X . * ^ 4.q.q.q.q.q.q.q.q.q.q.q.q.q.q.q.q.q.q.q.q.q.q.q.q.q.q.q.q.q.q.q.q.q.q.q.q.q.q.q.q.q.q.q.q.q.q.q.q.q.q.q.q.q.q.q.q.q.q.q.q.q.q.q.q.q.q.q.q.q.q.q.q.q.q.q.q.q.",
"q.q.q.q.q.q.q.q.q.q.q.q.q.q.q.q.q.q.q.q.q.q.q.q.q.q.q.q.q.q.q.q.q.q.q.q.q.q.q.q.q.q.q.q.q.q.q.q.q.q.q.q.q.q.q.q.q.q.q.q.q.q.q.q.q.q.q.q.q.q.q.q.q.q.q.:.L # o = = = = = = = = = = = = = = = = = = = = = = = = = = = = = = = = = = = = = = = = = = = = = - - - - = = = = = - - - = = = = = = = = = = = = = = = = = = = = = = = = = = = = = = = = = = = = = = = = = o # L -.q.q.q.q.q.q.q.q.q.q.q.q.q.q.q.q.q.q.q.q.q.q.q.q.q.q.q.q.q.q.q.q.q.q.q.q.q.q.q.q.q.q.q.q.q.q.q.q.q.q.q.q.q.q.q.q.q.q.q.q.q.q.q.q.q.q.q.q.q.q.q.q.q.q.q.",
"q.q.q.q.q.q.q.q.q.q.q.q.q.q.q.q.q.q.q.q.q.q.q.q.q.q.q.q.q.q.q.q.q.q.q.q.q.q.q.q.q.q.q.q.q.q.q.q.q.q.q.q.q.q.q.q.q.q.q.q.q.q.q.q.q.q.q.q.q.q.q.q.q.@.H $ X = = = = = = = = = = = = = = = = = = = = = = = = = = = = = = = = = = = = = - - - - - - - - - - - - - - - - - - - - - - - - - - - - = = = = = = = = = = = = = = = = = = = = = = = = = = = = = = = = = = = = = X # F @.q.q.q.q.q.q.q.q.q.q.q.q.q.q.q.q.q.q.q.q.q.q.q.q.q.q.q.q.q.q.q.q.q.q.q.q.q.q.q.q.q.q.q.q.q.q.q.q.q.q.q.q.q.q.q.q.q.q.q.q.q.q.q.q.q.q.q.q.q.q.q.q.q.",
"q.q.q.q.q.q.q.q.q.q.q.q.q.q.q.q.q.q.q.q.q.q.q.q.q.q.q.q.q.q.q.q.q.q.q.q.q.q.q.q.q.q.q.q.q.q.q.q.q.q.q.q.q.q.q.q.q.q.q.q.q.q.q.q.q.q.q.q.q.q.q.o.m . X = = = = = = = = = = = = = = = = = = = = = = = = = = = = = = - = - - = - - - - - - - - - - - - - - - - - - - - - - - - - - - - - - - - - - - - - - = = = = = = = = = = = = = = = = = = = = = = = = = = = = = = = = = X . m o.q.q.q.q.q.q.q.q.q.q.q.q.q.q.q.q.q.q.q.q.q.q.q.q.q.q.q.q.q.q.q.q.q.q.q.q.q.q.q.q.q.q.q.q.q.q.q.q.q.q.q.q.q.q.q.q.q.q.q.q.q.q.q.q.q.q.q.q.q.q.q.",
"q.q.q.q.q.q.q.q.q.q.q.q.q.q.q.q.q.q.q.q.q.q.q.q.q.q.q.q.q.q.q.q.q.q.q.q.q.q.q.q.q.q.q.q.q.q.q.q.q.q.q.q.q.q.q.q.q.q.q.q.q.q.q.q.q.q.q.q.q.o.m . = = = = = = = = = = = = = = = = = = = = = = = = = = = = = = - - - - - - - - - - - - - - - - - - - - - - - - - - - - - - - - - - - - - - - - - - - - - - - - - - - - = = = = = - = = = = = = = = = = = = = = = = = = = = = = = = . C o.q.q.q.q.q.q.q.q.q.q.q.q.q.q.q.q.q.q.q.q.q.q.q.q.q.q.q.q.q.q.q.q.q.q.q.q.q.q.q.q.q.q.q.q.q.q.q.q.q.q.q.q.q.q.q.q.q.q.q.q.q.q.q.q.q.q.q.q.q.",
"q.q.q.q.q.q.q.q.q.q.q.q.q.q.q.q.q.q.q.q.q.q.q.q.q.q.q.q.q.q.q.q.q.q.q.q.q.q.q.q.q.q.q.q.q.q.q.q.q.q.q.q.q.q.q.q.q.q.q.q.q.q.q.q.q.q.q.%.m . = = = = = = = = = = = = = = = = = = = = = = = = = = = = - - - - - - - - - - - - - - - - - - - - - - - - - - - - - - - - - - - - - - - - - - - - - - - - - - - - - - - - - - - - = = = = = = = = = = = = = = = = = = = = = = = = = = = = . m %.q.q.q.q.q.q.q.q.q.q.q.q.q.q.q.q.q.q.q.q.q.q.q.q.q.q.q.q.q.q.q.q.q.q.q.q.q.q.q.q.q.q.q.q.q.q.q.q.q.q.q.q.q.q.q.q.q.q.q.q.q.q.q.q.q.q.q.",
"q.q.q.q.q.q.q.q.q.q.q.q.q.q.q.q.q.q.q.q.q.q.q.q.q.q.q.q.q.q.q.q.q.q.q.q.q.q.q.q.q.q.q.q.q.q.q.q.q.q.q.q.q.q.q.q.q.q.q.q.q.q.q.q.q.-.S . X = = = = = = = = = = = = = = = = = = = = = = = = = = = - - - - - - - - - - - - - - - - - - - - - - - - - - - - - - - - - - - - - - - - - - - - - - - - - - - - - - - - - - - - - - - - - - = = = = = = = = = = = = = = = = = = = = = = = = = = . S -.q.q.q.q.q.q.q.q.q.q.q.q.q.q.q.q.q.q.q.q.q.q.q.q.q.q.q.q.q.q.q.q.q.q.q.q.q.q.q.q.q.q.q.q.q.q.q.q.q.q.q.q.q.q.q.q.q.q.q.q.q.q.q.q.q.",
"q.q.q.q.q.q.q.q.q.q.q.q.q.q.q.q.q.q.q.q.q.q.q.q.q.q.q.q.q.q.q.q.q.q.q.q.q.q.q.q.q.q.q.q.q.q.q.q.q.q.q.q.q.q.q.q.q.q.q.q.q.q.q.4.T # X = = = = = = = = = = = = = = = = = = = - = = = = = - - - - - - - - - - - - - - - - - - - - - - - - - - - - - - - - - - - ; - - - - - - - - - - - - - - - - - - - - - - - - - - - - - - - - - - - - = = = = = = = = = = = = = = = = = = = = = = = = = X # T 4.q.q.q.q.q.q.q.q.q.q.q.q.q.q.q.q.q.q.q.q.q.q.q.q.q.q.q.q.q.q.q.q.q.q.q.q.q.q.q.q.q.q.q.q.q.q.q.q.q.q.q.q.q.q.q.q.q.q.q.q.q.q.q.",
"q.q.q.q.q.q.q.q.q.q.q.q.q.q.q.q.q.q.q.q.q.q.q.q.q.q.q.q.q.q.q.q.q.q.q.q.q.q.q.q.q.q.q.q.q.q.q.q.q.q.q.q.q.q.q.q.q.q.q.q.q.q.} * o = = = = = = = = = = = = = = = = = = = = = = - = - - - - - - - - - - - - - - - - - - - - - - - - - - - - - - - - - - - - - ; q : - - - - - - - - - - - - - - - - - - - - - - - - - - - - - - - - - - - - - - = = = = = = = = = = = = = = = = = = = = = = = = o * ' q.q.q.q.q.q.q.q.q.q.q.q.q.q.q.q.q.q.q.q.q.q.q.q.q.q.q.q.q.q.q.q.q.q.q.q.q.q.q.q.q.q.q.q.q.q.q.q.q.q.q.q.q.q.q.q.q.q.q.q.q.q.",
"q.q.q.q.q.q.q.q.q.q.q.q.q.q.q.q.q.q.q.q.q.q.q.q.q.q.q.q.q.q.q.q.q.q.q.q.q.q.q.q.q.q.q.q.q.q.q.q.q.q.q.q.q.q.q.q.q.q.q.q.%.Z O = = = = = = = = = = = = = = = = = = = = = = - - - - - - - - - - - - - - - - - - - - - - - - - - - - - - - - - - - - - - - - - 1 c 0 - ; - - - - - - - - - - - - - - - - - - - - - - - - - - - - - - - - - - - - - - = = = = - = = = = = = = = = = = = = = = = = = = O Z %.q.q.q.q.q.q.q.q.q.q.q.q.q.q.q.q.q.q.q.q.q.q.q.q.q.q.q.q.q.q.q.q.q.q.q.q.q.q.q.q.q.q.q.q.q.q.q.q.q.q.q.q.q.q.q.q.q.q.q.q.",
"q.q.q.q.q.q.q.q.q.q.q.q.q.q.q.q.q.q.q.q.q.q.q.q.q.q.q.q.q.q.q.q.q.q.q.q.q.q.q.q.q.q.q.q.q.q.q.q.q.q.q.q.q.q.q.q.q.q.4.T # = = = = = = = = = = = = = = = = = = = = = - - - - - - - - - - - - - - - - - - - - - - - - - - - - - - - - - - - - - - - - - - - - i n g ; - ; - - ; - ; - - ; - - - - - - - - - - - - - - - - - - - - - - - - - - - - - - - - - - = = = = = = = = = = = = = = = = = = = = = # T q.q.q.q.q.q.q.q.q.q.q.q.q.q.q.q.q.q.q.q.q.q.q.q.q.q.q.q.q.q.q.q.q.q.q.q.q.q.q.q.q.q.q.q.q.q.q.q.q.q.q.q.q.q.q.q.q.q.q.",
"q.q.q.q.q.q.q.q.q.q.q.q.q.q.q.q.q.q.q.q.q.q.q.q.q.q.q.q.q.q.q.q.q.q.q.q.q.q.q.q.q.q.q.q.q.q.q.q.q.q.q.q.q.q.q.q.q.o.* o = = = = = = = = = = = = = = = = = = = = = - - - - - - - - - - - - - - - - - - - - - - - - - - - - - - - - - - - - - ; ; ; ; ; ; - < x n b 7 - ; - - - - ; ; - - - - - - - - - - - - - - - - - - - - - - - - - - - - - - - - - - - - - - = = = = = = = = = = = = = = = = = = = = o * o.q.q.q.q.q.q.q.q.q.q.q.q.q.q.q.q.q.q.q.q.q.q.q.q.q.q.q.q.q.q.q.q.q.q.q.q.q.q.q.q.q.q.q.q.q.q.q.q.q.q.q.q.q.q.q.q.q.",
"q.q.q.q.q.q.q.q.q.q.q.q.q.q.q.q.q.q.q.q.q.q.q.q.q.q.q.q.q.q.q.q.q.q.q.q.q.q.q.q.q.q.q.q.q.q.q.q.q.q.q.q.q.q.q.4.L . = = = = = = = = = = = = = = = = = = = = = - - - - - - - - - - - - - - - - - - - - - - - - - - - - - - - - - ; ; ; ; - - ; ; ; ; ; ; - u n n n d ; ; ; ; ; ; ; ; ; ; - - ; - ; ; ; - - - - - - - - - - - - - - - - - - - - - - - - - - - - - - - = = = = = = = = = = = = = = = = = = = = . L q.q.q.q.q.q.q.q.q.q.q.q.q.q.q.q.q.q.q.q.q.q.q.q.q.q.q.q.q.q.q.q.q.q.q.q.q.q.q.q.q.q.q.q.q.q.q.q.q.q.q.q.q.q.q.q.",
"q.q.q.q.q.q.q.q.q.q.q.q.q.q.q.q.q.q.q.q.q.q.q.q.q.q.q.q.q.q.q.q.q.q.q.q.q.q.q.q.q.q.q.q.q.q.q.q.q.q.q.q.q.q.@.* o = = = = = = = = = = = = = = = = = = = = - - - - - - - - - - - - - - - - - - - - - - - - - - ; ; ; ; ; - - ; ; ; ; ; ; ; ; ; ; ; ; ; ; , x n n n b 4 - ; ; ; ; ; ; ; ; ; ; ; ; ; ; ; ; ; ; ; ; ; - - - - - - - - - - - - - - - - - - - - - - - - - - - = = = = = = = = = = = = = = = = = = = o * @.q.q.q.q.q.q.q.q.q.q.q.q.q.q.q.q.q.q.q.q.q.q.q.q.q.q.q.q.q.q.q.q.q.q.q.q.q.q.q.q.q.q.q.q.q.q.q.q.q.q.q.q.q.q.",
"q.q.q.q.q.q.q.q.q.q.q.q.q.q.q.q.q.q.q.q.q.q.q.q.q.q.q.q.q.q.q.q.q.q.q.q.q.q.q.q.q.q.q.q.q.q.q.q.q.q.q.q.q.( $ = = = = = = = = = = = = = = = = = = = - - - - - - - - - - - - - - - - - - - - - - - - - - - ; ; ; ; ; ; ; ; ; ; ; ; ; ; ; ; ; ; ; ; ; ; - e n n n n n s ; ; ; ; ; ; ; ; ; ; ; ; ; ; ; ; ; ; ; ; ; ; ; ; - - - - - - - - - - - - - - - - - - - - - - - - - - - = = = = = = = = = = = = = = = = = = = $ ( q.q.q.q.q.q.q.q.q.q.q.q.q.q.q.q.q.q.q.q.q.q.q.q.q.q.q.q.q.q.q.q.q.q.q.q.q.q.q.q.q.q.q.q.q.q.q.q.q.q.q.q.q.",
"q.q.q.q.q.q.q.q.q.q.q.q.q.q.q.q.q.q.q.q.q.q.q.q.q.q.q.q.q.q.q.q.q.q.q.q.q.q.q.q.q.q.q.q.q.q.q.q.q.q.q.<.C o = = = = = = = = = = = = = = = = = = = - - - - - - - - - - - - - - - - - - - - - - - ; ; - - - ; ; ; ; ; ; ; ; ; ; ; ; ; ; ; ; ; ; ; ; ; ; , l n n n n n b 4 - ; ; ; ; ; ; ; ; ; ; ; ; ; ; ; ; ; ; ; ; ; ; - - - - - - - - - - - - - - - - - - - - - - - - - - - - = = = = = = = = = = = = = = = = = = = o m <.q.q.q.q.q.q.q.q.q.q.q.q.q.q.q.q.q.q.q.q.q.q.q.q.q.q.q.q.q.q.q.q.q.q.q.q.q.q.q.q.q.q.q.q.q.q.q.q.q.q.q.",
"q.q.q.q.q.q.q.q.q.q.q.q.q.q.q.q.q.q.q.q.q.q.q.q.q.q.q.q.q.q.q.q.q.q.q.q.q.q.q.q.q.q.q.q.q.q.q.q.q.q.*.% X = = = = = = = = = = = = = = = = = = = - - - - - - - - - - - - - - - - - - - - - - - - ; ; ; ; - ; ; ; ; ; ; ; ; ; ; ; ; ; ; ; ; ; ; ; ; ; - q n n n n n n n p ; ; ; ; ; ; ; ; ; ; ; ; ; ; ; ; ; ; ; ; ; ; ; ; ; ; ; - ; ; ; - - - - - - - - - - - - - - - - - - - - - - = = = = = = = = = = = = = = = = = = X % O.q.q.q.q.q.q.q.q.q.q.q.q.q.q.q.q.q.q.q.q.q.q.q.q.q.q.q.q.q.q.q.q.q.q.q.q.q.q.q.q.q.q.q.q.q.q.q.q.q.q.",
"q.q.q.q.q.q.q.q.q.q.q.q.q.q.q.q.q.q.q.q.q.q.q.q.q.q.q.q.q.q.q.q.q.q.q.q.q.q.q.q.q.q.q.q.q.q.q.q.q. .. = = = = = = = = = = = = = = = = = = - - - - - - - - - - - - - - - - - - - - - - ; - - ; - ; ; ; ; ; ; ; ; ; ; ; ; ; ; ; ; ; ; ; ; ; ; ; ; ; ; : g n n n n n n n v 1 ; ; ; ; ; ; ; ; ; ; ; ; ; ; ; ; ; ; ; ; ; ; ; ; ; - ; ; ; ; ; - - - - - - - - - - - - - - - - - - - - - - = = = = = = = = = = = = = = = = = = = . ) q.q.q.q.q.q.q.q.q.q.q.q.q.q.q.q.q.q.q.q.q.q.q.q.q.q.q.q.q.q.q.q.q.q.q.q.q.q.q.q.q.q.q.q.q.q.q.q.q.",
"q.q.q.q.q.q.q.q.q.q.q.q.q.q.q.q.q.q.q.q.q.q.q.q.q.q.q.q.q.q.q.q.q.q.q.q.q.q.q.q.q.q.q.q.q.q.q.4.m o = = = = = = = = = = = = = = = = = = - - - - - - - - - - - - - - - - - - - - ; ; ; ; ; ; ; ; ; ; ; ; ; ; ; ; ; ; ; ; ; ; ; ; ; ; ; ; ; ; ; ; ; - 7 b n n n n n n n n i ; ; ; ; ; ; ; ; ; ; ; ; ; ; ; ; ; ; ; ; ; ; ; ; ; ; ; ; ; ; ; ; ; - - ; ; ; - - - - - - - - - - - - - - - - - = = = = = = = = = = = = = = = = = = o m 4.q.q.q.q.q.q.q.q.q.q.q.q.q.q.q.q.q.q.q.q.q.q.q.q.q.q.q.q.q.q.q.q.q.q.q.q.q.q.q.q.q.q.q.q.q.q.q.",
"q.q.q.q.q.q.q.q.q.q.q.q.q.q.q.q.q.q.q.q.q.q.q.q.q.q.q.q.q.q.q.q.q.q.q.q.q.q.q.q.q.q.q.q.q.q.%.* X = = = = = = = = = = = = = = = = - - - - - - - - - - - - - - - - - - - - - ; ; ; ; ; - ; ; ; ; ; ; ; ; ; ; ; ; ; ; ; ; ; ; ; ; ; ; ; ; ; ; ; ; ; ; f n n n n n n n n n x 1 ; ; ; ; ; ; ; ; ; ; ; ; ; ; ; ; ; ; ; ; ; ; ; ; ; ; ; ; ; ; ; ; - - ; ; - - - - - - - - - - - - - - - - - - - - = = = = = = = = = = = = = = = = = X * %.q.q.q.q.q.q.q.q.q.q.q.q.q.q.q.q.q.q.q.q.q.q.q.q.q.q.q.q.q.q.q.q.q.q.q.q.q.q.q.q.q.q.q.q.q.q.",
"q.q.q.q.q.q.q.q.q.q.q.q.q.q.q.q.q.q.q.q.q.q.q.q.q.q.q.q.q.q.q.q.q.q.q.q.q.q.q.q.q.q.q.q.q.} # = = = = = = = = = = = = = = = = = - - - - - - - - - - - - - - - - - - - - - ; ; ; ; ; ; ; ; ; ; ; ; ; ; ; ; ; ; ; ; ; ; ; ; ; ; ; ; ; ; ; ; ; ; ; ; 5 b n n n n n n n n n n u ; ; ; ; ; ; ; ; ; ; ; ; ; ; ; ; ; ; ; ; ; ; ; ; ; ; ; ; ; ; ; ; - - ; ; ; - - - - - - - - - - - - - - - - - - - - = - = = = = = = = = = = = = = = = = # } q.q.q.q.q.q.q.q.q.q.q.q.q.q.q.q.q.q.q.q.q.q.q.q.q.q.q.q.q.q.q.q.q.q.q.q.q.q.q.q.q.q.q.q.q.",
"q.q.q.q.q.q.q.q.q.q.q.q.q.q.q.q.q.q.q.q.q.q.q.q.q.q.q.q.q.q.q.q.q.q.q.q.q.q.q.q.q.q.q.q.^ . = = = = = = = = = = = = = = = = = - - - - - - - - - - - - - - - - - - ; ; ; ; ; ; ; ; ; ; ; ; ; ; ; ; ; ; ; ; ; ; ; ; ; ; ; ; ; ; ; ; ; ; ; ; ; ; ; ; s n n n n n n n n n n n x < ; ; ; ; ; ; ; ; ; ; ; ; ; ; ; ; ; ; ; ; ; ; ; ; ; ; ; ; ; ; ; ; ; ; ; ; ; - - - - - - - - - - - - - - - - - - - - - - = = = = = = = = = = = = = = = = . ^ q.q.q.q.q.q.q.q.q.q.q.q.q.q.q.q.q.q.q.q.q.q.q.q.q.q.q.q.q.q.q.q.q.q.q.q.q.q.q.q.q.q.q.q.",
"q.q.q.q.q.q.q.q.q.q.q.q.q.q.q.q.q.q.q.q.q.q.q.q.q.q.q.q.q.q.q.q.q.q.q.q.q.q.q.q.q.q.q.U   = = = = = = = = = = = = = = = = - - - - - - - - - - - - - - - - - - ; ; ; ; ; ; ; ; ; ; ; ; ; ; ; ; ; ; ; ; ; ; ; ; ; ; ; ; ; ; ; ; ; ; ; ; ; ; ; ; ; 4 b n n n n n n n n n n n n e ; ; ; ; ; ; ; ; ; ; ; ; ; ; ; ; ; ; ; ; ; ; ; ; ; ; ; ; ; ; ; ; ; ; ; ; ; ; ; ; ; - - - - - - - - - - - - - - - - - - - = = = = = = = = = = = = = = = =   U q.q.q.q.q.q.q.q.q.q.q.q.q.q.q.q.q.q.q.q.q.q.q.q.q.q.q.q.q.q.q.q.q.q.q.q.q.q.q.q.q.q.q.",
"q.q.q.q.q.q.q.q.q.q.q.q.q.q.q.q.q.q.q.q.q.q.q.q.q.q.q.q.q.q.q.q.q.q.q.q.q.q.q.q.q.q.S o = = = = = = = = = = = = = = - - - - - - - - - - - - - - - - - - - - - ; ; ; ; ; ; ; ; ; ; ; ; ; ; ; ; ; ; ; ; ; ; ; ; ; ; ; ; ; ; ; ; ; ; ; ; ; ; ; ; ; p n n n n n n n n n n n n n z , ; ; ; ; ; ; ; ; ; ; ; ; ; ; ; ; ; ; ; ; ; ; ; ; ; ; ; ; ; ; ; ; ; ; ; ; ; ; ; ; ; ; - - - - - - - - - - - - - - - - - - = = = = = = = = = = = = = = = = o S q.q.q.q.q.q.q.q.q.q.q.q.q.q.q.q.q.q.q.q.q.q.q.q.q.q.q.q.q.q.q.q.q.q.q.q.q.q.q.q.q.q.",
"q.q.q.q.q.q.q.q.q.q.q.q.q.q.q.q.q.q.q.q.q.q.q.q.q.q.q.q.q.q.q.q.q.q.q.q.q.q.q.q.4.m o = = = = = = = = = = = = = = = - - - - - - - - - - - - - - - - - - - ; ; ; ; ; ; ; ; ; ; ; ; ; ; ; ; ; ; ; ; ; ; ; ; ; ; ; ; ; ; ; ; ; ; ; ; ; ; ; ; ; ; 1 c n n n n n n n n n n n n n n q ; ; ; ; ; ; ; ; ; ; ; ; ; ; ; ; ; ; ; ; ; ; ; ; ; ; ; ; ; ; ; ; ; ; ; ; ; ; ; ; ; ; ; ; - - - - - - - - - - - - - - - - - = = = = = = = = = = = = = = = = o m 4.q.q.q.q.q.q.q.q.q.q.q.q.q.q.q.q.q.q.q.q.q.q.q.q.q.q.q.q.q.q.q.q.q.q.q.q.q.q.q.q.",
"q.q.q.q.q.q.q.q.q.q.q.q.q.q.q.q.q.q.q.q.q.q.q.q.q.q.q.q.q.q.q.q.q.q.q.q.q.q.q.6.N X = = = = = = = = = = = = = = = - - - - - - - - - - - - - - - - - - - ; ; ; ; ; ; ; ; ; ; ; ; ; ; ; ; ; ; ; ; ; ; ; ; ; ; ; ; ; ; ; ; ; ; ; ; ; ; ; ; ; ; ; u n n n n n n n n n n n n n n n k , ; ; ; ; ; ; ; ; ; ; ; ; ; ; ; ; ; ; ; ; ; ; ; ; ; ; ; ; ; ; ; ; ; ; ; ; ; ; ; ; - ; ; ; ; - - - - - - - - - - - - - - - - - = = = = = = = = = = = = = = = X N 6.q.q.q.q.q.q.q.q.q.q.q.q.q.q.q.q.q.q.q.q.q.q.q.q.q.q.q.q.q.q.q.q.q.q.q.q.q.q.q.",
"q.q.q.q.q.q.q.q.q.q.q.q.q.q.q.q.q.q.q.q.q.q.q.q.q.q.q.q.q.q.q.q.q.q.q.q.q.q.<.* X = = = = = = = = = = = = = = = - - - - - - - - - - - - - - - - - ; ; ; ; ; ; ; ; ; ; ; ; ; ; ; ; ; ; ; ; ; ; ; ; ; ; ; ; ; ; ; ; ; ; ; ; ; ; : : : : : ; ; < x n n n n n n n n n n n n n n n b 0 ; ; ; ; ; ; ; : : ; ; ; ; ; ; ; ; ; ; ; ; ; ; ; ; ; ; ; ; ; ; ; ; ; ; ; ; ; ; ; ; ; ; ; ; - - ; ; - - - - - - - - - - - - - - = = = = = = = = = = = = = = = X * <.q.q.q.q.q.q.q.q.q.q.q.q.q.q.q.q.q.q.q.q.q.q.q.q.q.q.q.q.q.q.q.q.q.q.q.q.q.q.",
"q.q.q.q.q.q.q.q.q.q.q.q.q.q.q.q.q.q.q.q.q.q.q.q.q.q.q.q.q.q.q.q.q.q.q.q.q.<.* X = = = = = = = = = = = = = = = - - - - - - - - - - - - - - - - - ; ; ; ; ; ; ; ; ; ; ; ; ; ; ; ; ; ; ; ; ; ; ; ; ; ; ; ; ; ; ; ; ; ; ; ; ; ; ; ; : : ; ; ; ; e n n n n n n n n n n n n n n n n n g , ; ; ; ; : ; ; ; ; ; : ; ; ; ; ; ; ; ; ; ; ; ; ; ; ; ; ; ; ; ; ; ; ; ; ; ; ; ; ; ; ; ; ; ; - ; ; - - - - - - - - - - - - - - - - = = = = = = = = = = = = = = X * <.q.q.q.q.q.q.q.q.q.q.q.q.q.q.q.q.q.q.q.q.q.q.q.q.q.q.q.q.q.q.q.q.q.q.q.q.q.",
"q.q.q.q.q.q.q.q.q.q.q.q.q.q.q.q.q.q.q.q.q.q.q.q.q.q.q.q.q.q.q.q.q.q.q.q.<.* X = = = = = = = = = = = = = = - - - - - - - - - - - - - - - - - - - ; ; ; ; ; ; ; ; ; ; ; ; ; ; ; ; ; ; ; ; ; ; ; ; ; ; ; ; ; ; ; : ; ; ; ; ; ; ; ; : : : : ; < z n n n n n n n n n n n n n n n n n b 7 ; : : : : : ; ; ; ; : : : : ; ; ; ; ; ; ; ; ; ; ; ; ; ; ; ; ; ; ; ; ; ; ; ; ; ; ; ; ; ; ; ; ; ; ; - - - - - - - - - - - - - - - - = = = = = = = = = = = = = = X * <.q.q.q.q.q.q.q.q.q.q.q.q.q.q.q.q.q.q.q.q.q.q.q.q.q.q.q.q.q.q.q.q.q.q.q.q.",
"q.q.q.q.q.q.q.q.q.q.q.q.q.q.q.q.q.q.q.q.q.q.q.q.q.q.q.q.q.q.q.q.q.q.q.<.* X = = = = = = = = = = = = = = - - - - - - - - - - - - - - - - - ; ; ; ; ; ; ; ; ; ; ; ; ; ; ; ; ; ; ; ; ; ; ; ; ; ; ; ; ; ; ; : : : : : : : : : : : : : : : : ; q n n n n n n n n n n n n n n n n n n n d > : : : : : : : : : : : : : : ; : : : : ; ; ; ; ; ; ; ; ; ; ; ; ; ; ; ; ; ; ; ; ; ; ; ; ; ; - ; ; ; - - - - - - - - - - - - - - - - - = = = = = = = = = = = = = X * <.q.q.q.q.q.q.q.q.q.q.q.q.q.q.q.q.q.q.q.q.q.q.q.q.q.q.q.q.q.q.q.q.q.q.q.",
"q.q.q.q.q.q.q.q.q.q.q.q.q.q.q.q.q.q.q.q.q.q.q.q.q.q.q.q.q.q.q.q.q.q.6.* X = = = = = = = = = = = = = = - - - - - - - - - - - - - - - ; ; ; ; ; ; ; ; ; ; ; ; ; ; ; ; ; ; ; ; ; ; ; ; ; ; ; ; ; ; ; ; : : : : : : : : : : : : : : : : : : , k n n n n n n n n n n n n n n n n n n n b 7 : : : : : : : : : : : : : : : : : : : ; ; ; ; ; ; ; ; ; ; ; ; ; ; ; ; ; ; ; ; ; ; ; ; ; ; ; ; ; ; ; - - - - - - - - - - - - - - - - - = = = = = = = = = = = = = X * 4.q.q.q.q.q.q.q.q.q.q.q.q.q.q.q.q.q.q.q.q.q.q.q.q.q.q.q.q.q.q.q.q.q.q.",
"q.q.q.q.q.q.q.q.q.q.q.q.q.q.q.q.q.q.q.q.q.q.q.q.q.q.q.q.q.q.q.q.q.4.N X = = = = = = = = = = = = = = - - - - - - - - - - - - - - ; ; ; ; - ; ; ; ; ; ; ; ; ; ; ; ; ; ; ; ; ; ; ; ; ; ; ; : : ; ; ; : : : ; ; : : : : : : : : : : : : : ; 0 b n n n n n n n n n n n n n n n n n n n n s > : : : : : : > : : : : : : : : ; ; ; ; ; : ; ; ; ; ; ; ; ; ; ; ; ; ; ; ; ; ; ; ; ; ; ; ; ; ; ; ; ; ; - - ; - - - - - - - - - - - - - = = = = = = = = = = = = = = X N 4.q.q.q.q.q.q.q.q.q.q.q.q.q.q.q.q.q.q.q.q.q.q.q.q.q.q.q.q.q.q.q.q.q.",
"q.q.q.q.q.q.q.q.q.q.q.q.q.q.q.q.q.q.q.q.q.q.q.q.q.q.q.q.q.q.q.q.q.m X = = = = = = = = = = = = = = - - - - - - - - - - - - - - - ; ; ; ; ; ; ; ; ; ; ; ; ; ; ; ; ; ; ; ; ; ; ; ; ; ; ; ; : : ; : : : : : : : : : : : : : : : : : : : : , f n n n n n n n n n n n n n n n n n n n n n b 4 : : : : : > > > : : : : : : : : : : ; ; : : ; ; ; ; ; ; ; ; ; ; ; ; ; ; ; ; ; ; ; ; ; ; ; ; ; ; ; ; - - ; ; - - - - - - - - - - - - - = = = = = = = = = = = = = = X m q.q.q.q.q.q.q.q.q.q.q.q.q.q.q.q.q.q.q.q.q.q.q.q.q.q.q.q.q.q.q.q.q.",
"q.q.q.q.q.q.q.q.q.q.q.q.q.q.q.q.q.q.q.q.q.q.q.q.q.q.q.q.q.q.q.q.S o = = = = = = = = = = = = = = - - - - - - - - - - - - - - - - ; ; ; ; ; ; ; ; ; ; ; ; ; ; ; ; ; ; ; ; ; ; ; ; ; ; ; ; : : : : : : : : : : : : : : : : : : : : > > : 7 b n n n n n n n n n n n n n n n n n n n n n n p : > : : : : > : : : : : : : : : : : : : : : : : : : ; ; ; ; ; ; ; ; ; ; ; ; ; ; ; ; ; ; ; ; ; ; ; ; - - ; ; - - - - - - - - - - - - - - = = = = = = = = = = = = = = o S q.q.q.q.q.q.q.q.q.q.q.q.q.q.q.q.q.q.q.q.q.q.q.q.q.q.q.q.q.q.q.q.",
"q.q.q.q.q.q.q.q.q.q.q.q.q.q.q.q.q.q.q.q.q.q.q.q.q.q.q.q.q.q.q.U o = = = = = = = = = = = = = = - - - - - - - - - - - - ; ; ; - - ; ; ; ; ; ; ; ; ; ; ; ; ; ; ; ; ; ; ; ; ; ; ; ; ; ; ; ; : : : : : : : : : : : : : : > > > > > > > > > s n n n n n n n n n n n n n n n n n n n n n n n c 4 : > > > > > > : : : : : : : : : : : : : : : : : : : : ; ; ; ; ; ; ; ; ; ; ; ; ; ; ; ; ; ; ; ; ; ; ; ; ; ; ; - - - - - - - - - - - - - - = = = = = = = = = = = = = = o U q.q.q.q.q.q.q.q.q.q.q.q.q.q.q.q.q.q.q.q.q.q.q.q.q.q.q.q.q.q.q.",
"q.q.q.q.q.q.q.q.q.q.q.q.q.q.q.q.q.q.q.q.q.q.q.q.q.q.q.q.q.q.^   = = = = = = = = = = = = = - - - - - - - - - - - - - - ; - ; ; ; ; ; ; ; ; ; ; ; ; ; ; ; ; ; ; ; ; ; ; ; ; : : : ; ; : : : : : : : : : : : : : : > > > > > > > > > : 4 b n n n n n n n n n n n n n n n n n n n n n n n n i : > > > > > > > > : : > : : : : : : : : : : : : : : : ; ; ; ; ; ; ; ; ; ; ; ; ; ; ; ; ; ; ; ; ; ; ; ; ; ; ; ; ; - - - - - - - - - - - - - = = = = = = = = = = = = = =   ^ q.q.q.q.q.q.q.q.q.q.q.q.q.q.q.q.q.q.q.q.q.q.q.q.q.q.q.q.q.q.",
"q.q.q.q.q.q.q.q.q.q.q.q.q.q.q.q.q.q.q.q.q.q.q.q.q.q.q.q.q.} . = = = = = = = = = = = = = - - - - - - - - - - - - - ; ; ; ; ; ; ; ; ; ; ; ; ; ; ; ; ; ; ; ; ; ; ; ; ; ; ; : : : : : : : : : : : : : : : : : > > > > > > > > > > > > > p n n n n n n n n n n n n n n n n n n n n n n n n n x 1 > > > > > > > > > > > > > : : : : : : : : : : : : : : : ; ; : ; ; ; ; ; ; ; ; ; ; ; ; ; ; ; ; ; ; ; ; ; ; ; ; ; - - - - - - - - - - - - - = = = = = = = = = = = = = = . } q.q.q.q.q.q.q.q.q.q.q.q.q.q.q.q.q.q.q.q.q.q.q.q.q.q.q.q.q.",
"q.q.q.q.q.q.q.q.q.q.q.q.q.q.q.q.q.q.q.q.q.q.q.q.q.q.q.q.%.# = = = = = = = = = = = = = = - - - - - - - - - - - - - ; ; ; ; ; ; ; ; ; ; ; ; ; ; ; ; ; ; ; ; ; ; ; ; ; ; ; : : : : : : : : : : : : : > > > > > > > > > > > > > > > > 4 c n n n n n n n n n n n n n n n n n n n n n n n n n n u > > > > > > > > > > > > > > > : : : : : : : : : : : : : : : : : ; ; ; ; ; ; ; ; ; ; ; ; ; ; ; ; ; ; ; ; ; ; ; ; ; - - - - - - - - - - - - - - = = = = = = = = = = = = = # %.q.q.q.q.q.q.q.q.q.q.q.q.q.q.q.q.q.q.q.q.q.q.q.q.q.q.q.q.",
"q.q.q.q.q.q.q.q.q.q.q.q.q.q.q.q.q.q.q.q.q.q.q.q.q.q.q.4.* = = = = = = = = = = = = = = - - - - - - - - - - - - - ; ; ; ; ; ; ; ; ; ; ; ; ; ; ; ; ; ; ; ; ; ; ; : : : ; ; : : : : : : : : : : : : > > > > > > > > > > > > > > > > > i n n n n n n n n n n n n n n n n n n n n n n n n n n n z 1 > > > > > > > > > > > > > > > > > > : : : : : : : : : : : : : : : : ; ; ; ; ; ; ; ; ; ; ; ; ; ; ; ; ; ; ; ; ; ; ; - - - - - - - - - - - - - - = = = = = = = = = = = = = * 4.q.q.q.q.q.q.q.q.q.q.q.q.q.q.q.q.q.q.q.q.q.q.q.q.q.q.q.",
"q.q.q.q.q.q.q.q.q.q.q.q.q.q.q.q.q.q.q.q.q.q.q.q.q.q.q.m X = = = = = = = = = = = = = - - - - - - - - - - - - ; ; ; ; ; ; ; ; ; ; ; ; ; ; ; ; ; ; ; ; ; ; ; ; : : ; ; : : : : : : : : : : > > > > > > > > > > > > > > > > > > > > 1 x n n n n n n n n n n n n n n n n n n n n n n n n n n n n e > > > > > > > > > > > > > > > > > > > > : : : : : : : : : : : ; ; ; ; ; ; ; ; ; ; ; ; ; ; ; ; ; ; ; ; ; ; ; ; ; ; - - - - - - - - - - - - - - - = = = = = = = = = = = = X m q.q.q.q.q.q.q.q.q.q.q.q.q.q.q.q.q.q.q.q.q.q.q.q.q.q.q.",
"q.q.q.q.q.q.q.q.q.q.q.q.q.q.q.q.q.q.q.q.q.q.q.q.q.q. .o = = = = = = = = = = = = = - - - - - - - - - - - - ; ; ; ; ; ; ; ; ; ; ; ; ; ; ; ; ; ; ; ; ; ; ; : : : : ; : : : : : : : : : > > > > > > > > > > > > > > > > > > > > > > y n n n n n n n n n n n n n n n n n n n n n n n n n n n n n l < > > > > > > > > > > > > > > > > > > > > > : : : : : : : : : : : ; ; ; ; ; ; ; ; ; ; ; ; ; ; ; ; ; ; ; ; ; ; ; ; ; - - - - - - - - - - - - - - = = = = = = = = = = = = = o  .q.q.q.q.q.q.q.q.q.q.q.q.q.q.q.q.q.q.q.q.q.q.q.q.q.q.",
"q.q.q.q.q.q.q.q.q.q.q.q.q.q.q.q.q.q.q.q.q.q.q.q.q.*.. = = = = = = = = = = = = = - - - - - - - - - - - - - ; ; ; ; ; ; ; ; ; ; ; ; ; ; ; ; ; ; ; ; ; ; : ; : : : : : : : : : : : > > > > > > > > > > > > > > > > > > > > > > > 1 z n n n n n n n n n n n n n n n n n n n n n n n n n n n n n n q > > > > > > > > > > > > > > > > > > > > > > > > : : : : : : : : : ; ; ; ; : ; ; ; ; ; ; ; ; ; ; ; ; ; ; ; ; ; ; ; ; - - - - - - - - - - - - - - = = = = = = = = = = = = = . O.q.q.q.q.q.q.q.q.q.q.q.q.q.q.q.q.q.q.q.q.q.q.q.q.q.",
"q.q.q.q.q.q.q.q.q.q.q.q.q.q.q.q.q.q.q.q.q.q.q.q.<.% = = = = = = = = = = = = = - - - - - - - - - - - - - ; ; ; ; ; ; ; ; ; ; ; ; ; ; ; ; ; ; ; ; ; ; : : : : : : : : : : : : > > > > > > > > > > > > > > > > > > > > > > > , > e n n n n n n n n n n n n n n n n n n n n n n n n n n n n n n n k < > , , > > > > > > > > > > > > > > > > > > > > > : : : : : : : : : ; ; : : : ; ; ; ; ; ; ; ; ; ; ; ; ; ; ; ; ; ; ; ; - - - - - - - - - - - - - - = = = = = = = = = = = = = % <.q.q.q.q.q.q.q.q.q.q.q.q.q.q.q.q.q.q.q.q.q.q.q.q.",
"q.q.q.q.q.q.q.q.q.q.q.q.q.q.q.q.q.q.q.q.q.q.q.q.C X = = = = = = = = = = = = - - - - - - - - - - - - - - ; ; ; ; ; ; ; ; ; ; ; ; ; ; ; ; ; ; ; ; ; ; ; ; : : : : : : : : > > > > > > > > > > > > > > > > > > > > , , , , , , < l n n n n n n n n n n n n n n n n n n n n n n n n n n n n n n n b 0 > , , , > > > > > > > > > > > > > > > > > > > > > > : : : : : : : : : : ; ; ; ; ; ; ; ; ; ; ; ; ; ; ; ; ; ; ; ; ; - ; - - - - - - - - - - - - - - = = = = = = = = = = = = X C q.q.q.q.q.q.q.q.q.q.q.q.q.q.q.q.q.q.q.q.q.q.q.q.",
"q.q.q.q.q.q.q.q.q.q.q.q.q.q.q.q.q.q.q.q.q.q.q.( o = = = = = = = = = = = = - - - - - - - - - - - - - - - ; ; ; ; ; ; ; ; ; ; ; ; ; ; ; ; ; ; ; : ; ; : : : : : : : : : : > > > > > > > > > > > > > > > > > > > > , , , , , > q b n n n n n n n n n n n n n n n n n n n n n n n n n n n n n n n n f < , , , , , , , > > > > > > > > > > > > > > > > > > > > : : : : : : : : : ; ; : ; ; ; ; ; ; ; ; ; ; ; ; ; ; ; ; ; ; ; ; - - - - - - - - - - - - - - = - = = = = = = = = = = o ( q.q.q.q.q.q.q.q.q.q.q.q.q.q.q.q.q.q.q.q.q.q.q.",
"q.q.q.q.q.q.q.q.q.q.q.q.q.q.q.q.q.q.q.q.q.q.@.$ = = = = = = = = = = = = - - - - - - - - - - - ; - ; - - ; ; ; ; ; ; ; ; ; ; ; ; ; ; ; ; ; : : : ; : : : : : : : : : > > > > > > > > > > > > > > > > > > , , , , , , , , , < f n n n n n n n n n n n n n n n n n n n n n n n n n n n n n n n n n b 8 > , , , , , , , , , > > > > > > > > > > > > > > > > > > > : : : : : : : : ; : : : ; ; ; ; ; ; ; ; ; ; ; ; ; ; ; ; ; ; ; - - - - - - - - - - - - - - = = = = = = = = = = = = $ @.q.q.q.q.q.q.q.q.q.q.q.q.q.q.q.q.q.q.q.q.q.q.",
"q.q.q.q.q.q.q.q.q.q.q.q.q.q.q.q.q.q.q.q.q.q.* = = = = = = = = = = = = = - - - - - - - - - - ; ; ; ; - ; ; ; ; ; ; ; ; ; ; ; ; ; ; ; ; ; : : : : : : : : : : : : : > > > > > > > > > > > > > > > > , , , , , , , , , , , > 8 b n n n n n n n n n n n n n n n n n n n n n n n n n n n n n n n n n n d , , , , , , , , , , , , , > > > > > > > > > > > > > > > > > > > > : : : : : : : : : ; ; ; ; ; ; ; ; ; ; ; ; ; ; ; ; ; ; ; - - - - - - - - - - - - - - = = = = = = = = = = = = * q.q.q.q.q.q.q.q.q.q.q.q.q.q.q.q.q.q.q.q.q.q.",
"q.q.q.q.q.q.q.q.q.q.q.q.q.q.q.q.q.q.q.q.q.L o = = = = = = = = = = = = - - - - - - - - - - - - ; ; ; ; ; ; ; ; ; ; ; ; ; ; ; ; ; ; ; ; ; ; ; ; : : : : : : : : > > > > > > > > > > > > > > > > , , , , , , , , , , , , , , d n n n n n n n n n n n n n n n n n n n n n n n n n n n n n n n n n n n b 7 > , , , , , , , , , , , , , > > > > > > > > > > > > > > > > : : : : : : : : : : : ; ; ; ; ; ; ; ; ; ; ; ; ; ; ; ; ; ; ; ; ; - - - - - - - - - - - - = = = = = = = = = = = = o L q.q.q.q.q.q.q.q.q.q.q.q.q.q.q.q.q.q.q.q.q.",
"q.q.q.q.q.q.q.q.q.q.q.q.q.q.q.q.q.q.q.q.o.. = = = = = = = = = = = = - - - - - - - - - - - - ; ; ; ; ; ; ; ; ; ; ; ; ; ; ; ; ; ; ; ; ; ; ; : : : : : : : : > > > > > > > > > > > > > > > > , , , , , , , , , , , , , , , 7 b n n n n n n n n n n n n n n n n n n n n n n n n n n n n n n n n n n n n s , , , , , , , , , , , , , , , , > > > > > > > > > > > > > > > : : : : : : : : : : : ; ; ; ; ; ; ; ; ; ; ; ; ; ; ; ; ; ; ; ; ; - - - - - - - - - - - = = = = = = = = = = = = = . o.q.q.q.q.q.q.q.q.q.q.q.q.q.q.q.q.q.q.q.q.",
"q.q.q.q.q.q.q.q.q.q.q.q.q.q.q.q.q.q.q.q.* = = = = = = = = = = = = - - - - - - - - - - - - - - - ; ; ; ; ; ; ; ; ; ; ; ; ; ; ; ; ; ; ; ; : : : : : : > > > > > > > > > > > > > > > > > , , , , , , , , , , , , , , , , , a n n n n n n n n n n n n n n n n n n n n n n n n n n n n n n n n n n n n n v 5 , , , , , , , , , , , , , , , , , > > > > > > > > > > > > > > > : : : : : : : : : : ; ; ; ; ; ; ; ; ; ; ; ; ; ; ; ; ; ; ; ; ; - - - - - - - - - - - = = = = = = = = = = = = = * q.q.q.q.q.q.q.q.q.q.q.q.q.q.q.q.q.q.q.q.",
"q.q.q.q.q.q.q.q.q.q.q.q.q.q.q.q.q.q.q.T o = = = = = = = = = = = - - - - - - - - - - - - - - - - ; ; ; ; ; ; ; ; ; ; ; ; ; ; ; ; : : ; : : : : : > > > > > > > > > > > > > > > > > , , , , , , , , , , , , , , , , , , 4 v n n n n n n n n n n n n n n n n n n n n n n n n n n n n n n n n n n n n n n p , , , , , , , , , , , , , , , , , , , > > > > > > > > > > > > > > : : : : : : : : : ; ; ; ; ; ; ; ; ; ; ; ; ; ; ; ; ; ; ; ; ; ; - - - - - - - - - - - = = = = = = = = = = = = o T q.q.q.q.q.q.q.q.q.q.q.q.q.q.q.q.q.q.q.",
"q.q.q.q.q.q.q.q.q.q.q.q.q.q.q.q.q.q.%.# = = = = = = = = = = = = - - - - - - - - - - - - ; ; ; ; ; ; ; ; ; ; ; ; ; ; ; ; ; ; ; ; : : : : : : : : : > > > > > > > > > > > > > > > , , , , , , , , , , , , , , , , , , , i n n n n n n n n n n n n n n n n n n n g b n n n n n n n n n n n n n n n n n n c 4 , , , , , , , , , , , , , , , , , , , , > > > > > > > > > > > > > > : : : : : : : ; ; : ; ; ; ; ; ; ; ; ; ; ; ; ; ; ; ; ; ; - - - - - - - - - - - - - = = = = = = = = = = = = # %.q.q.q.q.q.q.q.q.q.q.q.q.q.q.q.q.q.q.",
"q.q.q.q.q.q.q.q.q.q.q.q.q.q.q.q.q.q.Z = = = = = = = = = = = = - - - - - - - - - - - - ; ; ; ; ; ; ; ; ; ; ; ; ; ; ; ; ; ; ; : : : : : : : : : : > > > > > > > > > > > > > > , , , , , , , , , , , , , , , , , , , , 4 x n n n n n n n n n n n n n n n n n n z 4 k n n n n n n n n n n n n n n n n n n n i , , , , , , , , , , , , , , , , , , , , , , > > > > > > > > > > > > > : : : : : : : ; : : ; ; ; ; ; ; ; ; ; ; ; ; ; ; ; ; - - - - - - - - - - - - - - - = = = = = = = = = = = = Z q.q.q.q.q.q.q.q.q.q.q.q.q.q.q.q.q.q.",
"q.q.q.q.q.q.q.q.q.q.q.q.q.q.q.q.q.' O = = = = = = = = = = = - - - - - - - - - - - ; ; ; ; ; ; ; ; ; ; ; ; ; ; ; ; ; ; ; : : : : : : : : : : : : > > > > > > > > > > > > > , , , , , , , , , , , , , , , , , , , , , u n n n n n n n n n n n n n n n n n n n i , e n n n n n n n n n n n n n n n n n n n x 4 , < , , , , , , , , , , , , , , , , , , , , > > > > > > > > > > > > > > : : : : : : : : : ; ; ; ; ; ; ; ; ; ; ; ; ; ; ; ; - ; - - - - - - - - - - - - - = = = = = = = = = = = O } q.q.q.q.q.q.q.q.q.q.q.q.q.q.q.q.q.",
"q.q.q.q.q.q.q.q.q.q.q.q.q.q.q.q.4.* = = = = = = = = = = = = - - - - - - - - - - - ; ; ; ; ; ; ; ; ; ; ; ; ; ; ; ; ; ; ; : : : : : : : : : : > > > > > > > > > > > > > , , , , , , , , , , , , , , , , , < , < < , 2 z n n n n n n n n n n n n n n n n n n x 4 < 2 z n n n n n n n n n n n n n n n n n n n u , < < < < < , , , , , , , , , , , , , , , , , > > > > > > > > > > > > > > : : : : : : : : : ; ; ; ; ; ; ; ; ; ; ; ; ; ; ; ; ; ; - - - - - - - - - - - - = = = = = = = = = = = = * 4.q.q.q.q.q.q.q.q.q.q.q.q.q.q.q.q.",
"q.q.q.q.q.q.q.q.q.q.q.q.q.q.q.q.T o = = = = = = = = = = = = - - - - - - - - - ; - - ; ; ; ; ; ; ; ; ; ; ; ; ; ; ; ; ; ; ; ; : : : : : : > > > > > > > > > > > > > , , , , , , , , , , , , , , , , < , , , , < < , e n n n n n n n n n n n n n n n n n n n p < < < t n n n n n n n n n n n n n n n n n n n z 2 , < < < , , , , , , , , , , , , , , , , , , , , > > > > > > > > > > > > > : : : : : : : : : ; ; ; ; ; ; ; ; ; ; ; ; ; ; ; ; ; - - ; - - - - - - - - - - = = = = = = = = = = = o T q.q.q.q.q.q.q.q.q.q.q.q.q.q.q.q.",
"q.q.q.q.q.q.q.q.q.q.q.q.q.q.q.:.# = = = = = = = = = = = = - - - - - - - - - - - - ; ; ; ; ; ; ; ; ; ; ; ; ; ; ; ; ; ; ; ; : : : : : : > > > > > > > > > > > > > , , , , , , , , , , , , , , , , < < < < < < < < 1 l n n n n n n n n n n n n n n n n n n v 5 < < < 3 z n n n n n n n n n n n n n n n n n n n e , < < < < < , , , , , , , , , , , , , , , , , , , > > > > > > > > > > > > : : : : : : : : : ; ; ; ; ; ; ; ; ; ; ; ; ; ; ; ; ; ; - ; - - - - - - - - - - = - = = = = = = = = = = # :.q.q.q.q.q.q.q.q.q.q.q.q.q.q.q.",
"q.q.q.q.q.q.q.q.q.q.q.q.q.q.q.S X = = = = = = = = = = = - - - - - - - - - - - - ; ; ; ; ; ; ; ; ; ; ; ; ; ; ; ; ; ; ; ; : : : : : : > > > > > > > > > > > > > , , , , , , , , , , , , , , , , , < < < < < < < , w n n n n n n n n n n n n n n n n n n n a < < < < < u n n n n n n n n n n n n n n n n n n n l 2 < < < < < < < , < < , , , , , , , , , , , , , , , > > > > > > > > > > > > : : : : : : : : : ; ; ; ; ; ; ; ; ; ; ; ; ; ; ; ; ; ; ; ; - - - - - - - - - - - - = = = = = = = = = X S q.q.q.q.q.q.q.q.q.q.q.q.q.q.q.",
"q.q.q.q.q.q.q.q.q.q.q.q.q.q.@.. = = = = = = = = = = = = - - - - - - - - - - - ; ; ; ; ; ; ; ; ; ; ; ; ; ; ; ; : ; : ; : : : : : : : > > > > > > > > > > > > , , , , , , , , , , , , , , , , , , < < < < < < < 1 g n n n n n n n n n n n n n n n n n n b 7 < < < < < 4 z n n n n n n n n n n n n n n n n n n n e < < < < < < < < < < < < , , , , , , , , , , , , , , > > > > > > > > > > > > : : : : : : : : ; ; ; ; ; ; ; ; ; ; ; ; ; ; ; ; ; ; ; ; - - - - - - - - - - - = = = = = = = = = = = . @.q.q.q.q.q.q.q.q.q.q.q.q.q.q.",
"q.q.q.q.q.q.q.q.q.q.q.q.q.q.m = = = = = = = = = = = - - - - - - - - - - - - - ; ; ; ; ; ; ; ; ; ; ; ; ; ; ; ; : : : : : : : : : > > > > > > > > > > > > , , , , , , , , , , , , , , , , < < < < < < < < < < , 0 b n n n n n n n n n n n n n n n n n n d < < < < < < < u n n n n n n n n n n n n n n n n n n n j < < < < < < < < < < , , , , , , , , , , , , , , , , , > > > > > > > > > > > > : : : : : : ; ; ; : ; ; ; ; ; ; ; ; ; ; ; ; ; ; ; ; ; - - - - - - - - - - - = = = = = = = = = = = = m q.q.q.q.q.q.q.q.q.q.q.q.q.q.",
"q.q.q.q.q.q.q.q.q.q.q.q.q.o.. = = = = = = = = = - = - - - - - - - - - - - - ; ; ; ; ; ; ; ; ; ; ; ; ; ; ; ; ; : : : : : : : : : > > > > > > > > > > > > , , , , , , , , , , , , , , < < < < < < < < < < < < < d n n n n n n n n n n n n n n n n n n b 0 < < < < < < < 4 x n n n n n n n n n n n n n n n n n n b q < < < < < < < < < < < , , , , , , , , , , , , , , , , > > > > > > > > > > > > > : : : : : ; ; : ; ; ; ; ; ; ; ; ; ; ; ; ; ; ; ; ; - - - - - - - - - - - - = = = = = = = = = = = . o.q.q.q.q.q.q.q.q.q.q.q.q.q.",
"q.q.q.q.q.q.q.q.q.q.q.q.q.m = = = = = = = = = = = - - - - - - - - - - - - - - ; ; ; ; ; ; ; ; ; ; ; ; ; ; ; ; ; : : : : : : : : > > > > > > > > > > > , , , , , , , , , , , , , < < < < < < < < < < < < < < 7 b n n n n n n n n n n n n n n n n n n f 2 < < < < < < < < i n n n n n n n n n n n n n n n n n n n f < < < < < < < < < < < < < , , < , , , , , , , , , , , , , > > > > > > > > > > > : : : : : : : : : ; ; ; ; ; ; ; ; ; ; ; ; ; ; ; ; ; - - - - - - - - - - - = = = = = = = = = = = = C q.q.q.q.q.q.q.q.q.q.q.q.q.",
"q.q.q.q.q.q.q.q.q.q.q.q.o.. = = = = = = = = = = = - - - - - - - - - - - - ; ; ; ; ; ; ; ; ; ; ; ; ; ; ; ; ; ; ; : : : : : : : > > > > > > > > > > , , , , , , , , , , , , , , , < < < < < < < < < < < < < < s n n n n n n n n n n n n n n n n n n b w < 2 < < < < < < < 4 x n n n n n n n n n n n n n n n n n n b 8 < < < < < < < < < < < < < < < < , , , , , , , , , , , , , > > > > > > > > > > > : : > : : : : : : ; ; ; ; ; ; ; ; ; ; ; ; ; ; ; - - - - - - - - - - - - - = = = = = = = = = = = . o.q.q.q.q.q.q.q.q.q.q.q.q.",
"q.q.q.q.q.q.q.q.q.q.q.q.m = = = = = = = = = = = = - - - - - - - - - - ; ; ; ; ; ; ; ; ; ; ; ; ; ; ; ; ; : : : : : : : : : > > > > > > > > > > > , , , , , , , , , , , , < < , < < < < < < < < < < < < < < 5 v n n n n n n n n n n n n n n n n n n j 2 < < < < < < < < < < i n n n n n n n n n n n n n n n n n n n d < < < < < < < < < < < < < < < < , , , , , , , , , , , , , , > > > > > > > > > > : : : : : : : ; ; ; ; ; ; ; ; ; ; ; ; ; ; ; ; ; - - - - - - - - - - - - - - = = = = = = = = = = = m q.q.q.q.q.q.q.q.q.q.q.q.",
"q.q.q.q.q.q.q.q.q.q.q.@.. = = = = = = = = = = = - - - - - - - - - - - ; ; ; ; ; ; ; ; ; ; ; ; ; ; ; ; ; : : : : : : : : > > > > > > > > > > > > , , , , , , , , , , , , < < < < < < < < < < < < < < < < < p n n n n n n n n n n n n n n n n n n n e < 2 2 2 < 2 < < < < < 5 c n n n n n n n n n n n n n n n n n n b 7 < < < < < < < < < < < < < < < , , , , , , , , , , , , , , , > > > > > > > > > > : : : : : : : ; ; ; ; ; ; ; ; ; ; ; ; ; ; ; ; ; - - - - - - - - - - - - - = = = = = = = = = = = . @.q.q.q.q.q.q.q.q.q.q.q.",
"q.q.q.q.q.q.q.q.q.q.q.F = = = = = = = = = = = = - - - - - - - - - ; ; ; ; ; ; ; ; ; ; ; ; ; ; ; ; ; ; : ; : : : : : : : > > > > > > > > > > , , , , , , , , , , , , , , < < < < < < < < < < < < < < < < 4 x n n n n n n n n n n n n n n n n n n l 3 2 2 2 2 2 2 2 2 2 2 2 2 p n n n n n n n n n n n n n n n n n n n a < < < < < < < < < < < < < < < < < < < , , , , , , , , , , , , > > > > > > > > > > > : : : : : : ; ; ; ; ; ; ; ; ; ; ; ; ; ; ; ; ; ; - - - - - - - - - - - = = = = = = = = = = = X H q.q.q.q.q.q.q.q.q.q.q.",
"q.q.q.q.q.q.q.q.q.q.:.# = = = = = = = = = = = - - - - - - - - - ; ; ; ; ; ; ; ; ; ; ; ; ; ; ; ; ; ; : : ; : : : : : : > > > > > > > > > > , , , , , , , , , , , , , , , < < < < < < < < < < < < < < < < u n n n n n n n n n n n n n n n n n n n t < 2 2 2 2 2 2 2 2 2 2 2 2 5 v n n n n n n n n n n n n n n n n n n v 5 < < 1 < < < < < < < < < < < < < < < , , , , , , , , , , , , , > > > > > > > > > > > : : : : : ; ; ; ; ; ; ; ; ; ; ; ; ; ; ; ; ; ; ; - - - - - - - - - - - = = = = = = = = = = = # :.q.q.q.q.q.q.q.q.q.q.",
"q.q.q.q.q.q.q.q.q.q.L X = = = = = = = = = = - - - - - - - - - - - - ; ; ; ; ; ; ; ; ; ; ; ; ; ; ; ; ; ; ; : : : : : > > > > > > > > > > , , , , , , , , , , , , , , < < < < < < < < < < < < < < < < < 4 z n n n n n n n n n n n n n n n n n n z 4 2 2 2 2 2 2 2 2 2 2 2 2 2 2 a n n n n n n n n n n n n n n n n n n n p < < < < < < < < < < < < < < < < < < < , , , , , , , , , , , , , > > > > > > > > > > : : : : : : : : : ; ; ; ; ; ; ; ; ; ; ; ; ; ; ; - - - - - - - - - - - - = = = = = = = = = = X L q.q.q.q.q.q.q.q.q.q.",
"q.q.q.q.q.q.q.q.q.4.# = = = = = = = = = = = - - - - - - - - - - - - ; ; ; ; ; ; ; ; ; ; ; ; ; ; ; ; ; : : : : : : > > > > > > > > > > > , , , , , , , , , , , , , < < < < < < < < < < < < < < < < < < t n n n n n n n n n n n n n n n n n n n u 2 2 2 2 2 2 2 2 2 2 2 2 2 2 2 8 v n n n n n n n n n n n n n n n n n n x 4 < < < < < < < < < < < < < < < < < < < , , , , , , , , , , , , > > > > > > > > > > > : : : : : : : : ; ; ; ; ; ; ; ; ; ; ; ; ; ; ; ; - - - - - - - - - - - = = = = = = = = = = = # 4.q.q.q.q.q.q.q.q.q.",
"q.q.q.q.q.q.q.q.q.^ o = = = = = = = = = = - - - - - - - - - - ; - - ; ; ; ; ; ; ; ; ; ; ; ; ; ; ; ; ; : : : : : > > > > > > > > > > > , , , , , , , , , , , < < < < < < < < < < < < < < < < < < < < 3 l n n n n n n n n n n n n n n n n n n x 5 2 2 2 2 2 2 2 2 2 2 2 2 2 2 2 2 s n n n n n n n n n n n n n n n n n n n i < < < < < < < < < < < < < < < < < < < < , , , , , , , , , , , , > > > > > > > > > > : : : : : : : : ; ; ; ; ; ; ; ; ; ; ; ; ; ; ; ; - - - - - - - - - - - = = = = = = = = = = = o ^ q.q.q.q.q.q.q.q.q.",
"q.q.q.q.q.q.q.q.q.* = = = = = = = = = = = - - - - - - - - - ; ; - - ; ; ; ; ; ; ; ; ; ; ; ; ; ; ; : : : : : : > > > > > > > > > > > , , , , , , , , , , , , < < < < < < < < < < < < < < < < < < < < e n n n n n n n n n n n n n n n n n n n i 2 2 2 2 2 2 2 2 2 2 2 2 2 2 2 2 2 8 b n n n n n n n n n n n n n n n n n n x 4 < < < < < < < < < < < < < < < < < < < < , , , , , , , , , , , , > > > > > > > > > > : : : : : : : : ; ; ; ; ; ; ; ; ; ; ; ; ; ; ; - ; - - - - - - - - - - = = = = = = = = = = = * q.q.q.q.q.q.q.q.q.",
"q.q.q.q.q.q.q.q.o.. = = = = = = = = = = - - - - - - - - - - - ; ; ; ; ; ; ; ; ; ; ; ; ; ; ; ; ; ; ; : : : : : > > > > > > > > > > , , , , , , , , , , , < < < < < < < < < < < < < < < < < < < < < 2 j n n n n n n n n n n n n n n n n n n c 5 2 2 2 2 2 2 2 2 2 2 2 2 2 2 2 2 2 2 s n n n n n n n n n n n n n n n n n n n u < < < < < < < < < < < < < < < < < < < < , , , , , , , , , , , , , > > > > > > > > > > : : : : : ; ; ; ; ; ; ; ; ; ; ; ; ; ; ; ; ; - ; - - - - - - - - - - = = = = = = = = = = = . o.q.q.q.q.q.q.q.q.",
"q.q.q.q.q.q.q.q.S = = = = = = = = = = = - - - - - - - - - - - ; ; ; ; ; ; ; ; ; ; ; ; ; ; ; ; : ; : : : : : > > > > > > > > > > , , , , , , , , , , , , < < < < < < < < < < < < < < < < < < < 2 < q b n n n n n n n n n n n n n n n n n n a 2 2 2 2 2 2 2 2 2 2 2 2 2 2 2 2 2 2 2 8 b n n n n n n n n n n n n n n n n n n z 4 < < < < < < < < < < < < < < < < < < < < , , , , , , , , , , , , , > > > > > > > > > > : : : : : ; ; ; ; ; ; ; ; ; ; ; ; ; ; ; ; - ; ; - - - - - - - - - - = = = = = = = = = = X S q.q.q.q.q.q.q.q.",
"q.q.q.q.q.q.q.4.# = = = = = = = = = = = - - - - - - - - - - - - ; ; ; ; ; ; ; ; ; ; ; ; ; ; : : ; : : : : > > > > > > > > > > > , , , , , , , , , , , , < < < < < < < < < < < < < < < < < < 2 2 2 f n n n n n n n n n n n n n n n n n n v 8 2 2 2 2 2 3 3 3 2 2 2 2 2 2 2 3 2 2 2 3 d n n n n n n n n n n n n n n n n n n n e < 2 2 < < < < < < < < < < < < < < < < < < < , , , , , , , , , , , > > > > > > > > > > : : : : : : ; ; ; ; ; ; ; ; ; ; ; ; ; ; ; ; ; ; - - - - - - - - - - - = = = = = = = = = = # 4.q.q.q.q.q.q.q.",
"q.q.q.q.q.q.q.[ o = = = = = = = = = = = - - - - - - - - - - - ; ; ; ; ; ; ; ; ; ; ; ; ; ; ; : : : : : : : > > > > > > > > > > , , , , , , , , , , , , < < < < < < < < < < < < < < < < < 2 2 2 < 8 b n n n n n n n n n n n n n n n n n n s 2 2 2 3 3 3 3 3 3 3 3 2 3 3 2 3 3 3 3 3 2 q b n n n n n n n n n n n n n n n n n n l 3 2 2 2 < < < < < < < < < < < < < < < < < < < , , , , , , , , , , , > > > > > > > > > : : : : : : : ; ; ; ; ; ; ; ; ; ; ; ; ; ; ; ; ; ; - - - - - - - - - - = = = = = = = = = = o [ q.q.q.q.q.q.q.",
"q.q.q.q.q.q.q.N = = = = = = = = = = = - - - - - - - - - - ; ; ; ; ; ; ; ; ; ; ; ; ; ; ; ; : : : : : : : : > > > > > > > > > , , , , , , , , , , , , , < < < < < < < < < < < < < < < < < < < < 2 s n n n n n n n n n n n n n n n n n n b 0 2 3 3 3 3 3 3 3 3 3 3 3 3 3 3 3 3 3 3 3 3 3 f n n n n n n n n n n n n n n n n n n b e < < < < < < < < < < < < < < < < < < < < < < , , , , , , , , , , , , > > > > > > > > > : : : : : : : ; ; ; ; ; ; ; ; ; ; ; ; ; ; ; ; - - - - - - - - - - - = = = = = = = = = = = N q.q.q.q.q.q.q.",
"q.q.q.q.q.q.-.$ = = = = = = = = = = = - - - - - - - - - ; ; ; ; ; ; ; ; ; ; ; ; ; ; ; ; : : : : : : : : > > > > > > > > > > , , , , , , , , , , , , < < < < < < < < < < < < < < < < < < 2 2 < 7 v n n n n n n n n n n n n n n n n n n f 3 3 3 3 3 3 3 3 3 3 3 3 3 3 3 3 3 3 3 3 3 3 2 w b n n n n n n n n n n n n n n n n n n g 2 < < 2 2 < < < < < < < < < < < < < < < < < < , , , , , , , , , , , > > > > > > > > > > : : : : : : ; ; ; ; ; ; ; ; ; ; ; ; ; ; ; ; - - - - - - - - - - - - = = = = = = = = = = $ -.q.q.q.q.q.q.",
"q.q.q.q.q.q.) o = = = = = = = = = = - - - - - - - - - - ; ; ; ; ; ; ; ; ; ; ; ; ; ; ; ; ; : : : : : : : > > > > > > > > > , , , , , , , , , , , , < < < < < < < < < < < < < < < < < 2 2 2 2 < p n n n n n n n n n n n n n n n n n n b w 3 3 3 3 3 3 3 3 3 3 3 3 3 3 3 3 3 3 3 3 3 3 3 3 f n n n n n n n n n n n n n n n n n n b q < 2 2 2 2 2 2 < < < < < < < < < < < < < < < < , , , , , , , , , , , > > > > > > > > > > : : : : : : : : ; ; ; ; ; ; ; ; ; ; ; ; ; ; - - - - - - - - - - - = = = = = = = = = = o ) q.q.q.q.q.q.",
"q.q.q.q.q.q.C = = = = = = = = = = = - - - - - - - - - - ; ; ; ; ; ; ; ; ; ; ; ; ; ; ; ; ; : : : : : : > > > > > > > > > , , , , , , , , , , , < < < < < < < < < < < < < < < < < < < 2 2 2 2 5 x n n n n n n n n n n n n n n n n n n j 4 3 3 3 3 3 3 3 3 3 3 3 3 3 3 3 3 3 3 3 3 3 3 3 3 w b n n n n n n n n n n n n n n n n n n f 2 2 2 2 2 2 2 < < < < < < < < < < < < < < < < , , , , , , , , , , , , > > > > > > > > > : : : : : : : : ; ; ; ; ; ; ; ; ; ; ; ; ; ; - - - - - - - - - - - = = = = = = = = = = = C q.q.q.q.q.q.",
"q.q.q.q.q.-.$ = = = = = = = = = = = - - - - - - - - - - - ; ; ; ; ; ; ; ; ; ; ; ; ; ; : : : : : : : : > > > > > > > > > , , , , , , , , , , , < < < < < < < < < < < < < < < < < 2 2 2 2 2 < i n n n n n n n n n n n n n n n n n n b e 3 3 3 3 3 3 3 3 3 3 3 3 3 3 3 3 3 3 3 3 3 3 3 3 3 4 j n n n n n n n n n n n n n n n n n n b 8 2 2 2 < < < < < < < < < < < < < < < < < < < < , , , , , , , , , , , > > > > > > > > > > : : : : ; ; ; ; ; ; ; ; ; ; ; ; ; ; ; ; ; ; - - - - - - - - - - - = = = = = = = = = = $ :.q.q.q.q.q.",
"q.q.q.q.q.^ o = = = = = = = = = = = - - - - - - - - - - ; ; ; ; ; ; ; ; ; ; ; ; ; ; : : : : : : : : > > > > > > > > > , , , , , , , , , , , , < < < < < < < < < 1 < < < < < < 2 2 2 2 2 2 4 z n n n n n n n n n n n n n n n n n n l 4 3 3 3 3 3 3 3 3 3 3 3 3 3 3 3 3 3 3 3 3 3 3 3 3 3 3 e b n n n n n n n n n n n n n n n n n n s 2 2 2 2 2 < < < < < < < < < < < < < < < < < < , , , , , , , , , , , , > > > > > > > > > : : : : : ; ; ; ; ; ; ; ; ; ; ; ; ; ; ; ; ; ; - - - - - - - - - - = = = = = = = = = = o ^ q.q.q.q.q.",
"q.q.q.q.q.N = = = = = = = = = = = - - - - - - - - - - - ; ; ; ; ; ; ; ; ; ; ; ; ; ; : : : : : : : : > > > > > > > > > , , , , , , , , , , , , < < < < < < < < < < < < < < < < < < 2 2 2 2 y n n n n n n n n n n n n n n n n n n n t 3 3 3 3 3 3 3 3 3 3 4 4 4 4 3 3 3 3 3 3 3 3 3 3 3 3 3 4 k n n n n n n n n n n n n n n n n n n b 8 2 2 2 2 < 2 2 < < < < < < < < < < < < < < < < , , , , , , , , , , , > > > > > > > > > : : : : : : ; ; ; ; ; ; ; ; ; ; ; ; ; ; ; ; ; ; - - - - - - - - - = - = = = = = = = = = N q.q.q.q.q.",
"q.q.q.q.4.# = = = = = = = = = = = - - - - - - - - - - - ; ; ; ; ; ; ; ; ; ; ; ; ; : : : : : : : : : > > > > > > > > , , , , , , , , , , , , < < < < < < < < < 1 < < < < < < < < 2 2 2 2 4 z n n n n n n n n n n n n n n n n n n z 5 3 3 3 3 3 3 3 4 4 4 4 4 4 4 4 4 4 4 4 4 4 4 4 4 3 3 3 3 t n n n n n n n n n n n n n n n n n n n a 2 2 2 2 < 2 2 2 < 2 < < < < < < < < < < < < < , , , , , , , , , , , , > > > > > > > > > : : : : : : ; ; ; ; ; ; ; ; ; ; ; ; ; ; ; ; ; - - - - - - - - - = - = = = = = = = = = # 4.q.q.q.q.",
"q.q.q.q.[ o = = = = = = = = = = - - - - - - - - - ; ; ; ; ; ; ; ; ; ; ; ; ; ; ; ; ; ; : : : : : > > > > > > > > > > , , , , , , , , , , < < < < < < < < < < < < < < < < 2 2 2 2 2 2 2 < e b n n n n n n n n n n n n n n n n n n u 3 3 4 4 4 4 4 3 3 4 4 4 4 4 4 4 4 4 3 4 4 4 4 4 4 4 4 3 3 5 l n n n n n n n n n n n n n n n n n n c 5 2 2 2 2 2 2 < < < < < < < < < < < < < < < < < , , , , , , , , , , , > > > > > > > > > : : : : : : : : ; ; ; ; ; ; ; ; ; ; ; ; ; ; ; - - - - - - - - - - = = = = = = = = = = o [ q.q.q.q.",
"q.q.q.q.F = = = = = = = = = = - - - - - - - - - ; ; ; ; ; ; ; ; ; ; ; ; ; ; ; ; ; ; ; : : : : : > > > > > > > > > , , , , , , , , , , < < < < < < < < < < < < < < < < 2 2 2 2 2 2 2 2 3 j n n n n n n n n n n n n n n n n n n x 5 3 4 4 4 4 4 4 4 4 4 4 4 4 4 4 4 4 4 4 4 4 4 4 4 4 4 4 4 4 3 t n n n n n n n n n n n n n n n n n n n i 2 2 2 2 2 2 < < < < < < < < < < < < < < < < < , , , , , , , , , , , , > > > > > > > > > : : : : : : : ; ; ; ; ; ; ; ; ; ; ; ; ; ; ; - - - - - - - - - - = = = = = = = = = = = S q.q.q.q.",
"q.q.q.q.* = = = = = = = = = = - - - - - - - - - - - ; ; ; ; ; ; ; ; ; ; ; ; ; ; ; ; ; : : : : : > > > > > > > > > , , , , , , , , , < < < < < < < < < < < < < < < < 2 2 2 2 2 2 2 2 2 w b n n n n n n n n n n n n n n n n n n i 3 4 4 4 4 4 4 4 4 4 4 4 4 4 4 4 4 4 4 4 4 4 4 4 4 4 4 4 4 4 4 5 z n n n n n n n n n n n n n n n n n n x 5 2 2 2 2 2 2 < < < < < < < < < < < < < < < < < , , , , , , , , , , , > > > > > > > > > : : : : : : : : ; ; ; ; ; ; ; ; ; ; ; ; ; ; ; - - - - - - - - - = = = = = = = = = = = * q.q.q.q.",
"q.q.q.%.. = = = = = = = = = = - - - - - - - - - - ; ; ; ; ; ; ; ; ; ; ; ; ; ; ; ; ; : : : : : > > > > > > > > > , , , , , , , , , < < < < < < < < < < < < < < < < 2 2 2 2 2 2 2 2 2 2 f n n n n n n n n n n n n n n n n n n c 8 3 4 4 4 4 4 4 4 4 4 5 5 5 5 5 5 5 5 5 5 5 5 4 4 4 4 4 4 4 4 4 3 u n n n n n n n n n n n n n n n n n n n i 2 2 2 2 2 2 2 < < < < < < < < < < < < < < < < < , , , , , , , , , , , > > > > > > > > > : : : : : : : ; ; ; ; ; ; ; ; ; ; ; ; ; ; ; - - - - - - - - - = = = = = = = = = = = . 1.q.q.q.",
"q.q.q.^ o = = = = = = = = = = - - - - - - - - - ; ; ; ; ; ; ; ; ; ; ; ; ; ; ; : : : : : : : : > > > > > > > > > , , , , , , , , , , , < < < < < < < < < < < < < < < < < 2 2 2 2 2 2 0 b n n n n n n n n n n n n n n n n n n a 3 4 4 4 4 4 4 4 4 4 4 5 5 5 4 4 5 5 5 5 5 4 4 4 4 4 4 4 4 4 4 4 4 5 z n n n n n n n n n n n n n n n n n n z 4 2 2 2 2 2 2 2 2 < < < < < < < < < < < < < < < , , , , , , , , , , , > > > > > > > > > : : : : : : ; ; ; ; ; ; ; ; ; ; ; ; ; ; ; - - - - - - - - - - - = = = = = = = = = = o ^ q.q.q.",
"q.q.q.m = = = = = = = = = = - - - - - - - - - - ; ; ; ; ; ; ; ; ; ; ; ; ; ; ; : : : : : : : : > > > > > > > > > , , , , , , , , , , < < < < < < < < < < < < < < < < < < 2 2 2 2 2 2 s n n n n n n n n n n n n n n n n n n v 8 4 4 4 4 5 4 4 4 4 5 5 5 5 5 5 5 5 5 5 5 5 5 5 5 4 5 4 4 4 4 4 4 4 3 u n n n n n n n n n n n n n n n n n n n u 2 2 2 2 2 2 2 2 < < < < < < < < < < < < < < < < , , , , , , , , , , , > > > > > > > > > : : : : : ; ; ; ; ; ; ; ; ; ; ; ; ; ; ; - - - - - - - - - - - = = = = = = = = = = = m q.q.q.",
"q.q.q.* = = = = = = = = = = - - - - - - - - - - ; ; ; ; ; ; ; ; ; ; ; ; ; ; ; : ; : : : : : : > > > > > > > > , , , , , , , , , , , < < < < < < < < < < < < < 2 < 2 < 2 2 2 2 2 2 8 v n n n n n n n n n n n n n n n n n n s 4 4 4 4 5 5 5 5 5 5 5 5 5 5 5 5 5 5 5 5 5 5 5 5 5 5 5 5 5 5 4 4 4 4 4 5 z n n n n n n n n n n n n n n n n n n z 4 2 2 2 2 2 2 2 < < 2 < < < < < < < < < < < < < , , , , , , , , , , , > > > > > > > > > : : : : : ; ; ; ; ; ; ; ; ; ; ; ; ; ; ; ; - ; - - - - - - - - = = = = = = = = = = = * q.q.q.",
"q.q.:.. = = = = = = = = = = - - - - - - - - - - ; ; ; ; ; ; ; ; ; ; ; ; ; ; ; : ; : : : : : > > > > > > > > > , , , , , , , , , , < < < < < < < < < < < < < 2 2 2 2 < 2 2 2 2 2 2 a n n n n n n n n n n n n n n n n n n b 0 4 4 5 5 5 5 5 5 5 5 5 5 5 5 5 5 5 5 5 5 5 5 5 5 5 5 5 5 5 5 5 5 4 4 5 3 i n n n n n n n n n n n n n n n n n n n e 2 2 2 2 2 2 2 < < 2 < < < < < < < < < < < < < < , , , , , , , , , , > > > > > > > > > : : : : : ; ; ; ; ; ; ; ; ; ; ; ; ; ; ; ; - ; - - - - - - - - - = = = = = = = = = = . -.q.q.",
"q.q.} o = = = = = = = = = = - - - - - - - - - ; ; ; ; ; ; ; ; ; ; ; ; ; ; ; ; ; ; : : : : : > > > > > > > > , , , , , , , , , < , < < < < < < < < < < < < < < 2 2 2 2 2 2 2 2 2 5 c n n n n n n n n n n n n n n n n n n f 4 4 4 5 5 5 5 5 5 5 5 5 5 5 5 5 5 5 5 5 5 5 5 5 5 5 5 5 5 5 5 5 5 5 4 5 4 6 x n n n n n n n n n n n n n n n n n n k 3 2 2 2 2 2 2 < < 2 2 < < < < < < < < < < < < < , , , , , , , , , , , > > > > > > > > : : : : : ; : : ; ; ; ; ; ; ; ; ; ; ; ; - - ; - - - - - - - - - = = = = = = = = = = o } q.q.",
"q.q.T X = = = = = = = = = = - - - - - - - - - ; ; ; ; ; ; ; ; ; ; ; ; ; ; ; ; ; : : : : : > > > > > > > > , , , , , , , , , , < < < < < < < < < < < < < < < < 2 2 2 2 2 2 2 2 2 i n n n n n n n n n n n n n n n n n n b w 4 4 5 5 5 5 5 5 5 5 5 5 5 5 5 5 5 5 5 5 5 5 5 5 5 5 5 5 5 5 5 5 5 5 5 5 5 4 i n n n n n n n n n n n n n n n n n n b w 2 2 2 2 2 2 < < 2 2 < < < < < < < < < < < < < , , , , , , , , , , , > > > > > > > > : : : : : : : : ; ; ; ; ; ; ; ; ; ; ; ; ; ; ; - - - - - - - - - - = = = = = = = = = X T q.q.",
"q.q.C = = = = = = = = = = = - - - - - - - - - ; ; ; ; ; ; ; ; ; ; ; ; ; ; ; ; ; : : : : : > > > > > > > > , , , , , , , , , < < < < < < < < < < < < < < < < < < < 2 2 2 2 2 2 5 x n n n n n n n n n n n n n n n n n n g 5 5 5 5 5 5 5 5 5 5 5 5 5 5 5 5 5 5 5 5 5 5 5 5 5 5 5 5 5 5 5 5 5 5 5 5 5 5 4 8 x n n n n n n n n n n n n n n n n n n f 3 2 2 2 2 2 2 2 2 2 2 < < < < < < < < < < < < < < < , , , , , , , , , > > > > > > > > : : : : : : : ; ; ; ; ; ; ; ; ; ; ; ; ; ; ; - - - - - - - - - - = = = = = = = = = = C q.q.",
"q.q.# = = = = = = = = = = = - - - - - - - - - ; ; ; ; ; ; ; ; ; ; ; ; ; ; ; ; : : : : : > > > > > > > > > , , , , , , , , , < < < < < < < < < < < < < < < < < 2 2 2 2 2 2 2 2 u n n n n n n n n n n n n n n n n n n b e 4 5 5 5 5 5 5 5 5 5 5 5 5 5 5 5 5 5 5 5 5 5 5 5 5 5 5 5 5 5 5 5 5 5 5 5 5 5 5 4 p n n n n n n n n n n n n n n n n n n b q 2 2 2 2 2 2 2 2 2 < < < < < < < < < < < < < < < < , , , , , , , , , > > > > > > > > : : : : : : : ; ; ; ; ; ; ; ; ; ; ; ; ; ; ; - - - - - - - - - - = = = = = = = = = = # q.q.",
"q.%.. = = = = = = = = = = - - - - - - - - - - ; - ; ; ; ; ; ; ; ; ; ; ; ; : : : : : : : : > > > > > > > > , , , , , , , , , , < < < < < < < < < < < < < < 2 2 2 2 2 2 2 2 2 4 z n n n n n n n n n n n n n n n n n n k 5 5 5 5 5 5 5 5 5 5 5 5 5 5 5 5 5 5 5 5 5 5 5 5 5 5 5 5 5 5 5 5 5 5 5 5 5 5 5 5 4 8 c n n n n n n n n n n n n n n n n n n d 2 2 2 2 2 2 2 2 2 < < < < < < < < < < < < < < < < , , , , , , , , , , > > > > > > > > : : : : : : ; ; ; ; ; ; ; ; ; ; ; ; ; ; ; ; - - - - - - - - - = = = = = = = = = = . %.q.",
"q.} o = = = = = = = = = = - - - - - - - - - ; ; - ; ; ; ; ; ; ; ; ; ; ; ; : : : : : : : > > > > > > > > > , , , , , , , , , , < < < < < < < < < < < < < 2 2 2 2 2 2 2 2 2 2 e n n n n n n n n n n n n n n n n n n n t 4 5 5 5 5 5 5 5 5 5 5 5 5 5 5 5 5 5 5 5 5 5 5 5 5 5 5 5 5 5 5 5 5 5 5 5 5 5 5 5 5 4 a n n n n n n n n n n n n n n n n n n b 8 2 2 2 2 2 2 2 2 < < < < < < < < < < < < < < < < , , , , , , , , , , > > > > > > > > : : : : : : ; ; ; ; ; ; ; ; ; ; ; ; ; ; ; ; - - - - - - - - - = = = = = = = = = = o [ q.",
"q.R X = = = = = = = = = = - - - - - - - - - ; ; ; ; ; ; ; ; ; ; ; ; ; ; : : : : : : : : > > > > > > > > , , , , , , , , , , , < < < < < < < < < < < < 2 2 2 2 2 2 2 2 2 2 3 k n n n n n n n n n n n n n n n n n n z 5 5 5 5 5 5 5 5 5 5 5 5 5 5 5 5 5 5 5 5 5 5 5 5 5 5 5 5 5 5 5 5 5 5 5 5 5 5 5 5 5 5 5 8 v n n n n n n n n n n n n n n n n n n s 2 2 2 2 2 2 2 2 2 < 2 < < < < < < < < < < < < , , , , , , , , , , , > > > > > > > > : : : : : ; ; ; ; ; ; ; ; ; ; ; ; ; ; ; ; ; - - - - - - - - - = = = = = = = = = = X T q.",
"q.m = = = = = = = = = = = - - - - - - - - - ; ; ; ; ; ; ; ; ; ; ; ; ; ; : : : : : : : : > > > > > > > > , , , , , , , , , , , < < < < < < < < < < < < 2 2 2 2 2 2 2 2 2 2 w b n n n n n n n n n n n n n n n n n n u 4 5 5 5 5 5 5 5 5 5 5 5 5 5 5 5 5 5 5 5 5 5 5 5 5 5 5 5 5 5 5 5 5 5 5 5 5 5 5 5 5 5 5 5 s n n n n n n n n n n n n n n n n n n v 8 2 2 2 2 2 2 2 2 < 2 < < < < < < < < < < < < < , , , , , , , , , , > > > > > > > > > : : : : : ; ; ; ; ; ; ; ; ; ; ; ; ; ; ; ; - - - - - - - - - = = = = = = = = = = = m q.",
"q.* = = = = = = = = = = - - - - - - - - - - - ; ; ; ; ; ; ; ; ; ; ; ; ; ; ; ; : : : : > > > > > > > > , , , , , , , , , , < < < < < < < < < < < < < < 2 < < 2 2 2 2 2 2 3 f n n n n n n n n n n n n n n n n n n z 6 5 5 5 5 5 5 5 5 5 5 5 5 5 5 5 5 5 5 6 6 6 6 6 5 5 5 5 5 5 5 5 5 5 5 5 5 5 5 5 5 5 5 5 5 9 v n n n n n n n n n n n n n n n n n n a 2 2 2 2 2 2 2 2 2 2 < < < < < < < < < < < < < , , , , , , , , , , > > > > > > > > > : : : : : : : ; ; ; ; ; ; ; ; ; ; ; ; ; ; - - - - - - - - - = = = = = = = = = = = * q.",
"q.# = = = = = = = = = = - - - - - - - - - - ; ; ; ; ; ; ; ; ; ; ; ; ; : ; ; : : : : : > > > > > > > > , , , , , , , , , < < < < < < < < < < < < < < < 2 < 2 2 2 2 2 2 2 0 b n n n n n n n n n n n n n n n n n n i 4 5 5 5 5 5 5 5 5 5 5 5 5 5 5 5 5 5 5 5 6 6 6 5 5 5 5 5 5 5 5 5 5 5 5 5 5 5 5 5 5 5 5 5 5 4 s n n n n n n n n n n n n n n n n n n c 5 2 2 2 2 2 2 2 2 2 2 < < < < < < < < < < < < , , , , , , , , , , > > > > > > > > > : : : : : : : ; ; ; ; ; ; ; ; ; ; ; ; ; ; - - - - - - - - - - = = = = = = = = = = # q.",
":.. = = = = = = = = = = - - - - - - - - - - ; ; ; ; ; ; ; ; ; ; ; ; ; ; ; ; : : : : : > > > > > > > > , , , , , , , , , < < < < < < < < < < < < < < < < < 2 2 2 2 2 2 2 s n n n n n n n n n n n n n n n n n n v e 9 9 9 9 0 0 w w w w w w w w w w w w w w w w w w w w w w w w w w w w w w w w w w w 9 9 9 9 8 t b n n n n n n n n n n n n n n n n n n i 2 2 2 2 2 2 2 2 < < < < < < < < < < < < < < < , , , , , , , , , , > > > > > > > > : : : : : : : : ; ; ; ; ; ; ; ; ; ; ; ; ; - - - - - - - - - - = = = = = = = = = = . :.",
"O.  = = = = = = = = = - - - - - - - - - - - ; ; ; ; ; ; ; ; ; ; ; ; ; ; ; ; : : : : : > > > > > > > > , , , , , , , , , < < < < < < < < < < < < < < < < < 2 2 2 2 2 2 8 v n n n n n n n n n n n n n n n n n n n b b b b b b b b b b b b b b b b b b b b b b b b b b b b b b b b b b b b b b b b b b b b b b b b n n n n n n n n n n n n n n n n n n n x 5 2 2 2 2 2 2 2 2 < < < < < < < < < < < < < < , , , , , , , , , , > > > > > > > > : : : : : : : : ; ; ; ; ; ; ; ; ; ; ; ; ; - - - - - - - - - - = = = = = = = = = =   O.",
"^ o = = = = = = = = = = - - - - - - - - - - ; ; ; ; ; ; ; ; ; ; ; ; ; ; : : : : : : > > > > > > > > > , , , , , , , , , , < < < < < < < < < < < < 2 2 2 2 2 2 2 2 2 2 a n n n n n n n n n n n n n n n n n n n n n n n n n n n n n n n n n n n n n n n n n n n n n n n n n n n n n n n n n n n n n n n n n n n n n n n n n n n n n n n n n n n n n n n n u 2 2 2 2 2 2 < < < 2 < < < 1 < < < < < < < < < < , , , , , , , , > > > > > > > > > : : : : ; ; ; ; ; ; ; ; ; ; ; ; ; ; ; ; - - - - - - - - - - - = = = = = = = = = o ^ ",
"L X = = = = = = = = = = - - - - - - - - - - ; ; ; ; ; ; ; ; ; ; ; ; ; ; : : : : : : > > > > > > > > > , , , , , , , , , , < < < < < < < < < < < < 2 2 2 2 2 2 2 2 2 5 c n n n n n n n n n n n n n n n n n n n n n n n n n n n n n n n n n n n n n n n n n n n n n n n n n n n n n n n n n n n n n n n n n n n n n n n n n n n n n n n n n n n n n n n n z 4 2 2 2 2 2 < < < 2 < < < < < < < < < < < < < < , , , , , , , , > > > > > > > > > : : : : : ; ; ; ; ; ; ; ; ; ; ; ; ; ; ; - - - - - - - - - - - = = = = = = = = = X L ",
"m = = = = = = = = = = = - - - - - - - - - - - ; ; ; ; ; ; ; ; ; ; ; ; : : : : : : : > > > > > > > > , , , , , , , , , , , < < < < < < < < < < < < 2 2 2 < 2 2 2 2 2 i n n n n n n n n n n n n n n n n n n n n n n n n n n n n n n n n n n n n n n n n n n n n n n n n n n n n n n n n n n n n n n n n n n n n n n n n n n n n n n n n n n n n n n n n n n t 2 2 2 2 2 2 2 < < < < < < < < < < < < < < < < , , , , , , , , , > > > > > > > > : : : : ; ; : ; ; ; ; ; ; ; ; ; ; ; ; ; ; - - - - - - - - - - = = = = = = = = = X m ",
"C = = = = = = = = = = = - - - - - - - - - - - ; ; ; ; ; ; ; ; ; ; ; ; : : : : : : : > > > > > > > > , , , , , , , , , , < < < < < < < < < < < < 2 2 2 2 2 2 2 2 2 5 x n n n n n n n n n n n n n n n n n n n n n n n n n n n n n n n n n n n n n n n n n n n n n n n n n n n n n n n n n n n n n n n n n n n n n n n n n n n n n n n n n n n n n n n n n n l 4 2 2 2 2 2 2 < < < < < < < < < < < < < < < < , , , , , , , , , > > > > > > > > : : : : ; ; : ; ; ; ; ; ; ; ; ; ; ; ; ; ; - - - - - - - - - - = = = = = = = = = = C ",
"* = = = = = = = = = - - - - - - - - - - ; ; ; ; ; ; ; ; ; ; ; ; ; ; ; : ; : : : : : > > > > > > > > , , , , , , , , < < < < < < < < < < < < < < < < < < 2 2 2 2 2 u n n n n n n n n n n n n n n n n n n n n n n n n n n n n n n n n n n n n n n n n n n n n n n n n n n n n n n n n n n n n n n n n n n n n n n n n n n n n n n n n n n n n n n n n n n n b e 2 2 2 2 2 2 2 2 < < < < < < < < < < < < < , , , , , , , , , , > > > > > > > > : : > : : : : ; ; ; ; ; ; ; ; ; ; ; ; ; - - - - - - - - - - - = = = = = = = = = = * ",
"# = = = = = = = = - = - - - - - - - - - ; ; ; ; ; ; ; ; ; ; ; ; ; ; ; : ; : : : : : > > > > > > > > , , , , , , , , < < < < < < < < < < < < < < < < < 2 2 2 2 2 4 z n n n n n n n n n n n n n n n n n n n n n n n n n n n n n n n n n n n n n n n n n n n n n n n n n n n n n n n n n n n n n n n n n n n n n n n n n n n n n n n n n n n n n n n n n n n n j 3 2 2 2 2 2 2 2 < < < < < < < < < < < < < < , , , , , , , , , > > > > > > > > : : > : : : : : ; ; ; ; ; ; ; ; ; ; ; ; - - - - - - - - - - - = = = = = = = = = = # ",
"$ = = = = = = = = = = - - - - - - - - - ; ; ; ; ; ; ; ; ; ; ; ; ; ; ; ; ; : : : : : > > > > > > > > , , , , , , , , < < < < < < < < < < < < < < < < < 2 2 2 2 2 e n n n n n n n n n n n n n n n n n n n n n n n n n n n n n n n n n n n n n n n n n n n n n n n n n n n n n n n n n n n n n n n n n n n n n n n n n n n n n n n n n n n n n n n n n n n n n b w 2 2 2 2 2 2 < < < < < < < < < < < < < < < , , , , , , , , , > > > > > > > > : : : : : : ; ; ; ; ; ; ; ; ; ; ; ; ; ; ; - - - - - - - - - - = = = = = = = = = = # ",
". = = = = = = = = = = - - - - - - - - ; ; ; ; ; ; ; ; ; ; ; ; ; ; ; ; ; ; : : : : : > > > > > > > , , , , , , , , , , < < < < < < < < < < < < < < 2 < 2 2 2 2 3 k n n n n n n n n n n n n n n n n n n n n n n n n n n n n n n n n n n n n n n n n n n n n n n n n n n n n n n n n n n n n n n n n n n n n n n n n n n n n n n n n n n n n n n n n n n n n n n f 2 2 2 2 2 2 2 < < < < < < < < < < < < < < , , , , , , , , , > > > > > > > > : : : : : : ; ; ; ; ; ; ; ; ; ; ; ; ; ; ; - - - - - - - - - - = = = = = = = = = = . ",
"O = = = = = = = = = = - - - - - - - - - - ; ; ; ; ; ; ; ; ; ; ; ; ; ; ; : : : : : > > > > > > > > > , , , , , , , , , < < < < < < < < < < < < < 2 2 < 2 2 2 2 w b n n n n n n n n n n n n n n n n n n n n n n n n n n n n n n n n n n n n n n n n n n n n n n n n n n n n n n n n n n n n n n n n n n n n n n n n n n n n n n n n n n n n n n n n n n n n n n b 0 2 2 2 2 < < < < < < < < < < < < < < < , , , , , , , , , , > > > > > > > > : : : : : : ; ; ; ; ; ; ; ; ; ; ; ; ; ; ; ; ; - - - - - - - - = = = = = = = = = =   ",
"o = = = = = = = = = = - - - - - - - - - - ; ; ; ; ; ; ; ; ; ; ; ; ; ; ; : : : > : > > > > > > > > > , , , , , , , , , < < < < < < < < < < < < < 2 2 2 2 2 2 2 f n n n n n n n n n n n n n n n n n n n n n n n n n n n n n n n n n n n n n n n n n n n n n n n n n n n n n n n n n n n n n n n n n n n n n n n n n n n n n n n n n n n n n n n n n n n n n n n n s 2 2 2 2 2 < < < < < < < < < < < < < < , , , , , , , , , , > > > > > > > > : : : : : : ; ; ; ; ; ; ; ; ; ; ; ; ; ; ; ; ; - - - - - - - - = = = = = = = = = = o ",
"o = = = = = = = = = - - - - - - - - - - - - ; ; ; ; ; ; ; ; ; ; ; ; : : : : : > : > > > > > > > > > , , , , , , , , < < < < < < < < < < < < < < 2 2 2 2 2 2 0 b n n n n n n n n n n n n n n n n n n n n n n n n n n n n n n n n n n n n n n n n n n n n n n n n n n n n n n n n n n n n n n n n n n n n n n n n n n n n n n n n n n n n n n n n n n n n n n n n b 8 2 2 2 2 < < < < < < < < < < < < < < < , , , , , , , , , , > > > > > > > : : : : : ; : ; ; ; ; ; ; ; ; ; ; ; ; ; ; ; ; - - - - - - - - = = = = = = = = = = o ",
"X = = = = = = = = = - - - - - - - - - - - - ; ; ; ; ; ; ; ; ; ; ; ; : : : : : > : > > > > > > > > > , , , , , , , , < < < < < < < < < < < < < 2 2 2 2 2 2 2 s n n n n n n n n n n n n n n n n n n n n n n n n n n n n n n n n n n n n n n n n n n n n n n n n n n n n n n n n n n n n n n n n n n n n n n n n n n n n n n n n n n n n n n n n n n n n n n n n n n a 2 2 2 2 < < 2 < < < < < < < < < < < < , , , , , , , , , , > > > > > > > : : : : : ; : ; ; ; ; ; ; ; ; ; ; ; ; ; ; ; ; - - - - - - - - = = = = = = = = = = X ",
"X = = = = = = = = = = - - - - - - - - ; - ; ; ; ; ; ; ; ; ; ; ; ; ; ; : ; : : : : > > > > > > > > , , , , , , , , , , < < < < < < < < < < < < 2 < 2 2 2 2 8 v n n n n n n n n n n n n n n n n n n n n n n n n n n n n n n n n n n n n n n n n n n n n n n n n n n n n n n n n n n n n n n n n n n n n n n n n n n n n n n n n n n n n n n n n n n n n n n n n n n c 5 2 2 2 2 2 2 < < < < < < < < < < < < < , , , , , , , , , > > > > > > > > : > : : : : : ; ; ; ; ; ; ; ; ; ; ; - - - - - - - - - - - - - = = = = = = = = = X ",
"= = = = = = = = = = = - - - - - - - - ; - ; ; ; ; ; ; ; ; ; ; ; ; ; ; : ; : : : : > > > > > > > > , , , , , , , , , , < < < < < < < < < < < < 2 < 2 2 2 2 a n n n n n n n n n n n n n n n n n n n n n n n n n n n n n n n n n n n n n n n n n n n n n n n n n n n n n n n n n n n n n n n n n n n n n n n n n n n n n n n n n n n n n n n n n n n n n n n n n n n n i 2 2 2 2 2 2 < < < < < < < < < < < < < , , , , , , , , , > > > > > > > > : > > : : : : ; ; ; ; ; ; ; ; ; ; ; ; - - - - - - - - - - - - = = = = = = = = = = ",
"= = = = = = = = = = = - - - - - - - - ; ; ; ; ; ; ; ; ; ; ; ; ; ; ; ; ; : : : : : : > > > > > > > , , , , , , , , , , < < < < < < < < < < < < < < 2 2 2 5 c n n n n n n n n n n n n n n n n n n n n n n n n n n n n n n n n n n n n n n n n n n n n n n n n n n n n n n n n n n n n n n n n n n n n n n n n n n n n n n n n n n n n n n n n n n n n n n n n n n n n x 5 2 2 2 2 < < < < < < < < < < < < < , , , , , , , , , , > > > > > > > > : > : : : ; ; ; ; ; ; ; ; ; ; ; ; ; ; - - - - - - - - - - - = = = = = = = = = = = ",
"= = = = = = = = = = = - - - - - - - - ; ; ; ; ; ; ; ; ; ; ; ; ; ; ; ; ; : : : : : > > > > > > > > , , , , , , , , , , < < < < < < < < < < < < < < < 2 < i n n n n n n n n n n n n n n n n n n n n n n n n n n n n n n n n n n n n n n n n n n n n n n n n n n n n n n n n n n n n n n n n n n n n n n n n n n n n n n n n n n n n n n n n n n n n n n n n n n n n n n u < 2 2 2 < < < < < < < < < < < < < , , , , , , , , , , > > > > > > > > : : : : : ; ; ; ; ; ; ; ; ; ; ; ; ; ; ; - - - - - - - - - - = = = = = = = = = = = ",
"= = = = = = = = = = - - - - - - - - - - ; ; ; ; ; ; ; ; ; ; ; ; ; ; : : : : : > : : > > > > > > > , , , , , , , , , < < < < < < < < < < < < < 2 2 2 2 5 x n n n n n n n n n n n n n n n n n n n n n n n n n n n n n n n n n n n n n n n n n n n n n n n n n n n n n n n n n n n n n n n n n n n n n n n n n n n n n n n n n n n n n n n n n n n n n n n n n n n n n n z 5 2 2 2 < < < < < < < < < < < < < , , , , , , , , , , > > > > > > > > : : : : ; ; ; ; ; ; ; ; ; ; ; ; ; ; ; ; - - - - - - - - - - = = = = = = = = = = = ",
"= = = = = = = = = = - - - - - - - - - ; ; ; ; ; ; ; ; ; ; ; ; ; ; ; : : : : : > : > > > > > > > > , , , , , , , , , < < < < < < < < < < < < < 2 2 2 2 w z z z z z z z z z z z z z z z z z z z z z z z z z z z z z z z z x x x x z z z x x x x x x x x x x x x x x x x x x x x x x x x x z z z z z z x x z z z z z z z z z z z z z z z z z z z z z z z z z z z z z z z z q 2 2 2 < < < < < < < < < < < < < , , , , , , , , , , > > > > > > > > : : : : : ; ; ; ; ; ; ; ; ; ; ; ; ; ; ; - - - - - - - - - - = = = = = = = = = = = ",
"= = = = = = = = = = = - - - - - - - - - ; ; ; ; ; ; ; ; ; ; ; ; ; ; ; : ; : : : : : > > > > > > > , , , , , , , , , < < < < < < < < < < < < < 2 < 2 2 2 3 3 4 4 4 4 4 4 4 4 4 5 5 5 5 5 5 5 5 5 5 5 5 5 5 5 6 6 6 6 6 6 6 6 6 6 6 6 6 8 8 9 9 9 9 9 9 9 9 9 9 9 9 9 9 9 9 9 9 9 9 9 9 9 8 8 6 6 6 6 6 6 6 6 6 6 6 6 5 5 5 5 5 5 5 5 5 5 5 5 5 5 4 4 4 4 4 4 4 4 4 4 4 3 3 2 2 < < < < < < < < < < < < < < , , , , , , , , , , > > > > > > > > : : : : : ; ; ; ; ; ; ; ; ; ; ; ; ; ; ; - - - - - - - - - - = = = = = = = = = = = ",
"X = = = = = = = = = = - - - - - - - - - ; ; ; ; ; ; ; ; ; ; ; ; ; ; ; : : : : : : > > > > > > > > , , , , , , , , , < < < < < < < < < < < < < < < 2 2 2 2 2 2 2 2 2 2 2 3 3 3 3 3 3 3 4 4 4 4 4 5 5 5 5 5 5 5 5 5 5 5 5 5 5 5 6 6 6 6 6 6 6 6 6 6 6 6 6 6 6 6 6 6 6 6 6 6 6 6 6 6 6 6 6 6 6 6 6 6 5 5 5 5 5 5 5 5 5 5 5 5 5 5 4 4 4 4 4 4 4 3 3 3 3 3 3 3 2 2 2 2 2 2 2 2 2 2 < < < < < < < < < < < < < < , , , , , , , , , , > > > > > > > > : : : : : ; ; ; ; ; ; ; ; ; ; ; ; ; ; ; - ; - - - - - - - - = = = = = = = = = = X ",
"X = = = = = = = = = = - - - - - - - - ; - - ; ; ; ; ; ; ; ; ; ; ; ; ; ; : : : : : > > > > > > > > > , , , , , , , , , < < < < < < < < < < < < 2 < < 2 2 2 2 2 2 2 2 2 3 3 3 3 3 3 3 3 4 4 4 4 5 5 5 5 5 5 5 5 5 5 5 5 5 5 5 6 6 6 6 6 6 6 6 6 6 6 6 6 6 6 6 6 6 6 6 6 6 6 6 6 6 6 6 6 6 6 6 6 6 6 6 6 5 5 5 5 5 5 5 5 5 5 5 5 4 4 4 4 4 4 4 3 3 3 3 3 3 3 2 2 2 2 2 2 2 2 2 < < < < < < < < < < < < < < < < , , , , , , , , , > > > > > > > > : : : : : : ; ; ; ; ; ; ; ; ; ; ; ; ; ; ; - - - - - - - - - - - = = = = = = = = X ",
"o = = = = = = = = = = - - - - - - - - - - - ; ; ; ; ; ; ; ; ; ; ; ; ; ; ; : : : : > > > > > > > > > , , , , , , , , , < < < < < < < < < < < < 2 < < 2 2 2 2 2 2 2 2 2 2 3 3 3 3 3 3 3 4 4 4 4 4 5 5 5 5 5 5 5 5 5 5 5 5 5 5 6 6 6 6 6 6 6 6 6 6 6 6 6 6 6 6 6 6 6 6 6 6 6 6 6 6 6 6 6 6 6 6 6 6 6 6 5 5 5 5 5 5 5 5 5 5 5 5 5 5 4 4 4 4 4 4 3 3 3 3 3 3 3 2 2 2 2 2 2 2 2 2 < < < < < < < < < < < < < < < < , , , , , , , , , > > > > > > > : : : : : ; : ; ; ; ; ; ; ; ; ; ; ; ; ; ; ; - - - - - - - - - - = = = = = = = = = o ",
"o = = = = = = = = = = - - - - - - - - - - ; ; ; ; ; ; ; ; ; ; ; ; ; ; ; : : : : : > > > > > > > > > , , , , , , , , , , < < < < < < < 1 < < < 2 < < 2 2 2 2 2 2 2 2 2 2 3 3 3 3 3 3 3 4 4 4 4 4 5 5 5 5 5 5 5 5 5 5 5 5 5 5 6 6 6 6 6 6 6 6 6 6 6 6 6 6 6 6 6 6 6 6 6 6 6 6 6 6 6 6 6 6 6 6 6 6 6 6 6 5 5 5 5 5 5 5 5 5 5 5 5 4 4 4 4 4 4 3 3 3 3 3 3 3 3 3 2 2 2 2 2 2 2 < < < < < < < < < < < < < < < < < , , , , , , , , , > > > > > > > : : : : : : : : ; ; ; ; ; ; ; ; ; ; ; ; ; ; - - - - - - - - - - = = = = = = = = = o ",
"  = = = = = = = = = = - - - - - - - - - - ; ; ; ; ; ; ; ; ; ; ; ; ; ; ; ; : : : : > > > > > > > > > , , , , , , , , , , < < < < < < < < < < < < < < 2 2 2 2 2 2 2 2 2 2 3 3 3 3 3 3 3 4 4 4 4 4 5 5 5 5 5 5 5 5 5 5 5 5 5 5 6 6 6 6 6 6 6 6 6 6 6 6 6 6 6 6 6 6 6 6 6 6 6 6 6 6 6 6 6 6 6 6 6 6 6 6 6 5 5 5 5 5 5 5 5 5 5 5 5 4 4 4 4 4 4 3 3 3 3 3 3 3 3 2 2 2 2 2 2 2 2 < < < < < < < 1 < < < < < < < < < , , , , , , , , > > > > > > > > : : : : : : : : ; ; ; ; ; ; ; ; ; ; ; ; ; ; - - - - - - - - - - = = = = = = = = = O ",
". = = = = = = = = = - - - - - - - - - ; ; ; - ; ; ; ; ; ; ; ; ; ; ; : : ; : : : : > > > > > > > > > , , , , , , , , < < < < < < < < < < < < < < < < < 2 2 2 2 2 2 2 2 3 3 3 3 3 3 3 3 3 4 4 4 4 4 4 5 5 5 5 5 5 5 5 5 5 5 5 6 6 6 6 6 6 6 6 6 6 6 6 6 6 6 6 6 6 6 6 6 6 6 6 6 6 6 6 6 6 6 6 6 5 6 6 5 5 5 5 5 5 5 5 5 5 5 5 5 5 4 4 4 4 4 3 3 3 3 3 3 3 3 2 2 2 2 2 2 2 2 2 2 < 2 < < < < < < < < < < < , , , , , , , , , , > > > > > > > > > : : : : ; : : ; ; ; ; ; ; ; ; ; ; ; - ; - - - - - - - - - - = = = = = = = = = = . ",
"# = = = = = = = = = = - - - - - - - - ; ; ; ; ; ; ; ; ; ; ; ; ; ; ; : : ; : : : : > > > > > > > > > , , , , , , , , < < < < < < < < < < < < < < < < < 2 2 2 2 2 2 2 2 3 3 3 3 3 3 3 3 3 4 4 4 4 4 4 5 5 5 5 5 5 5 5 5 5 5 5 6 6 6 6 6 6 6 6 6 6 6 6 6 6 6 6 6 6 6 6 6 6 6 6 6 6 6 6 6 6 6 6 5 5 6 6 5 5 5 5 5 5 5 5 5 5 5 5 5 4 4 4 4 4 3 3 3 3 3 3 3 3 3 2 2 2 2 2 2 2 2 2 2 < < < < < < < < < < < < < , , , , , , , , , , > > > > > > > > > : : : : ; : : ; ; ; ; ; ; ; ; ; ; ; - ; - - - - - - - - - - = = = = = = = = = = # ",
"# = = = = = = = = = - - - - - - - - - - ; ; ; ; ; ; ; ; ; ; ; ; ; ; : : ; : : : : : > > > > > > > > , , , , , , , , < < < < < < < < < < < < < < < < < 2 2 2 2 2 2 2 2 3 3 3 3 3 3 3 3 3 4 4 4 4 4 4 5 5 5 5 5 5 5 5 5 5 5 5 5 6 6 6 6 6 6 6 6 6 6 6 6 6 6 6 6 6 6 6 6 6 6 6 6 6 6 6 6 6 6 6 5 5 6 6 5 5 5 5 5 5 5 5 5 5 5 5 5 4 4 4 4 4 3 3 3 3 3 3 3 3 3 2 2 2 2 2 2 2 2 2 2 < < < < < < < < < < < < < , , , , , , , , , , > > > > > > > > : : : : : ; : : ; ; ; ; ; ; ; ; ; ; ; ; ; - - - - - - - - - - = = = = = = = = = = # ",
"* = = = = = = = = - = - - - - - - - - - - ; ; ; ; ; ; ; ; ; ; ; ; ; ; : ; : : : : : > > > > > > > > , , , , , , , , < < < < < < < < < < < < < < < < < 2 2 2 2 2 2 2 2 2 3 3 3 3 3 3 3 3 4 4 4 4 4 4 5 5 5 5 5 5 5 5 5 5 5 5 5 6 5 6 6 6 6 6 6 6 6 6 6 6 6 6 6 6 6 6 6 6 6 6 6 6 6 6 6 6 6 5 5 5 6 5 5 5 5 5 5 5 5 5 5 5 5 5 4 4 4 4 4 4 3 3 3 3 3 3 3 3 2 2 2 2 2 2 2 2 2 2 < < < < < < < < < < < < < < , , , , , , , , , , > > > > > > > > : : : : : ; : : ; ; ; ; ; ; ; ; ; ; ; ; ; - - - - - - - - - - = = = = = = = = = = * ",
"C = = = = = = = = = = = - - - - - - - - - - ; ; ; ; ; ; ; ; ; ; ; ; ; : : : : : : : > > > > > > > > , , , , , , , , , , < < < < < < < < < < < < < < 2 2 2 2 2 2 2 2 2 2 2 3 3 3 3 3 3 3 4 4 4 4 4 4 5 5 5 5 5 5 5 5 5 5 5 5 5 5 5 5 5 6 6 6 6 6 6 6 6 6 6 6 6 6 6 6 6 6 6 6 6 6 6 6 6 6 6 6 6 6 5 5 5 5 5 5 5 5 5 5 5 5 5 4 4 4 4 4 4 3 3 3 3 3 3 3 3 2 2 2 2 2 2 2 2 2 2 2 < < < < < < < < < < < < < < , , , , , , , , , , > > > > > > > > : : : : : ; ; ; ; ; ; ; ; ; ; ; ; ; ; ; ; ; - - - - - - - - - = = = = = = = = = = C ",
"m = = = = = = = = = = = - - - - - - - - - - ; ; ; ; ; ; ; ; ; ; ; ; ; : : : : : : : > > > > > > > > , , , , , , , , , , , < < < < < < < < < < < 2 2 2 2 2 2 2 2 2 3 3 3 3 3 3 3 3 3 4 4 4 4 4 4 4 5 5 5 5 5 5 5 5 5 5 5 5 5 5 5 5 5 5 6 6 6 6 6 6 6 6 6 6 6 6 6 6 6 6 6 6 6 6 6 6 6 6 6 5 5 5 5 5 5 5 5 5 5 5 5 5 5 5 5 4 4 4 4 3 3 3 3 3 3 3 3 3 2 2 2 2 2 2 2 2 2 < < < < < < < < < < < < < < < < < < , , , , , , , , , , > > > > > > > > : : : : : ; ; ; ; ; ; ; ; ; ; ; ; ; ; ; ; - - - - - - - - - - = = = = = = = = = X m ",
"L X = = = = = = = = = = - - - - - - - - - - ; ; ; ; ; ; ; ; ; ; ; ; ; : : : : : : : > > > > > > > > , , , , , , , , , , , < < < < < < < < 4 i j j k k k j k k k k k k k k k k k j j j j h h h h h h h k k k k k k k h h h h h h h h h h h h h h h h k h h h h h h h h h j j j j j j j j h f h f f f f f f f f f f f f f f f f f f f f f f d d d d d d d d d d d s s s s s s s s s s 8 < < < < < < < < < , , , , , , , , , , > > > > > > > > : : : : : ; ; ; ; ; ; ; ; ; ; ; ; ; ; ; ; - - - - - - - - - = = = = = = = = = = X L ",
"^ o = = = = = = = = = = - - - - - - - - - - ; ; ; ; ; ; ; ; ; ; ; ; ; : : : : : : : > > > > > > > > , , , , , , , , , , , < < < < < < < e x n n n n n n n n n n n n n n n n n n n n n n n n n n n n n n n n n n n n n n n n n n n n n n n n n n n n n n n n n n n n n n n n n n n n n n n n n n n n n n n n n n n n n n n n n n n n n n n n n n n n n n n n n n n n n n n n n n n n f < < < < < < < < < < , , , , , , , , > > > > > > > > : : : : : : ; ; ; ; ; ; ; ; ; ; ; ; ; ; ; ; ; - - - - - - - - - = = = = = = = = = o ^ ",
"O.  = = = = = = = = - - - - - - - - - - - ; ; ; ; ; ; ; ; ; ; ; ; ; ; ; ; : : : : : : > > > > > > > > , , , , , , , , , < < < < < < < 4 x n n n n n n n n n n n n n n n n n n n n n n n n n n n n n n n n n n n n n n n n n n n n n n n n n n n n n n n n n n n n n n n n n n n n n n n n n n n n n n n n n n n n n n n n n n n n n n n n n n n n n n n n n n n n n n n n n n n n n b 8 < < < < < < < , , , , , , , , , , > > > > > > > > : : : : : : : : ; ; ; ; ; ; ; ; ; ; ; ; ; ; - - - - - - - - - = = = = = = = = = =   O.",
"-.. = = = = = = = = - - - - - - - - - - - - ; ; ; ; ; ; ; ; ; ; ; ; ; ; ; : : : : : : > > > > > > > > , , , , , , , , , , < < < < < < u n n n n n n n n n n n n n n n n n n n n n n n n n n n n n n n n n n n n n n n n n n n n n n n n n n n n n n n n n n n n n n n n n n n n n n n n n n n n n n n n n n n n n n n n n n n n n n n n n n n n n n n n n n n n n n n n n n n n n n n d < < < < < < < , , , , , , , , , , > > > > > > > > : : : : : : : : ; ; ; ; ; ; ; ; ; ; ; ; ; ; - - - - - - - - - = = = = = = = = = = . :.",
"q.# = = = = = = = = = = - - - - - - - - - - ; ; ; ; ; ; ; ; ; ; ; ; ; ; ; ; : : : : : > > > > > > > > , , , , , , , , , , < < < < < 3 z n n n n n n n n n n n n n n n n n n n n n n n n n n n n n n n n n n n n n n n n n n n n n n n n n n n n n n n n n n n n n n n n n n n n n n n n n n n n n n n n n n n n n n n n n n n n n n n n n n n n n n n n n n n n n n n n n n n n n n n b 7 < < < < < < , , , , , , , , , , > > > > > > > > : : : : : : : ; ; ; ; ; ; ; ; ; ; ; ; ; ; - - - - - - - - - - = = = = = = = = = = # q.",
"q.* = = = = = = = = = = - - - - - - - - - - ; ; ; ; ; ; ; ; ; ; ; ; ; ; ; ; : : : : : > > > > > > > > > , , , , , , , , , < < < < , e n n n n n n n n n n n n n n n n n n n n n n n n n n n n n n n n n n n n n n n n n n n n n n n n n n n n n n n n n n n n n n n n n n n n n n n n n n n n n n n n n n n n n n n n n n n n n n n n n n n n n n n n n n n n n n n n n n n n n n n n n s < < < < < , , , , , , , , , , , > > > > > > > > : : : : : : : ; ; ; ; ; ; ; ; ; ; ; ; ; ; - - - - - - - - - - = = = = = = = = = = * q.",
"q.m = = = = = = = = = = = - - - - - - - - - - ; ; ; ; ; ; ; ; ; ; ; ; ; ; ; : : : : : > > > > > > > > > , , , , , , , , , , < < < 1 l n n n n n n n n n n n n n n n n n n n n n n n n n n n n n n n n n n n n n n n n n n n n n n n n n n n n n n n n n n n n n n n n n n n n n n n n n n n n n n n n n n n n n n n n n n n n n n n n n n n n n n n n n n n n n n n n n n n n n n n n n v 5 < < < < < , , , , , , , , , > > > > > > > > > : : : : ; ; ; ; ; ; ; ; ; ; ; ; ; ; ; ; ; - - - - - - - - - - = = = = = = = = = = m q.",
"q.T X = = = = = = = = = = - - - - - - - - - - ; ; ; ; ; ; ; ; ; ; ; ; ; ; ; : : : : : : > > > > > > > > , , , , , , , , , , , < , w b n n n n n n n n n n n n n n n n n n n n n n n n n n n n n n n n n n n n n n n n n n n n n n n n n n n n n n n n n n n n n n n n n n n n n n n n n n n n n n n n n n n n n n n n n n n n n n n n n n n n n n n n n n n n n n n n n n n n n n n n n n a < < < < , , , , , , , , , , > > > > > > > > > > : : : ; ; ; ; ; ; ; ; ; ; ; ; ; ; ; ; ; - - - - - - - - - - = = = = = = = = = X R q.",
"q.[ o = = = = = = = = = = - - - - - - - - ; - ; ; ; ; ; ; ; ; ; ; ; ; ; ; ; ; : : : : : : > > > > > > > , , , , , , , , , , , < 1 f n n n n n n n n n n n n n n n n n n n n n n n n n n n n n n n n n n n n n n n n n n n n n n n n n n n n n n n n n n n n n n n n n n n n n n n n n n n n n n n n n n n n n n n n n n n n n n n n n n n n n n n n n n n n n n n n n n n n n n n n n n n v 4 , < < , , , , , , , , , > > > > > > > > > > > > : : ; ; ; ; ; ; ; ; ; ; ; ; ; ; ; ; ; - - - - - - - - - - - = = = = = = = = o [ q.",
"q.1.. = = = = = = = = = = - - - - - - - - ; ; ; ; ; ; ; ; ; ; ; ; ; ; ; ; ; ; : : : : : : > > > > > > > > , , , , , , , , , , , 8 b n n n n n n n n n n n n n n n n n n n n n n n n n n n n n n n n n n n n n n n n n n n n n n n n n n n n n n n n n n n n n n n n n n n n n n n n n n n n n n n n n n n n n n n n n n n n n n n n n n n n n n n n n n n n n n n n n n n n n n n n n n n n p , < < , , , , , , , , , > > > > > > > > > > > > : : ; ; ; ; ; ; ; ; ; ; ; ; ; ; ; ; - - - - - - - - - - - - = = = = = = = = . %.q.",
"q.q.# = = = = = = = = = = - - - - - - - - - ; ; ; ; ; ; ; ; ; ; ; ; ; ; ; : : : : : : : > > > > > > > > > , , , , , , , , , , < d n n n n n n n n n n n n n n n n n n n n n n n n n n n n n n n n n n n n n n n n n n n n n n n n n n n n n n n n n n n n n n n n n n n n n n n n n n n n n n n n n n n n n n n n n n n n n n n n n n n n n n n n n n n n n n n n n n n n n n n n n n n n n x 4 , , , , , , , , , , , > > > > > > > > : : : : : : : : ; ; ; ; ; ; ; ; ; ; ; ; ; - - - - - - - - - - = = = = = = = = = = = # q.q.",
"q.q.C = = = = = = = = = = = - - - - - - - - - ; ; ; ; ; ; ; ; ; ; ; ; ; ; ; : : : : : : : > > > > > > > > , , , , , , , , , , 7 b n n n n n n n n n n n n n n n n n n n n n n n n n n n n n n n n n n n n n n n n n n n n n n n n n n n n n n n n n n n n n n n n n n n n n n n n n n n n n n n n n n n n n n n n n n n n n n n n n n n n n n n n n n n n n n n n n n n n n n n n n n n n n n i , < , , , , , , , , , > > > > > > > > : : : : : : : ; ; ; ; ; ; ; ; ; ; ; ; ; ; - - - - - - - - - - = = = = = = = = = = = C q.q.",
"q.q.I X = = = = = = = = = = - - - - - - - - - ; - ; ; ; ; ; ; ; ; ; ; ; ; ; : : : : : : : > > > > > > > > > , , , , , , , , , a n n n n n n n n n n n n n n n n n n n n n n n n n n n n n n n n n n n n n n n n n n n n n n n n n n n n n n n n n n n n n n n n n n n n n n n n n n n n n n n n n n n n n n n n n n n n n n n n n n n n n n n n n n n n n n n n n n n n n n n n n n n n n n n x 3 , , , , , , , , , > > > > > > > > : : : : : : : : ; ; ; ; ; ; ; ; ; ; ; ; ; ; ; - - - - - - - - - = = = = = = = = = = X I q.q.",
"q.q.' o = = = = = = = = = = - - - - - - - - - ; - ; ; ; ; ; ; ; ; ; ; ; ; ; : : : : : : : > > > > > > > > > , , , , , , , , 4 v n n n n n n n n n n n n n n n n n n n n n n n n n n n n n n n n n n n n n n n n n n n n n n n n n n n n n n n n n n n n n n n n n n n n n n n n n n n n n n n n n n n n n n n n n n n n n n n n n n n n n n n n n n n n n n n n n n n n n n n n n n n n n n n n u , , , , , , , , , > > > > > > > > : : : : : ; : : ; ; ; ; ; ; ; ; ; ; ; ; ; - ; - - - - - - - - - = = = = = = = = = = o ' q.q.",
"q.q.:.. = = = = = = = = = = - - - - - - - - - - - ; ; ; ; ; ; ; ; ; ; ; ; ; ; ; ; : : : : : > > > > > > > > > , , , , , , , i n n n n n n n n n n n n n n n n n n n n n n n n n n n n n n n n n n n n n n n n n n n n n n n n n n n n n n n n n n n n n n n n n n n n n n n n n n n n n n n n n n n n n n n n n n n n n n n n n n n n n n n n n n n n n n n n n n n n n n n n n n n n n n n n n z 2 , , , , , , , > > > > > > > > > > > : : : ; : ; ; ; ; ; ; ; ; ; ; ; ; ; ; - ; - - - - - - - - - = = = = = = = = = = . -.q.q.",
"q.q.q.* = = = = = = = = = = - - - - - - - - - - - ; ; ; ; ; ; ; ; ; ; ; ; ; ; ; ; : : : : : > > > > > > > > > , , , , , , 3 x n n n n n n n n n n n n n n n n n n n n n n n n n n n n n n n n n n n n n n n n n n n n n n n n n n n n n n n n n n n n n n n n n n n n n n n n n n n n n n n n n n n n n n n n n n n n n n n n n n n n n n n n n n n n n n n n n n n n n n n n n n n n n n n n n n e , , , , , , , > > > > > > > > > : : : : : ; : ; ; ; ; ; ; ; ; ; ; ; ; ; ; - - - - - - - - - - - = = = = = = = = = = * q.q.q.",
"q.q.q.m = = = = = = = = = = - - - - - - - - - - - ; ; ; ; ; ; ; ; ; ; ; ; ; ; ; ; ; : : : : > > > > > > > > > > , , , , > u n n n n n n n n n n n n n n n n n n n n n n n n n n n n n n n n n n n n n n n n n n n n n n n n n n n n n n n n n n n n n n n n n n n n n n n n n n n n n n n n n n n n n n n n n n n n n n n n n n n n n n n n n n n n n n n n n n n n n n n n n n n n n n n n n n n z 1 , , , , , , > > > > > > > > > : : : : : ; ; ; ; ; ; ; ; ; ; ; ; ; ; ; ; - - - - - - - - - - - = = = = = = = = = = m q.q.q.",
"q.q.q.^ o = = = = = = = = = = - - - - - - - - - - ; ; ; ; ; ; ; ; ; ; ; ; ; ; ; ; ; ; : : : : > > > > > > > > > , , , , 1 z n n n n n n n n n n n n n n n n n n n n n n n n n n n n n n n n n n n n n n n n n n n n n n n n n n n n n n n n n n n n n n n n n n n n n n n n n n n n n n n n n n n n n n n n n n n n n n n n n n n n n n n n n n n n n n n n n n n n n n n n n n n n n n n n n n n n e > , , , , > > > > > > > > > : : : : : ; ; ; ; ; ; ; ; ; ; ; ; ; ; ; ; - - - - - - - - - - - = = = = = = = = = = o ^ q.q.q.",
"q.q.q.%.. = = = = = = = = = = - - - - - - - - - - - ; ; ; ; ; ; ; ; ; ; ; ; ; ; ; ; : : : : : > > > > > > > > > , , , > e n n n n n n n n n n n n n n n n n n n n a t t t y t y t t t y y y u u y u u u u u u u u u u u u u u u u u u u a b n n n n n n n n n n n n n n n n n n n n v p u u u u u u u u u u u u u u u u u u u u u u y y y t t t t t t t t t s n n n n n n n n n n n n n n n n n n n l 1 , , , > > > > > > > > > : : : : : : ; ; ; ; ; ; ; ; ; ; ; ; ; ; ; ; ; - - - - - - - - - - = = = = = = = = = = . %.q.q.q.",
"q.q.q.q.* = = = = = = = = = = - - - - - - - - - - - - ; ; ; ; ; ; ; ; ; ; ; ; ; ; : ; : : : : > > > > > > > > > > , , < k n n n n n n n n n n n n n n n n n n n k 2 < < < < < 2 < < < 2 2 2 2 2 2 2 2 2 2 2 2 3 3 3 3 3 3 3 3 3 3 3 3 3 3 i n n n n n n n n n n n n n n n n n n n n u 3 3 3 3 3 3 3 3 3 3 3 3 2 2 2 2 2 2 2 2 2 2 2 2 2 2 2 < < < < < < < < 4 z n n n n n n n n n n n n n n n n n n n q > , > > > > > > > > > > : : : : : ; ; ; ; ; ; ; ; ; ; ; ; ; ; ; ; ; ; - - - - - - - - - = = = = = = = = = = = * q.q.q.q.",
"q.q.q.q.F = = = = = = = = = = = - - - - - - - - - - ; ; ; ; ; ; ; ; ; ; ; ; ; ; ; : : : : : : : : > > > > > > > > , > 0 b n n n n n n n n n n n n n n n n n n b e < < < < 2 2 2 2 2 2 2 2 2 2 2 2 2 2 3 3 3 3 3 3 3 3 3 3 3 3 3 3 4 4 4 3 e n n n n n n n n n n n n n n n n n n n b w 3 4 4 4 3 3 3 3 3 3 3 3 3 3 3 3 3 3 3 2 2 2 2 2 2 2 2 2 2 2 2 2 2 < < < u n n n n n n n n n n n n n n n n n n n g < > > > > > > > > > > > : : : : : : ; ; ; ; ; ; ; ; ; ; ; ; ; ; ; ; ; - - - - - - - - - = = = = = = = = = = = F q.q.q.q.",
"q.q.q.q.[ o = = = = = = = = = = - - - - - - - - - - - ; ; ; ; ; ; ; ; ; ; ; ; ; ; : : : : : : : : > > > > > > > > > < f n n n n n n n n n n n n n n n n n n n j 2 < < < < 2 2 2 2 2 2 2 2 2 2 2 2 2 2 2 2 3 3 3 3 3 3 3 3 3 3 3 3 3 3 3 3 t n n n n n n n n n n n n n n n n n n n b w 3 4 3 3 3 3 3 3 3 3 3 3 3 3 3 3 3 3 2 2 2 2 2 2 2 2 2 2 2 < 2 < 2 < < < 4 z n n n n n n n n n n n n n n n n n n b 0 > > > > > > > > > > : : : : : : ; ; ; ; ; ; ; ; ; ; ; ; ; ; ; ; ; - - - - - - - - - - = = = = = = = = = = o [ q.q.q.q.",
"q.q.q.q.4.# = = = = = = = = = = = - - - - - - - - - - ; - ; ; ; ; ; ; ; ; ; ; ; ; ; : : : : > > : > > > > > > > > > 7 b n n n n n n n n n n n n n n n n n n b w < < < < < < < 2 2 2 2 2 2 2 2 2 2 2 2 2 2 3 3 3 3 3 3 3 3 3 3 3 3 3 3 3 3 e n n n n n n n n n n n n n n n n n n n b w 3 3 3 3 3 3 3 3 3 3 3 3 3 3 3 3 2 2 2 2 2 2 2 2 2 2 2 2 2 2 2 2 < < < < < t n n n n n n n n n n n n n n n n n n n f < > > > > > > > > > : > > : : : : : ; ; ; ; ; ; ; ; ; ; ; ; - ; ; - - - - - - - - - - = = = = = = = = = = # 4.q.q.q.q.",
"q.q.q.q.q.N = = = = = = = = = = = - - - - - - - - - ; ; - ; ; ; ; ; ; ; ; ; ; ; ; ; : : : : : > : : > > > > > > > , d n n n n n n n n n n n n n n n n n n n g 2 < < < < < < < < 2 2 2 2 2 2 2 2 2 2 2 2 2 2 3 3 3 3 3 3 3 3 3 3 3 3 3 3 3 e n n n n n n n n n n n n n n n n n n n b w 3 3 3 3 3 3 3 3 3 3 3 3 3 3 2 2 2 2 2 2 2 2 2 2 2 2 2 2 2 2 2 < < < < < < 2 l n n n n n n n n n n n n n n n n n n b 7 > > > > > > > > : : > : : : : : ; ; ; ; ; ; ; ; ; ; ; ; ; ; ; - - - - - - - - - - = = = = = = = = = = = N q.q.q.q.q.",
"q.q.q.q.q.^ o = = = = = = = = = = - - - - - - - - - ; ; - - ; ; ; ; ; ; ; ; ; ; ; ; ; ; ; : : > : : > > > > > > > 5 b n n n n n n n n n n n n n n n n n n b q < < < < < < < < < < < 2 2 2 2 2 2 2 2 2 2 2 2 2 2 2 2 3 3 3 3 3 3 3 3 3 3 3 e n n n n n n n n n n n n n n n n n n n n w 3 3 3 3 3 3 3 3 3 3 3 3 3 2 2 2 2 2 2 2 2 2 2 2 2 2 2 < < 2 2 < < < < < < < e n n n n n n n n n n n n n n n n n n n d , > > > > > > > : : : : : : ; ; ; ; ; ; ; ; ; ; ; ; ; ; ; ; ; - - - - - - - - - - = - = = = = = = = = o ^ q.q.q.q.q.",
"q.q.q.q.q.-.$ = = = = = = = = = = = - - - - - - - - - ; ; ; ; ; ; ; ; ; ; ; ; ; ; ; ; ; ; ; : : : : : > > > > > > p n n n n n n n n n n n n n n n n n n n f < < < < < < < < < < < < < < 2 2 2 2 2 2 2 2 2 2 2 2 2 2 2 3 3 3 3 3 3 3 3 3 3 e n n n n n n n n n n n n n n n n n n n n w 3 3 3 3 3 3 3 3 3 3 3 2 2 2 2 2 2 2 2 2 2 2 2 2 2 2 < < < 2 < < < < < < < < 2 l n n n n n n n n n n n n n n n n n n b 7 > > > > > > : : : : : : ; ; ; ; ; ; ; ; ; ; ; ; ; ; ; ; ; - - - - - - - - - - - = = = = = = = = = = $ -.q.q.q.q.q.",
"q.q.q.q.q.q.C = = = = = = = = = = = - - - - - - - - - ; ; ; ; ; ; ; ; ; ; ; ; ; ; ; ; ; ; ; : : : : : > > > > > 4 c n n n n n n n n n n n n n n n n n n b 0 < < < < < < < < < < 2 2 2 2 2 < 2 2 2 2 2 2 2 2 2 2 2 2 2 3 3 3 3 3 3 3 3 3 2 e n n n n n n n n n n n n n n n n n n n b w 3 3 3 3 3 3 3 3 3 2 2 2 2 2 2 2 2 2 2 2 2 2 2 2 2 2 2 2 2 < < < < < < < < < < e n n n n n n n n n n n n n n n n n n n s > > > > > > : : : : : ; ; : ; ; ; ; ; ; ; ; ; ; ; ; ; ; - - - - - - - - - - - = = = = = = = = = = = C q.q.q.q.q.q.",
"q.q.q.q.q.q.) o = = = = = = = = = = - - - - - - - - - ; ; ; ; ; ; ; ; ; ; ; ; ; ; ; ; ; ; ; : : : : : : > > > > i n n n n n n n n n n n n n n n n n n n d < < < < < < < < < < < < 2 2 2 2 2 < 2 2 2 2 2 2 2 2 2 2 2 2 2 2 3 3 3 3 3 3 3 2 e n n n n n n n n n n n n n n n n n n n b w 3 3 3 3 3 3 2 2 2 2 2 2 2 2 2 2 2 2 2 2 2 2 2 2 < 2 2 2 < < < < < < < < < < < < k n n n n n n n n n n n n n n n n n n b 4 : > > > > : : : : : ; ; ; ; ; ; ; ; ; ; ; ; ; ; ; - ; - - - - - - - - - - - = = = = = = = = = = o ) q.q.q.q.q.q.",
"q.q.q.q.q.q.-.$ = = = = = = = = = = = - - - - - - - - - - ; ; ; ; ; ; ; ; ; ; ; ; ; ; ; ; ; : : : : : : : > > 1 x n n n n n n n n n n n n n n n n n n b 8 , < < < < < < < < < < < < < 2 2 2 2 2 2 2 2 2 2 2 2 2 2 2 2 2 2 2 2 3 3 3 3 3 2 e n n n n n n n n n n n n n n n n n n n b w 2 3 3 3 3 2 2 2 2 2 2 2 2 2 2 2 2 2 2 2 2 2 < < < 2 < < < < < < < < < < < < < , w b n n n n n n n n n n n n n n n n n n p > > > > : : : : : : ; ; ; ; ; ; ; ; ; ; ; ; ; ; ; - - - - - - - - - - - - = = = = = = = = = = = $ -.q.q.q.q.q.q.",
"q.q.q.q.q.q.q.N = = = = = = = = = = = - - - - - - - - - - ; ; ; ; ; ; ; ; ; ; ; ; ; ; ; ; ; : : : : : : : : : r n n n n n n n n n n n n n n n n n n n d < < < < < < < < < < < < < < < < 2 2 2 2 2 2 2 2 2 2 2 2 2 2 2 2 2 2 2 2 2 2 2 2 2 e n n n n n n n n n n n n n n n n n n n b w 2 3 3 2 2 2 2 2 2 2 2 2 2 2 2 2 2 2 2 2 2 < < < < < < < < < < < < < < < < < < < 1 g n n n n n n n n n n n n n n n n n n v 4 : > : : : : : : ; ; ; ; ; ; ; ; ; ; ; ; ; ; ; ; - - - - - - - - - - - - = = = = = = = = = = = N q.q.q.q.q.q.q.",
"q.q.q.q.q.q.q.[ o = = = = = = = = = = = - - - - - - - - - - ; ; ; ; ; ; ; ; ; ; ; ; ; ; ; : : : : : : : : : < z n n n n n n n n n n n n n n n n n n b 7 , < < < < < < < < < < < < < < < < 2 2 2 2 2 2 2 2 2 2 2 2 2 2 2 2 2 2 2 2 2 2 2 2 e n n n n n n n n n n n n n n n n n n n b w 2 2 2 2 2 2 2 2 2 2 2 2 2 2 2 2 2 2 2 2 2 < < 2 2 2 < < < < < < < < < < < < < < , 0 b n n n n n n n n n n n n n n n n n n p : : : : : : : : ; ; ; ; ; ; ; ; ; ; ; ; ; ; ; ; ; ; - - - - - - - - - = = = = = = = = = = = o [ q.q.q.q.q.q.q.",
"q.q.q.q.q.q.q.4.# = = = = = = = = = = = - - - - - - - - - - ; ; ; ; ; ; ; ; ; ; ; ; ; ; ; ; : : : : : : : : q n n n n n n n n n n n n n n n n n n n s < < < < < < < < < < < < < < < < < < < 2 2 2 2 2 2 2 2 2 2 2 2 2 2 2 2 2 2 2 2 2 2 2 e n n n n n n n n n n n n n n n n n n n b w 2 2 2 2 2 2 2 2 2 2 2 2 2 2 2 2 2 2 2 2 2 < < 2 < < < < < < < < < < < < < < < < < < f n n n n n n n n n n n n n n n n n n x 2 : : : : : ; : ; ; ; ; ; ; ; ; ; ; ; ; ; ; ; ; ; - - - - - - - - - - = = = = = = = = = = = # 4.q.q.q.q.q.q.q.",
"q.q.q.q.q.q.q.q.S X = = = = = = = = = = = - - - - - - - - - ; ; ; ; ; ; ; ; ; ; ; ; ; ; ; ; : : ; : : : : , k n n n n n n n n n n n n n n n n n n b 7 , < < < < < < < < < < < < < < < < < < < 2 2 2 < < < 2 2 2 2 2 2 2 2 2 2 2 2 2 2 2 2 e n n n n n n n n n n n n n n n n n n n b q 2 2 2 2 2 2 2 2 2 2 2 2 2 2 2 2 < 2 2 2 2 < < < < < < < < < < < < < < < < < < < , , 8 b n n n n n n n n n n n n n n n n n n u : : : : : : : : ; ; ; ; ; ; ; ; ; ; ; ; ; ; ; ; - - - - - - - - - - = = = = = = = = = = X S q.q.q.q.q.q.q.q.",
"q.q.q.q.q.q.q.q.o.. = = = = = = = = = = = - - - - - - - - - ; ; ; ; ; ; ; ; ; ; ; ; ; ; ; ; ; : ; ; : : ; 0 b n n n n n n n n n n n n n n n n n n a , , , < < < < < < < < < < < < < < < < < < < < 2 < < < < < 2 2 2 2 2 2 2 2 2 2 2 2 2 2 e n n n n n n n n n n n n n n n n n n n b q 2 2 2 2 2 2 2 2 2 2 2 2 2 2 < < < < < 2 2 < < < < < < 1 < < < < < < < < < < < , , , < f n n n n n n n n n n n n n n n n n n x 1 : : : : : : ; ; ; ; ; ; ; ; ; ; ; ; ; ; ; ; ; - - - - - - - - - - = = = = = = = = = = . o.q.q.q.q.q.q.q.q.",
"q.q.q.q.q.q.q.q.q.* = = = = = = = = = = = - - - - - - - - - - ; - - ; ; ; ; ; ; ; ; ; ; ; ; ; ; ; ; : : > f n n n n n n n n n n n n n n n n n n v 5 , , , < < < < < < < < < < < < < < < < < < < < < < < 2 2 2 2 2 2 2 2 2 2 2 2 2 2 2 2 2 e n n n n n n n n n n n n n n n n n n n b q 2 2 2 2 2 2 2 2 2 2 2 2 2 2 2 2 2 2 < < < < < < < < < < < < < < < < < < < < , , , , , 8 b n n n n n n n n n n n n n n n n n n u ; : : : : ; ; ; ; ; ; ; ; ; ; ; ; ; ; ; ; ; - - - - - - - - - - = = = = = = = = = = = * q.q.q.q.q.q.q.q.q.",
"q.q.q.q.q.q.q.q.q.^ o = = = = = = = = = = = - - - - - - - - - ; - - ; ; ; ; ; ; ; ; ; ; ; ; ; ; ; ; : ; 7 b n n n n n n n n n n n n n n n n n n p , , , , , < < < < < < < < < < < < < < < < < < < < < < 2 2 2 2 2 2 2 2 2 2 2 2 2 2 2 2 < e n n n n n n n n n n n n n n n n n n n b q 2 2 2 2 2 2 2 2 < < < 2 2 2 2 2 < < < < < < < < < < < < < < < < < < < < < , , , , , , < d n n n n n n n n n n n n n n n n n n z < : : : : ; ; ; ; ; ; ; ; ; ; ; ; ; ; ; ; - - - - - - - - - - = = = = = = = = = = = o ^ q.q.q.q.q.q.q.q.q.",
"q.q.q.q.q.q.q.q.q.4.# = = = = = = = = = = = - - - - - - - - - - - - ; ; ; ; ; ; ; ; ; ; ; ; ; ; ; : ; : s n n n n n n n n n n n n n n n n n n c 4 , , , , , , , , , < < < < < < < < < < < < < < < < < < < < < 2 2 < < < < < 2 2 2 2 2 2 < e n n n n n n n n n n n n n n n n n n n b q 2 2 2 2 2 2 2 2 2 < < < < < < < < < < < < < < < < < < < < < < < < < < < < , , , , , , > 7 b n n n n n n n n n n n n n n n n n n e ; ; ; ; ; ; ; ; ; ; ; ; ; ; ; ; ; ; ; - - - - - - - - - - - = = = = = = = = = = = # 4.q.q.q.q.q.q.q.q.q.",
"q.q.q.q.q.q.q.q.q.q.L X = = = = = = = = = = - - - - - - - - - - - - ; ; ; ; ; ; ; ; ; ; ; ; ; ; ; ; ; 4 b n n n n n n n n n n n n n n n n n n p , , , , , , , , , , < < < < < < < < < < < < < < < < < < < < < < < < < < < < < 2 2 2 2 2 < w n n n n n n n n n n n n n n n n n n n b q < 2 2 2 2 2 2 2 2 < < < < < < < < < < < < < < < < < < < < < < < < < < < < , , , , , , , , s n n n n n n n n n n n n n n n n n n z , ; ; ; ; ; ; ; ; ; ; ; ; ; ; ; ; ; ; - - - - - - - - - - = = = = = = = = = = = X L q.q.q.q.q.q.q.q.q.q.",
"q.q.q.q.q.q.q.q.q.q.-.# = = = = = = = = = = = - - - - - - - - - - - ; ; ; ; ; ; ; ; ; ; ; ; ; ; ; ; ; p n n n n n n n n n n n n n n n n n n c 4 > , , , , , , , , , , < < < < < < < < < < < < < < < < < < < < < < 2 2 2 < < < 2 2 2 2 2 < w n n n n n n n n n n n n n n n n n n n b q 2 2 < < < 2 2 2 2 2 < < < < < < < < < < < < < < < < < < < < < < < < < < , , , , , , , , > 5 b n n n n n n n n n n n n n n n n n n q ; ; ; ; ; ; ; ; ; ; ; ; ; ; ; ; ; ; - - - - - - - - - - = = = = = = = = = = = # :.q.q.q.q.q.q.q.q.q.q.",
"q.q.q.q.q.q.q.q.q.q.q.F X = = = = = = = = = = = - - - - - - - - - - ; ; ; ; ; ; ; ; ; ; ; ; ; ; ; ; 1 c n n n n n n n n n n n n n n n n n n i > , , , , , , , , , , , , , < < < < < < < < < < < < < < < < < < < < < < < < < < < 2 2 2 2 < w n n n n n n n n n n n n n n n n n n n b q 2 < < < < 2 2 2 2 < < < < < < < < < < < < < < < < < < < < < < < , < , , , , , , , , , , , , a n n n n n n n n n n n n n n n n n n l , ; ; ; ; ; ; ; ; ; ; ; ; ; ; ; ; - - - - - - - - - - - = = = = = = = = = = = H q.q.q.q.q.q.q.q.q.q.q.",
"q.q.q.q.q.q.q.q.q.q.q.@.. = = = = = = = = = = = - - - - - - - - - - ; ; ; ; ; ; ; ; ; ; ; ; ; ; ; ; u n n n n n n n n n n n n n n n n n n x 2 > , , , , , , , , , , , , , , < < < < < < < < < < < < < < 1 < < < < < < < < 2 < < < < < < < w n n n n n n n n n n n n n n n n n n n b q < 2 < < < 2 < < < < < < < < < < < < < < < < < < < < < < < < < , , , , , , , , , , , , , , > 4 v n n n n n n n n n n n n n n n n n n q ; ; ; ; ; ; ; ; ; ; ; ; ; ; ; - - - - - - - - - - - = = = = = = = = = = = . @.q.q.q.q.q.q.q.q.q.q.q.",
"q.q.q.q.q.q.q.q.q.q.q.q.m = = = = = = = = = = = = - - - - - - - - - - ; ; ; ; ; ; ; ; ; ; ; ; ; ; < x n n n n n n n n n n n n n n n n n n u > > , , , , , , , , , , , , , , , < < < < < < < < < < < < < < < < < < < < < < < < < < < < < < w n n n n n n n n n n n n n n n n n n n b 0 < < < < < < < < < < < < < < < < < < < < < < < < < < < < < < , , , , , , , , , , , , , , , > > p n n n n n n n n n n n n n n n n n n g > ; ; ; ; ; ; ; ; ; ; ; ; ; ; - - - - - - - - - - - = = = = = = = = = = = m q.q.q.q.q.q.q.q.q.q.q.q.",
"q.q.q.q.q.q.q.q.q.q.q.q.o.. = = = = = = = = = = = = - - - - - - - - - - ; ; ; ; ; ; ; ; ; ; ; ; ; e n n n n n n n n n n n n n n n n n n x 1 > > > , , , , , , , , , , , , , , < < < < < < < < < < < < < < < < < < < < < < < < < < < < < < w n n n n n n n n n n n n n n n n n n n b 0 < < < < < < < < < < < < < < < < < < < < < < < < < < < < , , , , , , , , , , , , , , , , > > > 4 v n n n n n n n n n n n n n n n n n b 7 ; ; ; ; ; ; ; ; ; ; ; ; - - - - - - - - - - - - - = = = = = = = = = = . o.q.q.q.q.q.q.q.q.q.q.q.q.",
"q.q.q.q.q.q.q.q.q.q.q.q.q.C = = = = = = = = = = = = - - - - - - - - - ; - ; ; ; ; ; ; ; ; ; ; ; , l n b b b b b b b b b b b b b b b b b u > > > > > , , , , , , , , , , , , , , < < < < < < < < < < < < < < < < < < < < < < < < < < < < < w n n n n n n n n n n n n n n n n n n n b 0 < < < < < < < < < < < < < < < < < < < < < < < < < < < , , , , , , , , , , , , , , , , > > > > > p n n n n n n n n n n b b b n n n n n d : ; ; ; ; ; ; ; ; ; ; ; - - - - - - - - - - - - - = = = = = = = = = = C q.q.q.q.q.q.q.q.q.q.q.q.q.",
"q.q.q.q.q.q.q.q.q.q.q.q.q.o.. = = = = = = = = = = = - - - - - - - - - - - ; ; ; ; ; ; ; ; ; ; ; : 4 4 4 5 5 5 5 5 5 5 7 7 7 7 7 7 7 7 5 < > > > > > > , , , , , , , , , , , , , , < < < < < < < < < < < < < < < < < < < < < 1 < < < < < < w n n n n n n n n n n n n n n n n n n n b 0 < < < < < < < < < < < < < < < < < < < < < < < < < , , , , , , , , , , , , , , , , , > > > > > > < 7 7 7 7 7 7 7 7 7 7 7 7 7 7 7 7 7 7 4 : ; ; ; ; ; ; ; ; ; ; ; ; - - - - - - - - - - = = = = = = = = = = = . o.q.q.q.q.q.q.q.q.q.q.q.q.q.",
"q.q.q.q.q.q.q.q.q.q.q.q.q.q.m = = = = = = = = = = = = - - - - - - - - - - - ; ; ; ; ; ; ; ; ; ; ; ; ; ; ; ; ; ; ; ; ; ; ; : : : : : : : > > > > > > > > > , , , , , , , , , , , , , , < , < < < < < < < < < < < < < < < < < < < < < < < < w n n n n n n n n n n n n n n n n n n n b 0 < < < < < < < < < < < < < < < < < < < < < < < < , , , , , , , , , , , , , , , , , > > > > > > > > : : : : : ; ; ; ; ; ; ; ; ; ; ; ; ; ; ; ; ; ; ; ; ; ; ; ; ; ; - - - - - - - - - - = = = = = = = = = = = = m q.q.q.q.q.q.q.q.q.q.q.q.q.q.",
"q.q.q.q.q.q.q.q.q.q.q.q.q.q.@.. = = = = = = = = = = = - - - - - - - - - - - - ; ; ; ; ; ; ; ; ; ; ; ; ; ; ; ; ; ; ; : : : : : : : : > > > > > > > > > > > > , , , , , , , , , , , , , , < < < < < < < < < < < < < < < < < < < < < < < < < w n n n n n n n n n n n n n n n n n n n b 8 < < < < < < < < < < < < < < < < < < < < < < < < < , , , , , , , , , , , , , , > > > > > > > > > > > > : : : : : : : : : ; ; ; ; ; ; ; ; ; ; ; ; ; ; ; ; ; ; - - - - - - - - - - - = = = = = = = = = = = = . @.q.q.q.q.q.q.q.q.q.q.q.q.q.q.",
"q.q.q.q.q.q.q.q.q.q.q.q.q.q.q.S X = = = = = = = = = = = - - - - - - - - - - - - ; ; ; ; ; ; ; ; ; ; ; ; ; ; ; ; ; ; ; : : : : : : : > > > > > > > > > > > > , , , , , , , , , , , , , , , , , , , < < < < < < < < < < < < < < < < < < < < w n n n n n n n n n n n n n n n n n n n b 8 < < < < < < < < < < < < < < < < < < < < < < < , , , , , , , , , , , , , , , > > > > > > > > > > > : : : : : : : : : : ; ; ; ; ; ; ; ; ; ; ; ; ; ; ; ; ; ; ; - - - - - - - - - - - = = = = = = = = = = = X S q.q.q.q.q.q.q.q.q.q.q.q.q.q.q.",
"q.q.q.q.q.q.q.q.q.q.q.q.q.q.q.-.# = = = = = = = = = = - - - - - - - - - - - - - ; ; ; ; ; ; ; ; ; ; ; ; ; ; ; ; ; ; ; ; ; : : : : : : : > > > > > > > > > > > > , , , , , , , , , , , , , , , , , , , < < < < < < < < < < < < < < < < < < q n n n n n n n n n n n n n n n n n n n b 8 < < < < < < < < < < < < < < < < < < < , , , , , , , , , , , , , , , , , , > > > > > > > > > > > > > : : : : : : : : : ; ; ; ; ; ; ; ; ; ; ; ; ; ; ; ; ; - - - - - - - - - - - - = = = = = = = = = = = = # :.q.q.q.q.q.q.q.q.q.q.q.q.q.q.q.",
"q.q.q.q.q.q.q.q.q.q.q.q.q.q.q.q.R o = = = = = = = = = = = - - - - - - - - - - - - ; ; ; ; ; ; ; ; ; ; ; ; ; ; ; ; ; ; ; ; ; ; : : : : : : > > > > > > > > > > > > > , , , , , , , , , , , , , , , , , , , < < < < < < < < < < < < < < < , q n n n n n n n n n n n n n n n n n n n b 8 < < < < < < < < < < < < < < < < , , , , , , , , , , , , , , , , , , , , > > > > > > > > > > > > > : : : : : : : : : ; ; ; ; ; ; ; ; ; ; ; ; ; ; ; ; ; - - - - - - - - - - - - - = = = = = = = = = = = o T q.q.q.q.q.q.q.q.q.q.q.q.q.q.q.q.",
"q.q.q.q.q.q.q.q.q.q.q.q.q.q.q.q.4.* = = = = = = = = = = = = - - - - - - - - - - - - ; ; ; ; ; ; ; ; ; ; ; ; ; ; ; ; ; ; : : : : : : : : : > > > > > > > > > > > > > > , , , , , , , , , , , , , , , , , , , < < < < < < < < < < < < < < , q n n n n n n n n n n n n n n n n n n n b 8 < < < < < < < < < < < < < < , , , , , , , , , , , , , , , , , , , , > > > > > > > > > > > > > : : : : : : : ; : : : ; ; ; ; ; ; ; ; ; ; ; ; ; ; ; ; ; ; - - - - - - - - - - - = = = = = = = = = = = = * 4.q.q.q.q.q.q.q.q.q.q.q.q.q.q.q.q.",
"q.q.q.q.q.q.q.q.q.q.q.q.q.q.q.q.q.' O = = = = = = = = = = = = - - - - - - - - - - - ; ; ; ; ; ; ; ; ; ; ; ; ; ; ; ; ; ; ; : : : : : : : : : : > > > > > > > > > > > > > , , , , , , , , , , , , , , , , , , < < < < < < < < < < < < < < , q n n n n n n n n n n n n n n n n n n n b 8 < < < < < < < < < < < < < , , , , , , , , , , , , , , , , , , , > > > > > > > > > > > > > > : : : : : : : ; ; ; ; ; ; ; ; ; ; ; ; ; ; ; ; ; ; ; ; ; ; - - - - - - - - - - - - = = = = = = = = = = = O ' q.q.q.q.q.q.q.q.q.q.q.q.q.q.q.q.q.",
"q.q.q.q.q.q.q.q.q.q.q.q.q.q.q.q.q.q.Z = = = = = = = = = = = = - - - - - - - - - - - - ; ; ; ; ; ; ; ; ; ; ; ; ; ; ; ; ; ; : : : : : : : : : : : > > > > > > > > > > > > > > , , , , , , , , , , , , , , , , , , , , , , < < < < < < < < , q n n n n n n n n n n n n n n n n n n n b 8 , < < < < < , , , < < < , , , , , , , , , , , , , , , , , , , > > > > > > > > > > > > > > : : : : : : : ; ; ; ; ; ; ; ; ; ; ; ; ; ; ; ; ; ; ; ; ; ; - ; - - - - - - - - - - = = = = = = = = = = = = Z q.q.q.q.q.q.q.q.q.q.q.q.q.q.q.q.q.q.",
"q.q.q.q.q.q.q.q.q.q.q.q.q.q.q.q.q.q.%.# = = = = = = = = = = = = - - - - - - - - - - - ; ; ; ; ; ; ; ; ; ; ; ; ; ; ; ; ; ; ; ; : ; : : : : : : : : > > > > > > > > > > > > > > , , , , , , , , , , , , , , , , , , , , , , , < < , , , < , q n n n n n n n n n n n n n n n n n n n b 8 , < < < < , , , , , , , , , , , , , , , , , , , , , , , , > > > > > > > > > > > > > > > : : : : : : : ; ; ; ; ; ; ; ; ; ; ; ; ; ; ; ; ; ; ; ; ; ; ; ; - - - - - - - - - - = = = = = = = = = = = = # %.q.q.q.q.q.q.q.q.q.q.q.q.q.q.q.q.q.q.",
"q.q.q.q.q.q.q.q.q.q.q.q.q.q.q.q.q.q.q.T o = = = = = = = = = = = = - - - - - - - - - - - ; ; ; ; ; ; ; ; ; ; ; ; ; ; ; ; ; ; ; ; ; ; ; : : : : : : : > > > > > > > > > > > > > > > , , , , , , , , , , , , , , , , , , , , , , < , , , , , 0 n n n n n n n n n n n n n n n n n n n b 8 , , , , , , , , , , , , , , , , , , , , , , , , , , , > > > > > > > > > > > > > > > : : : : : : : : : : : ; ; ; ; ; ; ; ; ; ; ; ; ; ; ; ; ; - ; - - - - - - - - - - - - = = = = = = = = = = = = o T q.q.q.q.q.q.q.q.q.q.q.q.q.q.q.q.q.q.q.",
"q.q.q.q.q.q.q.q.q.q.q.q.q.q.q.q.q.q.q.q.* = = = = = = = = = = = = = - - - - - - - - - - - ; ; ; ; ; ; ; ; ; ; ; ; ; ; ; ; ; ; ; ; ; ; ; ; : : : : : : > > > > > > > > > > > > > > > > , , , , , , , , , , , , , , , , , , , , , , , , , , 0 n n n n n n n n n n n n n n n n n n n b 8 , , , , , , , , , , , , , , , , , , , , , , , , , , > > > > > > > > > > > > > > > : : : : : : : : : : : ; ; ; ; ; ; ; ; ; ; ; ; ; ; ; ; - - - - - - - - - - - - - - - = = = = = = = = = = = = = * q.q.q.q.q.q.q.q.q.q.q.q.q.q.q.q.q.q.q.q.",
"q.q.q.q.q.q.q.q.q.q.q.q.q.q.q.q.q.q.q.q.o.. = = = = = = = = = = = = - - - - - - - - - - - - ; ; ; ; ; ; ; ; ; ; ; ; ; ; ; ; ; ; ; ; ; ; ; : : : : : : : : > > > > > > > > > > > > > > > > , , , , , , , , , , , , , , , , , , , , , , , , 0 n n n n n n n n n n n n n n n n n n n b 8 , , , , , , , , , , , , , , , , , , , , , , , , , > > > > > > > > > > > > > > > : : : : : : : : : : : ; ; ; ; ; ; ; ; ; ; ; ; ; ; ; ; ; ; - - - - - - - - - - - - - - = = = = = = = = = = = = . o.q.q.q.q.q.q.q.q.q.q.q.q.q.q.q.q.q.q.q.q.",
"q.q.q.q.q.q.q.q.q.q.q.q.q.q.q.q.q.q.q.q.q.L o = = = = = = = = = = = = - - - - - - - - - - - - ; ; ; ; ; ; ; ; ; ; ; ; ; ; ; ; ; ; ; ; ; ; ; : : : : : : : : > > > > > > > > > > > > > > > > > , , , , , , , , , , , , , , , , , , , , , > 0 n n n n n n n n n n n n n n n n n n n b 8 , , , , , , , , , , , , , , , , , , , , , , , > > > > > > > > > > > > > > > > : : : : : : : : ; : : ; ; ; ; ; ; ; ; ; ; ; ; ; ; ; ; ; ; ; - - - - - - - - - - - - - = = = = = = = = = = = = o L q.q.q.q.q.q.q.q.q.q.q.q.q.q.q.q.q.q.q.q.q.",
"q.q.q.q.q.q.q.q.q.q.q.q.q.q.q.q.q.q.q.q.q.q.* = = = = = = = = = = = = - - - - - - - - - - - - - - ; ; ; ; ; ; ; ; ; ; ; ; ; ; ; ; ; ; ; : : : : : : : : : : : : > > > > > > > > > > > > > > > > > , , , , , , , , , , , , , , , , , , , > 0 n n n n n n n n n n n n n n n n n n n b 7 , , , , , , , , , , , , , , , , , , , , > > > > > > > > > > > > > > > > > : : : : : : : : : ; ; ; ; ; ; ; ; ; ; ; ; ; ; ; ; ; ; ; ; ; ; ; - - - - - - - - - - - - = = = = = = = = = = = = = * q.q.q.q.q.q.q.q.q.q.q.q.q.q.q.q.q.q.q.q.q.q.",
"q.q.q.q.q.q.q.q.q.q.q.q.q.q.q.q.q.q.q.q.q.q.@.$ = = = = = = = = = = = = - - - - - - - - - - - - - - - ; ; ; ; ; ; ; ; ; ; ; ; ; ; ; ; ; ; : : : : : : : : > : : : : > > > > > > > > > > > > > > > > > , , , , , , , , , , , , , , , , , > 0 n n n n n n n n n n n n n n n n n n n b 7 > , , , , , , , , , , , , , , , , > > > > > > > > > > > > > > > > > > > : : : : : : : : : ; ; ; ; ; ; ; ; ; ; ; ; ; ; ; ; ; ; ; ; ; ; ; - - - - - - - - - - - - = = = = = = = = = = = = = $ @.q.q.q.q.q.q.q.q.q.q.q.q.q.q.q.q.q.q.q.q.q.q.",
"q.q.q.q.q.q.q.q.q.q.q.q.q.q.q.q.q.q.q.q.q.q.q.( o = = = = = = = = = = = = - - - - - - - - - - - - - - ; ; ; ; ; ; ; ; ; ; ; ; ; ; ; ; ; ; ; ; : ; ; ; : : : : : : : : : > > > > > > > > > > > > > > > > > > , , , , , , , , , , , , , , > 0 n n n n n n n n n n n n n n n n n n n b 7 > , , , , , , , , , , , , , , > > > > > > > > > > > > > > > > > > > : : : : : : : : : : : ; ; ; ; ; ; ; ; ; ; ; ; ; ; ; ; ; ; ; ; ; ; - - - - - - - - - - - - - = = = = = = = = = = = = o ( q.q.q.q.q.q.q.q.q.q.q.q.q.q.q.q.q.q.q.q.q.q.q.",
"q.q.q.q.q.q.q.q.q.q.q.q.q.q.q.q.q.q.q.q.q.q.q.q.C X = = = = = = = = = = = = - - - - - - - - - - - - - - ; ; ; ; ; ; ; ; ; ; ; ; ; ; ; ; ; ; ; ; ; ; ; ; : : : : : : : : : : > > > > > > > > > > > > > > > > > > > > , , , , , , , , , , > 0 n n n n n n n n n n n n n n n n n n n b 7 > , , , , , , , , , , , > > > > > > > > > > > > > > > > > > > > : : : : : : : : ; : : : ; ; ; ; ; ; ; ; ; ; ; ; ; ; ; ; ; ; ; ; ; ; ; - - - - - - - - - - - - = = = = = = = = = = = = X C q.q.q.q.q.q.q.q.q.q.q.q.q.q.q.q.q.q.q.q.q.q.q.q.",
"q.q.q.q.q.q.q.q.q.q.q.q.q.q.q.q.q.q.q.q.q.q.q.q.<.% = = = = = = = = = = = = = - - - - - - - - - - - - ; ; ; ; ; ; ; ; ; ; ; ; ; ; ; ; ; ; ; ; ; ; ; : : : : : : : : : : : : > > > > > > > > > > > > > > > > > > > > > > > > , , , , , , > 0 n n n n n n n n n n n n n n n n n n n b 7 > , , , , , , > > > > > > > > > > > > > > > > > > > > > > : : : : : : : : : : : : : : ; ; ; ; ; ; ; ; ; ; ; ; ; ; ; ; ; ; ; - ; ; ; ; - - - - - - - - - - - = = = = = = = = = = = = = % <.q.q.q.q.q.q.q.q.q.q.q.q.q.q.q.q.q.q.q.q.q.q.q.q.",
"q.q.q.q.q.q.q.q.q.q.q.q.q.q.q.q.q.q.q.q.q.q.q.q.q.O.. = = = = = = = = = = = = = - - - - - - - - - - - ; - ; ; ; ; ; ; ; ; ; ; ; ; ; ; ; ; ; ; ; ; ; : : : : ; : : : : : : : : : : : > > > > > > > > > > > > > > > > > > > > > > > , , , > 0 n n n n n n n n n n n n n n n n n n n b 7 > , , > > > > > > > > > > > > > > > > > > > > > > > > > > : : : : : : : : : ; ; ; : ; ; ; ; ; ; ; ; ; ; ; ; ; ; ; ; ; ; ; - - ; - ; - - - - - - - - - - - = = = = = = = = = = = = = . *.q.q.q.q.q.q.q.q.q.q.q.q.q.q.q.q.q.q.q.q.q.q.q.q.q.",
"q.q.q.q.q.q.q.q.q.q.q.q.q.q.q.q.q.q.q.q.q.q.q.q.q.q. .o = = = = = = = = = = = = = - - - - - - - - - - - - - ; ; ; ; ; ; ; ; ; ; ; ; ; ; ; ; ; ; ; ; ; : ; ; ; ; ; : : : : : : : : : : > > > > > > > > > > > > > > > > > > > > > > > > > > 0 n n n n n n n n n n n n n n n n n n n b 7 > , > > > > > > > > > > > > > > > > > > > > > > > > > : : : : : : : : : : ; ; ; ; ; ; ; ; ; ; ; ; ; ; ; ; ; ; ; ; ; ; ; ; - - - - - - - - - - - - - - - - = = = = = = = = = = = = o  .q.q.q.q.q.q.q.q.q.q.q.q.q.q.q.q.q.q.q.q.q.q.q.q.q.q.",
"q.q.q.q.q.q.q.q.q.q.q.q.q.q.q.q.q.q.q.q.q.q.q.q.q.q.q.m X = = = = = = = = = = = = = - - - - - - - - - - - - - ; ; ; ; ; ; ; ; ; ; ; ; ; ; ; ; ; ; ; ; ; ; ; ; ; ; ; : : : : : : : : : : : > > > > > > > > > > > > > > > > > > > > > > > > 0 n n n n n n n n n n n n n n n n n n n b 7 > , , > > > > > > > > > > > > > > > > > > > > : : : : : : : : : : : : : : ; ; ; ; ; ; ; ; ; ; ; ; ; ; ; ; ; ; ; ; ; ; ; ; - - - - - - - - - - - - - - - = = = = = = = = = = = = X m q.q.q.q.q.q.q.q.q.q.q.q.q.q.q.q.q.q.q.q.q.q.q.q.q.q.q.",
"q.q.q.q.q.q.q.q.q.q.q.q.q.q.q.q.q.q.q.q.q.q.q.q.q.q.q.4.* = = = = = = = = = = = = = = - - - - - - - - - - - - - ; ; ; ; ; ; ; ; ; ; ; ; ; ; ; ; ; ; ; ; ; ; ; ; ; ; ; ; : : : : : : : : : : > > > > > > > > > > > > > > > > > > > > > > : 0 n n n n n n n n n n n n n n n n n n n b 7 > > > > > > > > > > > > > > > > > > > > > > : : : : : : : : : : : : : : : ; ; ; ; ; ; ; ; ; ; ; ; ; ; ; ; ; ; ; ; ; ; ; ; - - - - - - - - - - - - - - = = = = = = = = = = = = = * 4.q.q.q.q.q.q.q.q.q.q.q.q.q.q.q.q.q.q.q.q.q.q.q.q.q.q.q.",
"q.q.q.q.q.q.q.q.q.q.q.q.q.q.q.q.q.q.q.q.q.q.q.q.q.q.q.q.%.# = = = = = = = = = = = = = = - - - - - - - - - - - - - - ; ; - ; ; ; ; ; ; ; ; ; ; ; ; ; ; ; ; ; ; ; ; ; ; ; : : : : : : : : : : : : : > > > > > > > > > > > > > > > > > > > : 0 n n n n n n n n n n n n n n n n n n n b 7 > > > > > > > > > > > > > > > > > > : : : : : : : : : : : : : : ; : : : ; ; ; ; ; ; ; ; ; ; ; ; ; ; ; ; ; ; ; ; - ; ; ; ; - - - - - - - - - - - - - = = = = = = = = = = = = = # %.q.q.q.q.q.q.q.q.q.q.q.q.q.q.q.q.q.q.q.q.q.q.q.q.q.q.q.q.",
"q.q.q.q.q.q.q.q.q.q.q.q.q.q.q.q.q.q.q.q.q.q.q.q.q.q.q.q.q.} . = = = = = = = = = = = = = - - - - - - - - - - - - - - - ; - - ; ; ; ; ; ; ; ; ; ; ; ; ; ; ; ; ; ; ; ; ; ; : : : : : : : : : : : : : : > > > : > > > > > > > > > > > > > > : 8 n n n n n n n n n n n n n n n n n n n b 7 : > > > > > > > > > > > > > > > : : : : : : : > : : : : : ; ; ; ; : ; ; ; ; ; ; ; ; ; ; ; ; ; ; ; ; ; ; ; ; ; ; ; ; ; - - - - - - - - - - - - - = = = = = = = = = = = = = = . } q.q.q.q.q.q.q.q.q.q.q.q.q.q.q.q.q.q.q.q.q.q.q.q.q.q.q.q.q.",
"q.q.q.q.q.q.q.q.q.q.q.q.q.q.q.q.q.q.q.q.q.q.q.q.q.q.q.q.q.q.^   = = = = = = = = = = = = = - - - - - - - - - - - - - - - - ; ; ; ; ; ; ; ; ; ; ; ; ; ; ; ; ; ; ; ; ; ; ; ; : : : ; ; ; : : : : : : : > > : : : : : : > > > > > > > > > > : 8 n n n n n n n n n n n n n n n n n n n b 7 : > > > > > > > > > > > > : : : : : : : : : : : : : : ; ; ; ; ; ; ; ; ; ; ; ; ; ; ; ; ; ; ; ; ; ; ; ; ; ; ; ; ; ; - - - - - - - - - - - - - - = = = = = = = = = = = = = =   ^ q.q.q.q.q.q.q.q.q.q.q.q.q.q.q.q.q.q.q.q.q.q.q.q.q.q.q.q.q.q.",
"q.q.q.q.q.q.q.q.q.q.q.q.q.q.q.q.q.q.q.q.q.q.q.q.q.q.q.q.q.q.q.U o = = = = = = = = = = = = = - - - - - - - - - - - - - - ; ; ; ; ; ; ; ; ; ; ; ; ; ; ; ; ; ; ; ; ; ; ; ; ; ; : : : : : : : : : : : : : > : : > > : : : > > > > > > > > > : 8 n n n n n n n n n n n n n n n n n n n b 7 : > > > > > > > > : : : : > > : : : : : : : : : : : : : : ; ; ; ; ; ; ; ; ; ; ; ; ; ; ; ; ; ; ; ; ; ; ; ; - ; - - - - - - - - - - - - - - - = = = = = = = = = = = = = = o U q.q.q.q.q.q.q.q.q.q.q.q.q.q.q.q.q.q.q.q.q.q.q.q.q.q.q.q.q.q.q.",
"q.q.q.q.q.q.q.q.q.q.q.q.q.q.q.q.q.q.q.q.q.q.q.q.q.q.q.q.q.q.q.q.S o = = = = = = = = = = = = = - - - - - - - - - - - - - - - ; ; ; ; ; ; ; ; ; ; ; ; ; ; ; ; ; ; ; ; ; ; ; ; ; ; : : : ; ; ; : : : : : : : : > > : : : : : : : > : > > > : 8 n n n n n n n n n n n n n n n n n n n b 7 : > > > > > : : : : : : : : > : : : : : : : : : : : : ; ; ; ; ; ; ; ; ; ; ; ; ; ; ; ; ; ; ; ; ; ; ; ; ; ; - - - - - - - - - - - - - - - - = = = = = = = = = = = = = = o S q.q.q.q.q.q.q.q.q.q.q.q.q.q.q.q.q.q.q.q.q.q.q.q.q.q.q.q.q.q.q.q.",
"q.q.q.q.q.q.q.q.q.q.q.q.q.q.q.q.q.q.q.q.q.q.q.q.q.q.q.q.q.q.q.q.q.m X = = = = = = = = = = = = = = - - - - - - - - - - - - - - ; - - ; ; ; ; ; ; ; ; ; ; ; ; ; ; ; ; ; ; ; ; ; ; ; ; ; ; ; ; ; ; ; : ; : : : : > : : : : : : : : : : : : : 8 n n n n n n n n n n n n n n n n n n n b 7 : : : : : : : : : : : : : : : : : : : ; ; ; ; ; : : ; ; ; ; ; ; ; ; ; ; ; ; ; ; ; ; ; ; ; ; ; ; ; ; ; ; ; - - - - - - - - - - - - - - - - = = = = = = = = = = = = = X m q.q.q.q.q.q.q.q.q.q.q.q.q.q.q.q.q.q.q.q.q.q.q.q.q.q.q.q.q.q.q.q.q.",
"q.q.q.q.q.q.q.q.q.q.q.q.q.q.q.q.q.q.q.q.q.q.q.q.q.q.q.q.q.q.q.q.q.4.N X = = = = = = = = = = = = = = - - - - - - - - - - - - - - - - - ; ; ; ; ; ; ; ; ; ; ; ; ; ; ; ; ; ; ; ; ; ; ; ; ; ; ; ; ; ; ; ; ; ; ; : : : : : : : : : : : : : : ; 8 n n n n n n n n n n n n n n n n n n n b 7 : : : : : : : : : : : : : : : : : ; ; ; ; ; ; ; ; ; ; ; ; ; ; ; ; ; ; ; ; ; ; ; ; ; ; ; ; ; ; ; ; ; ; ; ; - - - - - - - - - - - - - - - = = = = = = = = = = = = = X N 4.q.q.q.q.q.q.q.q.q.q.q.q.q.q.q.q.q.q.q.q.q.q.q.q.q.q.q.q.q.q.q.q.q.",
"q.q.q.q.q.q.q.q.q.q.q.q.q.q.q.q.q.q.q.q.q.q.q.q.q.q.q.q.q.q.q.q.q.q.6.* X = = = = = = = = = = = = = - - - - - - - - - - - - - - - - ; ; ; ; ; ; ; ; ; ; ; ; ; ; ; ; ; ; ; ; ; ; ; ; ; ; ; ; ; ; : : : : : : : : : : : : : : : : : : : : ; 8 n n n n n n n n n n n n n n n n n n n b 7 ; : : : : : : : : : : : : ; ; : : : : : ; ; ; ; ; ; ; ; ; ; ; ; ; ; ; ; ; ; ; ; ; ; ; ; ; ; ; ; ; - - - - - - - - - - - - - - - - - = = = = = = = = = = = = = = X * 4.q.q.q.q.q.q.q.q.q.q.q.q.q.q.q.q.q.q.q.q.q.q.q.q.q.q.q.q.q.q.q.q.q.q.",
"q.q.q.q.q.q.q.q.q.q.q.q.q.q.q.q.q.q.q.q.q.q.q.q.q.q.q.q.q.q.q.q.q.q.q.<.* X = = = = = = = = = = = = = = - - - - - - - - - - - - - - ; ; ; ; ; ; ; ; ; ; ; ; ; ; ; ; ; ; ; ; ; ; ; ; ; ; ; ; ; ; ; ; ; : ; : ; ; : : : : : : : : : : : : ; 8 n n n n n n n n n n n n n n n n n n n b 7 ; : : : : : : : : : : : : ; ; ; ; : : ; ; ; ; ; ; ; ; ; ; ; ; ; ; ; ; ; ; ; ; ; ; ; ; ; ; ; ; ; ; - - - - - - - - - - - - - - - - = = = = = = = = = = = = = = X * <.q.q.q.q.q.q.q.q.q.q.q.q.q.q.q.q.q.q.q.q.q.q.q.q.q.q.q.q.q.q.q.q.q.q.q.",
"q.q.q.q.q.q.q.q.q.q.q.q.q.q.q.q.q.q.q.q.q.q.q.q.q.q.q.q.q.q.q.q.q.q.q.q.<.* X = = = = = = = = = = = = = = = - - - - - - - - - - - - - ; - - ; ; ; ; ; ; ; ; ; ; ; ; ; ; ; ; ; ; ; ; ; ; ; ; ; ; ; ; ; ; ; ; ; ; ; ; ; ; ; : : : ; : : : ; 7 n n n n n n n n n n n n n n n n n n n b 7 ; : : : : : : ; ; : : : : ; ; ; ; ; ; ; ; ; ; ; ; ; ; ; ; ; ; ; ; ; ; ; ; ; ; ; ; ; ; ; ; ; ; ; ; - - - - - - - - - - - - - - - = = = = = = = = = = = = = = X * <.q.q.q.q.q.q.q.q.q.q.q.q.q.q.q.q.q.q.q.q.q.q.q.q.q.q.q.q.q.q.q.q.q.q.q.q.",
"q.q.q.q.q.q.q.q.q.q.q.q.q.q.q.q.q.q.q.q.q.q.q.q.q.q.q.q.q.q.q.q.q.q.q.q.q.<.* X = = = = = = = = = = = = = = - - - - - - - - - - - - - - - - - - ; ; ; ; ; ; ; ; ; ; ; ; ; ; ; ; ; ; ; ; ; ; ; ; ; ; ; ; ; ; ; ; ; ; ; ; ; ; : : ; ; ; ; ; 7 n n n n n n n n n n n n n n n n n n n b 7 ; : : ; ; : : ; ; ; ; ; ; ; ; ; ; ; ; ; ; ; ; ; ; ; ; ; ; ; ; ; ; ; ; ; ; ; ; ; ; ; ; ; ; ; ; ; - - - - - - - - - - - - - - - = = = = = = = = = = = = = = X * <.q.q.q.q.q.q.q.q.q.q.q.q.q.q.q.q.q.q.q.q.q.q.q.q.q.q.q.q.q.q.q.q.q.q.q.q.q.",
"q.q.q.q.q.q.q.q.q.q.q.q.q.q.q.q.q.q.q.q.q.q.q.q.q.q.q.q.q.q.q.q.q.q.q.q.q.q.<.* X = = = = = = = = = = = = = = = - - - - - - - - - - - - - - - - ; ; ; ; - ; ; ; ; ; ; ; ; ; ; ; ; ; ; ; ; ; ; ; ; ; ; ; ; ; ; ; ; ; ; ; ; ; : : ; ; ; ; ; 7 n n n n n n n n n n n n n n n n n n n b 7 ; : : : : ; ; ; ; ; ; ; ; ; ; ; ; ; ; ; ; ; ; ; ; ; ; ; ; ; ; ; ; ; ; ; ; ; ; ; ; ; - - - - - - - - - - - - - - - - - - - = = = = = = = = = = = = = = = X * <.q.q.q.q.q.q.q.q.q.q.q.q.q.q.q.q.q.q.q.q.q.q.q.q.q.q.q.q.q.q.q.q.q.q.q.q.q.q.",
"q.q.q.q.q.q.q.q.q.q.q.q.q.q.q.q.q.q.q.q.q.q.q.q.q.q.q.q.q.q.q.q.q.q.q.q.q.q.q.4.N X = = = = = = = = = = = = = = = - - - - - - - - - - - - - - - - ; ; ; - - - ; ; ; ; ; ; ; ; ; ; ; ; ; ; ; ; ; ; ; ; ; ; ; ; ; ; ; ; ; ; ; ; ; ; ; ; ; ; 7 n n n n n n n n n n n n n n n n n n n b 5 ; ; ; ; ; ; ; ; ; ; ; ; ; ; ; ; ; ; ; ; ; ; ; ; ; ; ; ; ; ; ; ; ; ; ; ; ; ; ; ; ; - - - - - - - - - - - - - - - - - - - = = = = = = = = = = = = = = = X N 6.q.q.q.q.q.q.q.q.q.q.q.q.q.q.q.q.q.q.q.q.q.q.q.q.q.q.q.q.q.q.q.q.q.q.q.q.q.q.q.",
"q.q.q.q.q.q.q.q.q.q.q.q.q.q.q.q.q.q.q.q.q.q.q.q.q.q.q.q.q.q.q.q.q.q.q.q.q.q.q.q.4.m o = = = = = = = = = = = = = = = = - - - - - - - - - - - - - - ; - - - - ; ; ; ; ; ; ; ; ; ; ; ; ; ; ; ; ; ; ; ; ; ; ; ; ; ; ; ; ; ; ; ; ; ; ; ; ; ; ; 7 n n n n n n n n n n n n n n n n n n n b 5 ; ; ; ; ; ; ; ; ; ; ; ; ; ; ; ; ; ; ; ; ; ; ; ; ; ; ; ; ; ; ; ; ; ; ; ; - ; ; ; ; - - - - - - - - - - - - - - - - - = = = = = = = = = = = = = = = = o m 4.q.q.q.q.q.q.q.q.q.q.q.q.q.q.q.q.q.q.q.q.q.q.q.q.q.q.q.q.q.q.q.q.q.q.q.q.q.q.q.q.",
"q.q.q.q.q.q.q.q.q.q.q.q.q.q.q.q.q.q.q.q.q.q.q.q.q.q.q.q.q.q.q.q.q.q.q.q.q.q.q.q.q.q.S o = = = = = = = = = = = = = = = = - - - - - - - - - - - - - - - - - - - ; ; ; ; ; ; ; ; ; ; ; ; ; ; ; ; ; ; ; ; ; ; ; ; ; ; ; ; ; ; ; ; ; ; ; ; ; ; 7 n n n n n n n n n n n n n n n n n n n b 5 ; ; ; ; ; ; ; ; ; ; ; ; ; ; ; ; ; ; ; ; ; ; ; ; ; ; ; ; ; ; ; ; ; ; ; - ; ; ; ; - - - - - - - - - - - - - - - - - = = = = = = = = = = = = = = = = o S q.q.q.q.q.q.q.q.q.q.q.q.q.q.q.q.q.q.q.q.q.q.q.q.q.q.q.q.q.q.q.q.q.q.q.q.q.q.q.q.q.q.",
"q.q.q.q.q.q.q.q.q.q.q.q.q.q.q.q.q.q.q.q.q.q.q.q.q.q.q.q.q.q.q.q.q.q.q.q.q.q.q.q.q.q.q.U   = = = = = = = = = = = = = = = = - - - - - - - - - - - - - - - - - - - ; ; ; ; ; ; ; ; ; ; ; ; ; ; ; ; ; ; ; ; ; ; ; ; ; ; ; ; ; ; ; ; ; ; ; ; ; 7 n n n n n n n n n n n n n n n n n n n b 4 ; ; ; ; ; ; ; ; ; ; ; ; ; ; ; ; ; ; ; ; ; ; ; ; ; ; ; ; ; ; ; ; ; ; ; ; ; - - - - - - - - - - - - - - - - - - = = = = = = = = = = = = = = = = =   U q.q.q.q.q.q.q.q.q.q.q.q.q.q.q.q.q.q.q.q.q.q.q.q.q.q.q.q.q.q.q.q.q.q.q.q.q.q.q.q.q.q.q.",
"q.q.q.q.q.q.q.q.q.q.q.q.q.q.q.q.q.q.q.q.q.q.q.q.q.q.q.q.q.q.q.q.q.q.q.q.q.q.q.q.q.q.q.q.^ . = = = = = = = = = = = = = = = = - - - - - - - - - - - - - - - - - - ; ; ; ; ; ; ; ; ; ; ; ; ; ; ; ; ; ; ; ; ; ; ; ; ; ; ; ; ; ; ; ; ; ; ; ; ; 7 n n n n n n n n n n n n n n n n n n n b 4 ; ; ; ; ; ; ; ; ; ; ; ; ; ; ; ; ; ; ; ; ; ; ; ; ; ; ; ; ; ; ; ; ; ; - - - - - - - - - - - - - - - - - - - - = = = = = = = = = = = = = = = = = . ^ q.q.q.q.q.q.q.q.q.q.q.q.q.q.q.q.q.q.q.q.q.q.q.q.q.q.q.q.q.q.q.q.q.q.q.q.q.q.q.q.q.q.q.q.",
"q.q.q.q.q.q.q.q.q.q.q.q.q.q.q.q.q.q.q.q.q.q.q.q.q.q.q.q.q.q.q.q.q.q.q.q.q.q.q.q.q.q.q.q.q.} # = = = = = = = = = = = = = = = = = = - - - - - - - - - - - - - - - - - - ; ; - - ; ; ; ; ; ; ; ; ; ; ; ; ; ; ; ; ; ; ; ; ; ; ; ; ; ; ; ; ; ; 7 n n n n n n n n n n n n n n n n n n n b 4 ; ; ; ; ; ; ; ; ; ; ; ; ; ; ; ; ; ; ; ; ; ; ; ; ; ; ; ; ; ; ; - - - - - - - - - - - - - - - - - - - - - - = = = = = = = = = = = = = = = = = # } q.q.q.q.q.q.q.q.q.q.q.q.q.q.q.q.q.q.q.q.q.q.q.q.q.q.q.q.q.q.q.q.q.q.q.q.q.q.q.q.q.q.q.q.q.",
"q.q.q.q.q.q.q.q.q.q.q.q.q.q.q.q.q.q.q.q.q.q.q.q.q.q.q.q.q.q.q.q.q.q.q.q.q.q.q.q.q.q.q.q.q.q.%.* X = = = = = = = = = = = = = = = = = - - - - - - - - - - - - - - - - - - - - - - ; - - ; ; ; ; ; ; ; ; ; ; ; ; ; ; ; ; ; ; ; ; ; ; ; ; ; ; 7 n n n n n n n n n n n n n n n n n n n b 4 ; ; ; ; ; ; ; ; ; ; ; ; ; ; ; ; ; ; ; ; ; ; ; ; ; ; ; ; ; - - - - - - - - - - - - - - - - - - - - - - - - = = = = = = = = = = = = = = = X * %.q.q.q.q.q.q.q.q.q.q.q.q.q.q.q.q.q.q.q.q.q.q.q.q.q.q.q.q.q.q.q.q.q.q.q.q.q.q.q.q.q.q.q.q.q.q.",
"q.q.q.q.q.q.q.q.q.q.q.q.q.q.q.q.q.q.q.q.q.q.q.q.q.q.q.q.q.q.q.q.q.q.q.q.q.q.q.q.q.q.q.q.q.q.q.4.m o = = = = = = = = = = = = = = = = - - - - - - - - - - - - - - - - - - - - - - - - ; ; ; ; ; ; ; ; ; ; ; ; ; ; ; ; ; ; ; ; ; ; ; ; ; ; - 7 n n n n n n n n n n n n n n n n n n n b 4 ; ; ; ; ; ; ; ; ; ; ; ; ; ; ; ; ; ; ; ; ; ; ; ; ; ; ; - - - - - - - - - - - - - - - - - - - - - - = = = = = = = = = = = = = = = = = = o m 4.q.q.q.q.q.q.q.q.q.q.q.q.q.q.q.q.q.q.q.q.q.q.q.q.q.q.q.q.q.q.q.q.q.q.q.q.q.q.q.q.q.q.q.q.q.q.q.",
"q.q.q.q.q.q.q.q.q.q.q.q.q.q.q.q.q.q.q.q.q.q.q.q.q.q.q.q.q.q.q.q.q.q.q.q.q.q.q.q.q.q.q.q.q.q.q.q.q.) . = = = = = = = = = = = = = = = = = = - - - - - - - - - - - - - - - - - - - - - - - ; ; ; ; ; ; ; ; ; ; ; ; ; ; ; ; ; ; ; ; ; ; ; ; - 7 n n n n n n n n n n n n n n n n n n n b 4 ; ; ; ; ; ; ; ; ; ; ; ; ; ; ; ; ; ; ; ; ; ; ; ; - ; - - - - - - - - - - - - - - - - - - - - - - = = = = = = = = = = = = = = = = = = . ) q.q.q.q.q.q.q.q.q.q.q.q.q.q.q.q.q.q.q.q.q.q.q.q.q.q.q.q.q.q.q.q.q.q.q.q.q.q.q.q.q.q.q.q.q.q.q.q.q.",
"q.q.q.q.q.q.q.q.q.q.q.q.q.q.q.q.q.q.q.q.q.q.q.q.q.q.q.q.q.q.q.q.q.q.q.q.q.q.q.q.q.q.q.q.q.q.q.q.q.q.O.% X = = = = = = = = = = = = = = = = = - - - - - - - - - - - - - - - - - - - - - - - ; ; ; ; ; ; ; ; ; ; ; ; ; ; ; ; ; ; ; ; ; ; ; - 7 n n n n n n n n n n n n n n n n n n n b 4 - ; ; ; ; ; ; ; ; ; ; ; ; ; ; ; ; - - - - - - - - - - - - - - - - - - - - - - - - - - - - - = = = = = = = = = = = = = = = = = = X % O.q.q.q.q.q.q.q.q.q.q.q.q.q.q.q.q.q.q.q.q.q.q.q.q.q.q.q.q.q.q.q.q.q.q.q.q.q.q.q.q.q.q.q.q.q.q.q.q.q.q.",
"q.q.q.q.q.q.q.q.q.q.q.q.q.q.q.q.q.q.q.q.q.q.q.q.q.q.q.q.q.q.q.q.q.q.q.q.q.q.q.q.q.q.q.q.q.q.q.q.q.q.q.<.m o = = = = = = = = = = = = = = = = = = = - - - - - - - - - - - - - - - - - - - - - - - - - - - ; ; ; ; - - ; ; ; ; ; ; ; ; ; ; - 7 n n n n n n n n n n n n n n n n n n n b 4 - ; ; ; ; ; ; ; ; ; ; ; ; ; ; ; ; - - - - - - - - - - - - - - - - - - - - - - - - - - - - = = = = = = = = = = = = = = = = = = o m <.q.q.q.q.q.q.q.q.q.q.q.q.q.q.q.q.q.q.q.q.q.q.q.q.q.q.q.q.q.q.q.q.q.q.q.q.q.q.q.q.q.q.q.q.q.q.q.q.q.q.q.",
"q.q.q.q.q.q.q.q.q.q.q.q.q.q.q.q.q.q.q.q.q.q.q.q.q.q.q.q.q.q.q.q.q.q.q.q.q.q.q.q.q.q.q.q.q.q.q.q.q.q.q.q.q.( $ = = = = = = = = = = = = = = = = = = = - - - - - - - - - - - - - - - - - - - - - - - - - - ; ; ; ; - ; ; ; ; ; ; ; ; ; ; ; - 7 n n n n n n n n n n n n n n n n n n n b 4 - ; ; ; ; ; ; ; ; ; ; ; ; ; ; ; ; - - - - - - - - - - - - - - - - - - - - - - - - - - = = = = = = = = = = = = = = = = = = = $ ( q.q.q.q.q.q.q.q.q.q.q.q.q.q.q.q.q.q.q.q.q.q.q.q.q.q.q.q.q.q.q.q.q.q.q.q.q.q.q.q.q.q.q.q.q.q.q.q.q.q.q.q.q.",
"q.q.q.q.q.q.q.q.q.q.q.q.q.q.q.q.q.q.q.q.q.q.q.q.q.q.q.q.q.q.q.q.q.q.q.q.q.q.q.q.q.q.q.q.q.q.q.q.q.q.q.q.q.q.@.* o = = = = = = = = = = = = = = = = = = = - - - - - - - - - - - - - - - - - - - - - - - - - - - - - - ; ; ; ; ; ; ; ; ; ; - 7 n n n n n n n n n n n n n n n n n n n b 4 - ; ; ; ; ; ; ; ; ; - - - - ; ; ; - - - - - - - - - - - - - - - - - - - - - - - - = = = = = = = = = = = = = = = = = = = o * @.q.q.q.q.q.q.q.q.q.q.q.q.q.q.q.q.q.q.q.q.q.q.q.q.q.q.q.q.q.q.q.q.q.q.q.q.q.q.q.q.q.q.q.q.q.q.q.q.q.q.q.q.q.q.",
"q.q.q.q.q.q.q.q.q.q.q.q.q.q.q.q.q.q.q.q.q.q.q.q.q.q.q.q.q.q.q.q.q.q.q.q.q.q.q.q.q.q.q.q.q.q.q.q.q.q.q.q.q.q.q.q.L . = = = = = = = = = = = = = = = = = = = = - - - - - - - - - - - - - - - - - - - - - - - - - - - - - - - - - - ; ; ; ; - 7 n n n n n n n n n n n n n n n n n n n b 4 - ; ; ; ; ; ; ; - - - - - - - - - - - - - - - - - - - - - - - - - - - - - - - = = = = = = = = = = = = = = = = = = = = . L q.q.q.q.q.q.q.q.q.q.q.q.q.q.q.q.q.q.q.q.q.q.q.q.q.q.q.q.q.q.q.q.q.q.q.q.q.q.q.q.q.q.q.q.q.q.q.q.q.q.q.q.q.q.q.q.",
"q.q.q.q.q.q.q.q.q.q.q.q.q.q.q.q.q.q.q.q.q.q.q.q.q.q.q.q.q.q.q.q.q.q.q.q.q.q.q.q.q.q.q.q.q.q.q.q.q.q.q.q.q.q.q.q.q.o.* o = = = = = = = = = = = = = = = = = = = = = - - - - - - - - - - - - - - - - - - - - - - - - - - - - - - - - ; ; ; - 7 n n n n n n n n n n n n n n n n n n n b 4 - - ; ; ; - - - - - - - - - - - - - - - - - - - - - - - - - - - - - - - = = = = = = = = = = = = = = = = = = = = = o * o.q.q.q.q.q.q.q.q.q.q.q.q.q.q.q.q.q.q.q.q.q.q.q.q.q.q.q.q.q.q.q.q.q.q.q.q.q.q.q.q.q.q.q.q.q.q.q.q.q.q.q.q.q.q.q.q.q.",
"q.q.q.q.q.q.q.q.q.q.q.q.q.q.q.q.q.q.q.q.q.q.q.q.q.q.q.q.q.q.q.q.q.q.q.q.q.q.q.q.q.q.q.q.q.q.q.q.q.q.q.q.q.q.q.q.q.q.q.T # = = = = = = = = = = = = = = = = = = = = - - - - - - - - - - - - - - - - - - - - - - - - - - - - - - - - - - - - 4 b n n n n n n n n n n n n n n n n n n v 1 - - - - - - - - - - - - - - - - - - - - - - - - - - - - - - - - - = = = = = = = = = = = = = = = = = = = = = = X # T q.q.q.q.q.q.q.q.q.q.q.q.q.q.q.q.q.q.q.q.q.q.q.q.q.q.q.q.q.q.q.q.q.q.q.q.q.q.q.q.q.q.q.q.q.q.q.q.q.q.q.q.q.q.q.q.q.q.q.",
"q.q.q.q.q.q.q.q.q.q.q.q.q.q.q.q.q.q.q.q.q.q.q.q.q.q.q.q.q.q.q.q.q.q.q.q.q.q.q.q.q.q.q.q.q.q.q.q.q.q.q.q.q.q.q.q.q.q.q.q.%.Z O = = = = = = = = = = = = = = = = = = = - = = = - - - - - - - - - - - - - - - - - - - - - - - - - - - - - - - ; e l l l l l l l l l l l l l l l l l l q ; - - - - - - - - - - - - - - - - - - - - - - - - - - - - - - - - - = = = = = = = = = = = = = = = = = = = = = O Z %.q.q.q.q.q.q.q.q.q.q.q.q.q.q.q.q.q.q.q.q.q.q.q.q.q.q.q.q.q.q.q.q.q.q.q.q.q.q.q.q.q.q.q.q.q.q.q.q.q.q.q.q.q.q.q.q.q.q.q.q.",
"q.q.q.q.q.q.q.q.q.q.q.q.q.q.q.q.q.q.q.q.q.q.q.q.q.q.q.q.q.q.q.q.q.q.q.q.q.q.q.q.q.q.q.q.q.q.q.q.q.q.q.q.q.q.q.q.q.q.q.q.q.q.' * o = = = = = = = = = = = = = = = = = = = = = = = = - - - - - - - - - - - - - - - - - - - - - - - - - - - - - - ; ; ; ; ; ; ; ; ; ; ; ; ; ; ; ; ; ; - - - - - - - - - - - - - - - - - - - - - - - - - - - - - - = = = = - = = = = = = = = = = = = = = = = = = = o * } q.q.q.q.q.q.q.q.q.q.q.q.q.q.q.q.q.q.q.q.q.q.q.q.q.q.q.q.q.q.q.q.q.q.q.q.q.q.q.q.q.q.q.q.q.q.q.q.q.q.q.q.q.q.q.q.q.q.q.q.q.q.",
"q.q.q.q.q.q.q.q.q.q.q.q.q.q.q.q.q.q.q.q.q.q.q.q.q.q.q.q.q.q.q.q.q.q.q.q.q.q.q.q.q.q.q.q.q.q.q.q.q.q.q.q.q.q.q.q.q.q.q.q.q.q.q.4.T # X = = = = = = = = = = = = = = = = = = = = = = = = - - - - - - - - - - - - - - - - - - - - - - - - - - - - - - - - - - - - - - - - - - - - - - - - - - - - - - - - - - - - - - - - - - - - - - - - - = = = = = = = = = = = = = = = = = = = = = = = = = X # T 4.q.q.q.q.q.q.q.q.q.q.q.q.q.q.q.q.q.q.q.q.q.q.q.q.q.q.q.q.q.q.q.q.q.q.q.q.q.q.q.q.q.q.q.q.q.q.q.q.q.q.q.q.q.q.q.q.q.q.q.q.q.q.q.",
"q.q.q.q.q.q.q.q.q.q.q.q.q.q.q.q.q.q.q.q.q.q.q.q.q.q.q.q.q.q.q.q.q.q.q.q.q.q.q.q.q.q.q.q.q.q.q.q.q.q.q.q.q.q.q.q.q.q.q.q.q.q.q.q.q.-.S . = = = = = = = = = = = = = = = = = = = = = = = = = = - - - - - - - - - - - - - - - - - - - - - - - - - - - - - - - - - - - - - - - - - - - - - - - - - - - - - - - - - - - - - - - - - - - = = = = = = = = = = = = = = = = = = = = = = = = = = = . S -.q.q.q.q.q.q.q.q.q.q.q.q.q.q.q.q.q.q.q.q.q.q.q.q.q.q.q.q.q.q.q.q.q.q.q.q.q.q.q.q.q.q.q.q.q.q.q.q.q.q.q.q.q.q.q.q.q.q.q.q.q.q.q.q.q.",
"q.q.q.q.q.q.q.q.q.q.q.q.q.q.q.q.q.q.q.q.q.q.q.q.q.q.q.q.q.q.q.q.q.q.q.q.q.q.q.q.q.q.q.q.q.q.q.q.q.q.q.q.q.q.q.q.q.q.q.q.q.q.q.q.q.q.q.@.m . = = = = = = = = = = = = = = = = = = = = = = = = - - = = - - - - - - - - - - - - - - - - - - - - - - - - - - - - - - - - - - - - - - - - - - - - - - - - - - - - - - - - - - - - = = = = = = = = = = = = = = = = = = = = = = = = = = = = . m %.q.q.q.q.q.q.q.q.q.q.q.q.q.q.q.q.q.q.q.q.q.q.q.q.q.q.q.q.q.q.q.q.q.q.q.q.q.q.q.q.q.q.q.q.q.q.q.q.q.q.q.q.q.q.q.q.q.q.q.q.q.q.q.q.q.q.q.",
"q.q.q.q.q.q.q.q.q.q.q.q.q.q.q.q.q.q.q.q.q.q.q.q.q.q.q.q.q.q.q.q.q.q.q.q.q.q.q.q.q.q.q.q.q.q.q.q.q.q.q.q.q.q.q.q.q.q.q.q.q.q.q.q.q.q.q.q.q.o.C . = = = = = = = = = = = = = = = = = = = = = = = - = = = = = = - - - - - - - - - - - - - - - - - - - - - - - - - - - - - - - - - - - - - - - - - - - - - - - - - - - - = = = = = = = = = = = = = = = = = = = = = = = = = = = = = = . C o.q.q.q.q.q.q.q.q.q.q.q.q.q.q.q.q.q.q.q.q.q.q.q.q.q.q.q.q.q.q.q.q.q.q.q.q.q.q.q.q.q.q.q.q.q.q.q.q.q.q.q.q.q.q.q.q.q.q.q.q.q.q.q.q.q.q.q.q.q.",
"q.q.q.q.q.q.q.q.q.q.q.q.q.q.q.q.q.q.q.q.q.q.q.q.q.q.q.q.q.q.q.q.q.q.q.q.q.q.q.q.q.q.q.q.q.q.q.q.q.q.q.q.q.q.q.q.q.q.q.q.q.q.q.q.q.q.q.q.q.q.q.o.m . X = = = = = = = = = = = = = = = = = = = = = = = = = = = = = = - - - - - - - - - - - - - - - - - - - - - - - - - - - - - - - - - - - - - - - - - - = = = = = = = = = = = = = = = = = = = = = = = = = = = = = = = = = = X . m o.q.q.q.q.q.q.q.q.q.q.q.q.q.q.q.q.q.q.q.q.q.q.q.q.q.q.q.q.q.q.q.q.q.q.q.q.q.q.q.q.q.q.q.q.q.q.q.q.q.q.q.q.q.q.q.q.q.q.q.q.q.q.q.q.q.q.q.q.q.q.q.",
"q.q.q.q.q.q.q.q.q.q.q.q.q.q.q.q.q.q.q.q.q.q.q.q.q.q.q.q.q.q.q.q.q.q.q.q.q.q.q.q.q.q.q.q.q.q.q.q.q.q.q.q.q.q.q.q.q.q.q.q.q.q.q.q.q.q.q.q.q.q.q.q.q.@.H $ X = = = = = = = = = = = = = = = = = = = = = = = = = = = = = = = = = = = - - - - - - - - - - - - - - - - - - - - - - - - - - - - - - = = - = = = = = = = = = = = = = = = = = = = = = = = = = = = = = = = = = = X # F @.q.q.q.q.q.q.q.q.q.q.q.q.q.q.q.q.q.q.q.q.q.q.q.q.q.q.q.q.q.q.q.q.q.q.q.q.q.q.q.q.q.q.q.q.q.q.q.q.q.q.q.q.q.q.q.q.q.q.q.q.q.q.q.q.q.q.q.q.q.q.q.q.q.",
"q.q.q.q.q.q.q.q.q.q.q.q.q.q.q.q.q.q.q.q.q.q.q.q.q.q.q.q.q.q.q.q.q.q.q.q.q.q.q.q.q.q.q.q.q.q.q.q.q.q.q.q.q.q.q.q.q.q.q.q.q.q.q.q.q.q.q.q.q.q.q.q.q.q.q.:.L # o = = = = = = = = = = = = = = = = = = = = = = = = = = = = = = = = = = = = = = = = = = - - - = = = = - - - = = = = = = = - = = = = = = = = = = = = = = = = = = = = = = = = = = = = = = = = = = = = = = o # L -.q.q.q.q.q.q.q.q.q.q.q.q.q.q.q.q.q.q.q.q.q.q.q.q.q.q.q.q.q.q.q.q.q.q.q.q.q.q.q.q.q.q.q.q.q.q.q.q.q.q.q.q.q.q.q.q.q.q.q.q.q.q.q.q.q.q.q.q.q.q.q.q.q.q.q.",
"q.q.q.q.q.q.q.q.q.q.q.q.q.q.q.q.q.q.q.q.q.q.q.q.q.q.q.q.q.q.q.q.q.q.q.q.q.q.q.q.q.q.q.q.q.q.q.q.q.q.q.q.q.q.q.q.q.q.q.q.q.q.q.q.q.q.q.q.q.q.q.q.q.q.q.q.q.4.^ * . X = = = = = = = = = = = = = = = = = = = = = = = = = = = = = = = = = = = = = = = = = = = = = = = = = = = = = = = = = = = = = = = = = = = = = = = = = = = = = = = = = = = = = = = = = = = = X . * ^ 4.q.q.q.q.q.q.q.q.q.q.q.q.q.q.q.q.q.q.q.q.q.q.q.q.q.q.q.q.q.q.q.q.q.q.q.q.q.q.q.q.q.q.q.q.q.q.q.q.q.q.q.q.q.q.q.q.q.q.q.q.q.q.q.q.q.q.q.q.q.q.q.q.q.q.q.q.q.",
"q.q.q.q.q.q.q.q.q.q.q.q.q.q.q.q.q.q.q.q.q.q.q.q.q.q.q.q.q.q.q.q.q.q.q.q.q.q.q.q.q.q.q.q.q.q.q.q.q.q.q.q.q.q.q.q.q.q.q.q.q.q.q.q.q.q.q.q.q.q.q.q.q.q.q.q.q.q.q.q.@.F # o = = = = = = = = = = = = = = = = = = = = = = = = = = = = = = = = = = = = = = = = = = = = = = = = = = = = = = = = = = = = = = = = = = = = = = = = = = = = = = = = = = = = = = = = o # F #.q.q.q.q.q.q.q.q.q.q.q.q.q.q.q.q.q.q.q.q.q.q.q.q.q.q.q.q.q.q.q.q.q.q.q.q.q.q.q.q.q.q.q.q.q.q.q.q.q.q.q.q.q.q.q.q.q.q.q.q.q.q.q.q.q.q.q.q.q.q.q.q.q.q.q.q.q.q.q.q.",
"q.q.q.q.q.q.q.q.q.q.q.q.q.q.q.q.q.q.q.q.q.q.q.q.q.q.q.q.q.q.q.q.q.q.q.q.q.q.q.q.q.q.q.q.q.q.q.q.q.q.q.q.q.q.q.q.q.q.q.q.q.q.q.q.q.q.q.q.q.q.q.q.q.q.q.q.q.q.q.q.q.q.4.[ N $ o = = = = = = = = = = = = = = = = = = = = = = = = = = = = = = = = = = = = = = = = = = = = = = = = = = = = = = = = = = = = = = = = = = = = = = = = = = = = = = = = = = o $ N [ 4.q.q.q.q.q.q.q.q.q.q.q.q.q.q.q.q.q.q.q.q.q.q.q.q.q.q.q.q.q.q.q.q.q.q.q.q.q.q.q.q.q.q.q.q.q.q.q.q.q.q.q.q.q.q.q.q.q.q.q.q.q.q.q.q.q.q.q.q.q.q.q.q.q.q.q.q.q.q.q.q.q.q.",
"q.q.q.q.q.q.q.q.q.q.q.q.q.q.q.q.q.q.q.q.q.q.q.q.q.q.q.q.q.q.q.q.q.q.q.q.q.q.q.q.q.q.q.q.q.q.q.q.q.q.q.q.q.q.q.q.q.q.q.q.q.q.q.q.q.q.q.q.q.q.q.q.q.q.q.q.q.q.q.q.q.q.q.q.q.<.) C . o = = = = = = = = = = = = = = = = = = = = = = = = = = = = = = = = = = = = = = = = = = = = = = = = = = = = = = = = = = = = = = = = = = = = = = = = = = = = o . C ) <.q.q.q.q.q.q.q.q.q.q.q.q.q.q.q.q.q.q.q.q.q.q.q.q.q.q.q.q.q.q.q.q.q.q.q.q.q.q.q.q.q.q.q.q.q.q.q.q.q.q.q.q.q.q.q.q.q.q.q.q.q.q.q.q.q.q.q.q.q.q.q.q.q.q.q.q.q.q.q.q.q.q.q.q.q.",
"q.q.q.q.q.q.q.q.q.q.q.q.q.q.q.q.q.q.q.q.q.q.q.q.q.q.q.q.q.q.q.q.q.q.q.q.q.q.q.q.q.q.q.q.q.q.q.q.q.q.q.q.q.q.q.q.q.q.q.q.q.q.q.q.q.q.q.q.q.q.q.q.q.q.q.q.q.q.q.q.q.q.q.q.q.q.q.q.-.^ N # o = = = = = = = = = = = = = = = = = = = = = = = = = = = = = = = = = = = = = = = = = = = = = = = = = = = = = = = = = = = = = = = = = = = = = = o # N ^ -.q.q.q.q.q.q.q.q.q.q.q.q.q.q.q.q.q.q.q.q.q.q.q.q.q.q.q.q.q.q.q.q.q.q.q.q.q.q.q.q.q.q.q.q.q.q.q.q.q.q.q.q.q.q.q.q.q.q.q.q.q.q.q.q.q.q.q.q.q.q.q.q.q.q.q.q.q.q.q.q.q.q.q.q.q.q.q.q.",
"q.q.q.q.q.q.q.q.q.q.q.q.q.q.q.q.q.q.q.q.q.q.q.q.q.q.q.q.q.q.q.q.q.q.q.q.q.q.q.q.q.q.q.q.q.q.q.q.q.q.q.q.q.q.q.q.q.q.q.q.q.q.q.q.q.q.q.q.q.q.q.q.q.q.q.q.q.q.q.q.q.q.q.q.q.q.q.q.q.q.q.6.[ F * . o = = = = = = = = = = = = = = = = = = = = = = = = = = = = = = = = = = = = = = = = = = = = = = = = = = = = = = = = = = = = = = o . * F [ 4.q.q.q.q.q.q.q.q.q.q.q.q.q.q.q.q.q.q.q.q.q.q.q.q.q.q.q.q.q.q.q.q.q.q.q.q.q.q.q.q.q.q.q.q.q.q.q.q.q.q.q.q.q.q.q.q.q.q.q.q.q.q.q.q.q.q.q.q.q.q.q.q.q.q.q.q.q.q.q.q.q.q.q.q.q.q.q.q.q.q.q.",
"q.q.q.q.q.q.q.q.q.q.q.q.q.q.q.q.q.q.q.q.q.q.q.q.q.q.q.q.q.q.q.q.q.q.q.q.q.q.q.q.q.q.q.q.q.q.q.q.q.q.q.q.q.q.q.q.q.q.q.q.q.q.q.q.q.q.q.q.q.q.q.q.q.q.q.q.q.q.q.q.q.q.q.q.q.q.q.q.q.q.q.q.q.q.q.1.^ m * . o X = = = = = = = = = = = = = = = = = = = = = = = = = = = = = = = = = = = = = = = = = = = = = = = = = = = = X o . * m ^ :.q.q.q.q.q.q.q.q.q.q.q.q.q.q.q.q.q.q.q.q.q.q.q.q.q.q.q.q.q.q.q.q.q.q.q.q.q.q.q.q.q.q.q.q.q.q.q.q.q.q.q.q.q.q.q.q.q.q.q.q.q.q.q.q.q.q.q.q.q.q.q.q.q.q.q.q.q.q.q.q.q.q.q.q.q.q.q.q.q.q.q.q.q.q.q.",
"q.q.q.q.q.q.q.q.q.q.q.q.q.q.q.q.q.q.q.q.q.q.q.q.q.q.q.q.q.q.q.q.q.q.q.q.q.q.q.q.q.q.q.q.q.q.q.q.q.q.q.q.q.q.q.q.q.q.q.q.q.q.q.q.q.q.q.q.q.q.q.q.q.q.q.q.q.q.q.q.q.q.q.q.q.q.q.q.q.q.q.q.q.q.q.q.q.q.q.-.' I C # . o X = = = = = = = = = = = = = = = = = = = = = = = = = = = = = = = = = = = = = = = = = = X o . # C T } :.q.q.q.q.q.q.q.q.q.q.q.q.q.q.q.q.q.q.q.q.q.q.q.q.q.q.q.q.q.q.q.q.q.q.q.q.q.q.q.q.q.q.q.q.q.q.q.q.q.q.q.q.q.q.q.q.q.q.q.q.q.q.q.q.q.q.q.q.q.q.q.q.q.q.q.q.q.q.q.q.q.q.q.q.q.q.q.q.q.q.q.q.q.q.q.q.q.q.q.",
"q.q.q.q.q.q.q.q.q.q.q.q.q.q.q.q.q.q.q.q.q.q.q.q.q.q.q.q.q.q.q.q.q.q.q.q.q.q.q.q.q.q.q.q.q.q.q.q.q.q.q.q.q.q.q.q.q.q.q.q.q.q.q.q.q.q.q.q.q.q.q.q.q.q.q.q.q.q.q.q.q.q.q.q.q.q.q.q.q.q.q.q.q.q.q.q.q.q.q.q.q.q.q.q.1.[ T m * # .   o X = = = = = = = = = = = = = = = = = = = = = = = = = = = = X o O . # * m T [ :.q.q.q.q.q.q.q.q.q.q.q.q.q.q.q.q.q.q.q.q.q.q.q.q.q.q.q.q.q.q.q.q.q.q.q.q.q.q.q.q.q.q.q.q.q.q.q.q.q.q.q.q.q.q.q.q.q.q.q.q.q.q.q.q.q.q.q.q.q.q.q.q.q.q.q.q.q.q.q.q.q.q.q.q.q.q.q.q.q.q.q.q.q.q.q.q.q.q.q.q.q.q.q.q.",
"q.q.q.q.q.q.q.q.q.q.q.q.q.q.q.q.q.q.q.q.q.q.q.q.q.q.q.q.q.q.q.q.q.q.q.q.q.q.q.q.q.q.q.q.q.q.q.q.q.q.q.q.q.q.q.q.q.q.q.q.q.q.q.q.q.q.q.q.q.q.q.q.q.q.q.q.q.q.q.q.q.q.q.q.q.q.q.q.q.q.q.q.q.q.q.q.q.q.q.q.q.q.q.q.q.q.q.q.q.q.:.O.^ L m C * # # . O o o X X = = = = = = X X o o   . # # * C m L ^ O.:.q.q.q.q.q.q.q.q.q.q.q.q.q.q.q.q.q.q.q.q.q.q.q.q.q.q.q.q.q.q.q.q.q.q.q.q.q.q.q.q.q.q.q.q.q.q.q.q.q.q.q.q.q.q.q.q.q.q.q.q.q.q.q.q.q.q.q.q.q.q.q.q.q.q.q.q.q.q.q.q.q.q.q.q.q.q.q.q.q.q.q.q.q.q.q.q.q.q.q.q.q.q.q.q.q.q.q.q.q.q."
};
