/* XPM */
static const char *bitcoin64[] = {
/* columns rows colors chars-per-pixel */
"64 64 106 2 ",
"   c #4C0182",
".  c #4C0283",
"X  c #4C0283",
"o  c #4C0283",
"O  c #4C0182",
"+  c #4C0182",
"@  c #4B0182",
"#  c #4B0182",
"$  c #4E0684",
"%  c #510D87",
"&  c #56178B",
"*  c #5B228F",
"=  c #5E2791",
"-  c #612D93",
";  c #653797",
":  c #713D9D",
">  c #6B459C",
",  c #704C9F",
"<  c #7549A1",
"1  c #7556A3",
"2  c #7A63A7",
"3  c #825DAA",
"4  c #8666AE",
"5  c #8D6AB2",
"6  c #936EB5",
"7  c #9879B9",
"8  c #A27EBF",
"9  c #9E89BE",
"0  c #A087BF",
"q  c #9F8DC0",
"w  c #A58CC2",
"e  c #AC97C7",
"r  c #B39BCB",
"t  c #B4A4CD",
"y  c #BBAAD1",
"u  c #C1ADD5",
"i  c #C8B8DA",
"p  c #CEC1DE",
"a  c #D1C1DF",
"s  c #D2C4E1",
"d  c #D1C3E0",
"f  c #D7C9E4",
"g  c #D7CCE4",
"h  c #D9CDE5",
"j  c #D5C9E3",
"k  c #DDD1E8",
"l  c #DED5E9",
"z  c #DDD4E8",
"x  c #E0D6EA",
"c  c #E1D8EA",
"v  c #E3DAEC",
"b  c #E4DAEC",
"n  c #E6DFEE",
"m  c #E7DFEF",
"M  c #E4DCEC",
"N  c #E9E3F0",
"B  c #EDE6F3",
"V  c #EDE8F3",
"C  c #EFEBF4",
"Z  c #ECE7F2",
"A  c #F2EDF6",
"S  c #F4EFF7",
"D  c #F2EEF6",
"F  c #F4F0F7",
"G  c #F5F2F8",
"H  c #F6F4F9",
"J  c #F8F5FA",
"K  c #F8F6FA",
"L  c #F9F8FB",
"P  c #FBF9FC",
"I  c #FCFBFD",
"U  c #FDFCFD",
"Y  c #FDFCFE",
"T  c #FDFDFE",
"R  c #FEFDFE",
"E  c #FEFEFE",
"W  c #FEFEFF",
"Q  c #FFFFFF",
"!  c #FEFEFE",
"~  c #4B0182",
"^  c #4B0182",
"/  c #4B0182",
"(  c #4B0182",
")  c #4B0182",
"_  c #4B0182",
"`  c #4B0182",
"'  c #4B0182",
"]  c #4B0182",
"[  c #4B0082",
"{  c #4B0082",
"}  c #4B0082",
"|  c #4B0082",
" . c #4B0082",
".. c #4B0082",
"X. c #4B0082",
"o. c #4B0082",
"O. c #4B0082",
"+. c #4B0082",
"@. c #4B0082",
"#. c #4B0082",
"$. c #4B0082",
"%. c #4B0082",
"&. c #4A0081",
"*. c #490080",
"=. c None",
"-. c #4B0083",
/* pixels */
"=.=.=.=.=.=.=.=.=.=.=.=.=.=.=.=.=.=.=.=.=.=.=.@.{ ~ #   o X $ $ $ $ X o   # ~ { @.=.=.=.=.=.=.=.=.=.=.=.=.=.=.=.=.=.=.=.=.=.=.=.",
"=.=.=.=.=.=.=.=.=.=.=.=.=.=.=.=.=.=.=.=.@.' #   X $ $ $ $ $ $ $ $ $ $ $ $ $ $ X   # ' @.=.=.=.=.=.=.=.=.=.=.=.=.=.=.=.=.=.=.=.=.",
"=.=.=.=.=.=.=.=.=.=.=.=.=.=.=.=.=.=. .(   . $ $ $ $ $ $ $ $ $ $ % % $ $ $ $ $ $ $ $ .   (  .=.=.=.=.=.=.=.=.=.=.=.=.=.=.=.=.=.=.",
"=.=.=.=.=.=.=.=.=.=.=.=.=.=.=.=. .# X $ $ $ $ $ $ % % % % % % % % % % % % % $ $ $ $ $ $ $ X #  .=.=.=.=.=.=.=.=.=.=.=.=.=.=.=.=.",
"=.=.=.=.=.=.=.=.=.=.=.=.=.=.@._ o $ $ $ $ $ % % % % % % % % % : - % % % % % % % % % $ $ $ $ $ o _ @.=.=.=.=.=.=.=.=.=.=.=.=.=.=.",
"=.=.=.=.=.=.=.=.=.=.=.=.=.{ + $ $ $ $ $ % % % % % % & & & & & u w % & & & % % % % % % % $ $ $ $ $ + { =.=.=.=.=.=.=.=.=.=.=.=.=.",
"=.=.=.=.=.=.=.=.=.=.=.$.~ X $ $ $ $ % % % % % & & & & & & & < S b ; & & & & & & & % % % % % % $ $ $ X ~ $.=.=.=.=.=.=.=.=.=.=.=.",
"=.=.=.=.=.=.=.=.=.=.@.# . $ $ $ % % % % % & & & & & & & & & r Q Q 8 & & & & & & & & & % % % % % $ $ $ . # @.=.=.=.=.=.=.=.=.=.=.",
"=.=.=.=.=.=.=.=.=.o.+ $ $ $ % % % % % & & & & & & & & & & < B Q Q k ; & & & & & & & & & & & % % % % $ $ $ + o.=.=.=.=.=.=.=.=.=.",
"=.=.=.=.=.=.=.=.o.+ $ $ $ % % % % & & & & & & & & & & & * e Q Q Q Q 7 & & & & & & & & & & & & % % % % $ $ $ + o.=.=.=.=.=.=.=.=.",
"=.=.=.=.=.=.=.@.+ $ $ $ % % % % & & & & & & & & * * * * > m Q Q Q Q f ; * * * * * & & & & & & & % % % % $ $ $ + @.=.=.=.=.=.=.=.",
"=.=.=.=.=.=.$.# $ $ $ % % % % & & & & & & * * * * = = * w Q Q Q Q Q P 6 * = = * * * & & & & & & & % % % % $ $ $ # $.=.=.=.=.=.=.",
"=.=.=.=.=.=.~ . $ $ % % % & & & & & & & * * = = = = = : x Q Q Q Q Q Q a ; = = = = = * * & & & & & & & % % % $ $ . ~ =.=.=.=.=.=.",
"=.=.=.=.=.{ X $ $ % % % & & & & & & * * = = = = = = = 7 Q Q Q Q Q Q Q K 5 = - = = = = = * * & & & & & & % % % $ $ X { =.=.=.=.=.",
"=.=.=.=.@.+ $ $ $ % % % & & & & & * * = = = = - - - : h Q Q Q Q Q Q Q Q i ; - - - = = = = * * & & & & & & % % $ $ $ + @.=.=.=.=.",
"=.=.=.=._ $ $ $ % % % & & & & & * * = = = - - - - - 7 P Q Q Q s x Q Q Q G 4 - - - - - = = = * * & & & & & % % % $ $ $ _ =.=.=.=.",
"=.=.=. .o $ $ % % % & & & & & * = = = = - - - - - : s Q Q Q H 5 w Q Q Q Q u ; - - - - - = = = * * & & & & & % % % $ $ o ..=.=.=.",
"=.=.=.# $ $ % % % & & & & & * * = = = - - - ; ; ; 6 H Q Q Q p > < v Q Q Q A 3 ; ; - - - - = = = = * & & & & & % % $ $ $ # =.=.=.",
"=.=...o $ $ % % % & & & & * * = = = - - - ; ; ; : i Q Q Q L 7 ; : e Q Q Q Q y ; ; ; ; - - - = = = * & & & & & & % % $ $ o ..=.=.",
"=.=.( $ $ % % % & & & & & * = = = - - - ; ; ; ; 4 F Q Q Q g < > > 1 n Q Q Q V 3 ; ; ; ; - - - = = = * & & & & & % % % $ $ ( =.=.",
"=.@.  $ $ % % % & & & & * = = = - - - ; ; ; ; : u Q Q Q I 0 > > > > r Q Q Q Q t : ; ; ; ; - - - = = = * & & & & % % % $ $   @.=.",
"=.' . $ % % % & & & & & * = = - - - ; ; ; : ; 4 C Q Q Q l 1 , , , , 4 N Q Q Q N 1 : ; ; ; ; - - - = = * & & & & & % % $ $ . ' =.",
"=.# $ $ % % % & & & & * = = = - - ; ; ; ; : > t Q Q Q Q e , , , , , , t Q Q Q Q e : : ; ; ; - - - = = = * & & & & % % % $ $ # =.",
"@.  $ $ % % & & & & & * = = - - - ; ; ; : : 1 N Q Q Q n 2 < 1 1 1 1 , 4 B Q Q Q n 1 : : ; ; ; - - - = = * & & & & & % % $ $   @.",
"{ X $ $ % % & & & & * = = = - - - ; ; : : > e Q Q Q Q r 1 1 1 1 1 1 1 1 y Q Q Q Q w > > ; ; ; - - - = = = * & & & & % % $ $ X { ",
"~ $ $ % % % & & & & * = = - - - ; ; ; : > 1 M Q Q Q N 4 1 1 1 1 1 1 1 1 5 C Q Q Q l < > : ; ; ; - - - = = * & & & & % % % $ $ ~ ",
"# $ $ % % % & & & & * = = - - - ; ; : > > w Q Q Q Q y 1 1 1 1 1 1 1 1 1 1 y Q Q Q P 0 > > : ; ; - - - = = * & & & & % % % $ $ # ",
"  $ $ % % & & & & * * = - - - ; ; ; : > < z Q Q Q K r 9 9 9 9 9 q q 9 9 9 t L Q Q Q h < > : ; ; ; - - = = * * & & & % % % $ $   ",
"o $ $ % % & & & & * = = - - - ; ; ; : > 9 P Q Q Q Q I I I Q Q Q I Q Q Q Q I Q Q Q Q L 7 : : ; ; ; - - - = = * & & & & % % $ $ o ",
"X $ $ % % & & & & * = = - - - ; ; ; : , j Q Q Q Q Q Q Q Q Q Q Q Q Q Q Q Q Q Q Q Q Q Q s , > ; ; ; - - - = = * & & & & % % $ $ X ",
"$ $ $ % % & & & & * = = - - - ; ; ; ; 7 K Q Q Q Q Q Q Q Q Q Q Q Q Q Q Q Q Q Q Q Q Q Q H 7 : : ; ; - - - = = * & & & & % % $ $ $ ",
"$ $ $ % % & & & & * = = - - - ; ; ; > i Q Q Q Q Q Q Q Q Q Q Q Q Q Q Q Q Q Q Q Q Q Q Q Q i > : ; ; - - - = = * & & & & % % $ $ $ ",
"$ $ $ % % & & & & * = = - - - ; ; ; < w r r r t t t t y y y y y y y y y y t t t t r r r w , ; ; ; - - - = = * & & & & % % $ $ $ ",
"$ $ $ % % & & & & * = = - - - ; ; : > > > , , , 1 1 1 1 1 2 2 2 2 2 2 2 1 1 1 1 , , > > > > ; ; ; - - - = = * & & & & % % $ $ $ ",
"X $ $ % % & & & & * = = - - - ; ; ; ; > > > , , 1 1 1 1 1 2 2 2 2 2 2 1 1 1 1 1 , , > > > ; ; ; ; - - - = = * & & & & % % $ $ X ",
"o $ $ % % & & & & * = = = - - ; ; 7 e e e e e e r r t t t t t t t t t t r r r e e e e w w w 6 ; ; - - = = = * & & & & % % $ $ o ",
"  $ $ % % & & & & * * = = - - - 4 A Q Q Q Q Q Q Q Q Q Q Q Q Q Q Q Q Q Q Q Q Q Q Q Q Q Q Q Q n < - - - = = * * & & & & % % $ $   ",
"# $ $ % % % & & & & * = = - - ; u Q Q Q Q Q Q Q Q Q Q Q Q Q Q Q Q Q Q Q Q Q Q Q Q Q Q Q Q Q Q e - - - = = * & & & & % % % $ $ # ",
"~ $ $ % % % & & & & * = = - = 1 C Q Q Q Q Q Q Q Q Q Q Q Q Q Q Q Q Q Q Q Q Q Q Q Q Q Q Q Q Q Q v , - - = = * & & & & % % % $ $ ~ ",
"{ X $ $ % % & & & & * = = = - r Q Q Q Q H A F F F F F F F P Q Q Q Q P F F F F F F F F H Q Q Q Q w = = = = * & & & & % % $ $ X { ",
"@.  $ $ % % % & & & * * = = < N Q Q Q A 7 3 4 4 4 4 4 5 5 p Q Q Q Q p 5 4 4 4 4 4 4 3 7 F Q Q Q k : = = * & & & & & % % $ $   @.",
"=.# $ $ % % % & & & & * = = w Q Q Q Q u ; ; : > > > > , , y Q Q Q Q y , , > > > > : ; : u Q Q Q Q 7 * * * & & & & % % % $ $ # =.",
"=.' . $ $ % % & & & & * * : v Q Q Q A 3 ; ; : > > > > , > y Q Q Q Q y > , > > > > : ; ; 4 A Q Q Q f ; * & & & & & % % $ $ . ' =.",
"=.@.  $ $ % % % & & & & & 7 Q Q Q Q y ; ; ; ; : : > > > > y Q Q Q Q y > > > > : : ; ; ; ; y Q Q Q P 6 & & & & & % % % $ $   @.=.",
"=.=.( $ $ % % % & & & & - h Q Q Q V 1 - ; ; ; ; : : > > > y Q Q Q Q y > > > : : ; ; ; ; - 3 C Q Q Q d - & & & & % % $ $ $ ( =.=.",
"=.=...o $ $ % % % & & & 6 I Q Q Q r - - - ; ; ; ; ; : : : y Q Q Q Q y ; : : ; ; ; ; ; - - - t Q Q Q K 5 & & & % % % $ $ o ..=.=.",
"=.=.=.# $ $ % % % & & & 5 r e r e , = - - - - ; ; ; ; ; ; y Q Q Q Q t ; ; ; ; ; ; - - - - = < r r r r 5 & & & % % % $ $ # =.=.=.",
"=.=.=. .o $ $ % % % & & & & & & * = = = - - - - ; ; ; ; ; y Q Q Q Q t ; ; ; ; ; - - - - = = = * & & & & & & % % % $ $ o  .=.=.=.",
"=.=.=.=._ $ $ $ % % % & & & & & * * = = = - - - - - - ; - y Q Q Q Q t - ; - - - - - - = = = * * & & & & & % % % $ $ $ _ =.=.=.=.",
"=.=.=.=.@.+ $ $ $ % % % & & & & & * * = = = - - - - - - - y Q Q Q Q t - - - - - - - = = = * * & & & & & & % % $ $ $ + @.=.=.=.=.",
"=.=.=.=.=.{ X $ $ % % % & & & & & & * * = = = = = - - - - t Q Q Q Q r = - - - = = = = = * * & & & & & & % % % $ $ X { =.=.=.=.=.",
"=.=.=.=.=.=.~ . $ $ % % % & & & & & & & * * = = = = = - = t Q Q Q Q r = = = = = = = * * & & & & & & & % % % $ $ . ~ =.=.=.=.=.=.",
"=.=.=.=.=.=.%.# $ $ $ % % % % & & & & & & & * * = = = = = r Q Q Q Q r = = = = = * * & & & & & & & % % % % $ $ $ # %.=.=.=.=.=.=.",
"=.=.=.=.=.=.=.@.+ $ $ $ % % % % & & & & & & & & * * * = * r Q Q Q Q r * = * * * & & & & & & & & % % % % $ $ $ + @.=.=.=.=.=.=.=.",
"=.=.=.=.=.=.=.=.o.+ $ $ $ % % % % & & & & & & & & & & & & r Q Q Q Q r & * & & & & & & & & & & % % % % $ $ $ + o.=.=.=.=.=.=.=.=.",
"=.=.=.=.=.=.=.=.=.o.+ $ $ $ % % % % & & & & & & & & & & & r Q Q Q Q e & & & & & & & & & & % % % % $ $ $ $ + o.=.=.=.=.=.=.=.=.=.",
"=.=.=.=.=.=.=.=.=.=.@.# . $ $ $ % % % % % & & & & & & & & r Q Q Q Q e & & & & & & & & % % % % % $ $ $ . # @.=.=.=.=.=.=.=.=.=.=.",
"=.=.=.=.=.=.=.=.=.=.=.$.~ X $ $ $ % % % % % % & & & & & & e Q Q Q Q e & & & & & & % % % % % $ $ $ $ X ~ $.=.=.=.=.=.=.=.=.=.=.=.",
"=.=.=.=.=.=.=.=.=.=.=.=.=.{ + $ $ $ $ $ % % % % % % % % % e Q Q Q Q e % & % % % % % % % $ $ $ $ $ + { =.=.=.=.=.=.=.=.=.=.=.=.=.",
"=.=.=.=.=.=.=.=.=.=.=.=.=.=.@._ o $ $ $ $ $ % % % % % % % < 8 8 8 8 < % % % % % % % $ $ $ $ $ o _ @.=.=.=.=.=.=.=.=.=.=.=.=.=.=.",
"=.=.=.=.=.=.=.=.=.=.=.=.=.=.=.=. .# X $ $ $ $ $ $ % % % % $ $ $ $ $ $ % % % % $ $ $ $ $ $ X #  .=.=.=.=.=.=.=.=.=.=.=.=.=.=.=.=.",
"=.=.=.=.=.=.=.=.=.=.=.=.=.=.=.=.=.=. .(   . $ $ $ $ $ $ $ $ $ $ % $ $ $ $ $ $ $ $ $ .   (  .=.=.=.=.=.=.=.=.=.=.=.=.=.=.=.=.=.=.",
"=.=.=.=.=.=.=.=.=.=.=.=.=.=.=.=.=.=.=.=.@.' #   X $ $ $ $ $ $ $ $ $ $ $ $ $ $ X   # ' @.=.=.=.=.=.=.=.=.=.=.=.=.=.=.=.=.=.=.=.=.",
"=.=.=.=.=.=.=.=.=.=.=.=.=.=.=.=.=.=.=.=.=.=.=.@.{ ~ #   o X $ $ $ $ X o   # ~ { @.=.=.=.=.=.=.=.=.=.=.=.=.=.=.=.=.=.=.=.=.=.=.=."
};
